; generated by Slic3r 0.7.1 on 2012-05-20 at 17:14:18

; layer_height = .21
; perimeters = 2
; solid_layers = 3
; fill_density = .25
; nozzle_diameter = .35
; filament_diameter = 1.75
; extrusion_multiplier = 1
; perimeter_speed = 50
; infill_speed = 100
; travel_speed = 130
; extrusion_width_ratio = 0
; scale = 1
; single wall width = 0.49mm

M190 S100 ; set bed temperature
M104 S225 ; set temperature
G28 ; home all axes
M109 S225 ; wait for temperature to be reached
G90 ; use absolute coordinates
G21 ; set units to millimeters
G92 E0 ; reset extrusion distance
M82 ; use absolute distances for extrusion
G1 Z0.210 F7800.000
G1 X64.743 Y102.751
G1 F1800.000 E1.50000
G1 X85.673 Y96.501 F2100.000 E2.37373
G1 X115.493 Y91.311 E3.58446
G1 X116.163 Y91.251 E3.61137
G1 X116.443 Y91.241 E3.62258
G1 X128.663 Y91.241 E4.11138
G1 X129.403 Y91.291 E4.14104
G1 X129.803 Y91.341 E4.15717
G1 X130.693 Y91.521 E4.19349
G1 X131.083 Y91.631 E4.20970
G1 X131.833 Y91.891 E4.24145
G1 X132.203 Y92.051 E4.25757
G1 X133.083 Y92.521 E4.29748
G1 X133.423 Y92.741 E4.31368
G1 X134.103 Y93.261 E4.34792
G1 X134.413 Y93.531 E4.36436
G1 X135.003 Y94.121 E4.39774
G1 X135.263 Y94.421 E4.41362
G1 X135.773 Y95.091 E4.44730
G1 X136.103 Y95.611 E4.47193
G1 X136.303 Y95.981 E4.48876
G1 X136.643 Y96.741 E4.52206
G1 X136.883 Y97.441 E4.55166
G1 X137.123 Y98.351 E4.58931
G1 X139.443 Y110.821 E5.09666
G1 X139.483 Y111.161 E5.11036
G1 X139.523 Y111.861 E5.13840
G1 X139.513 Y133.481 E6.00320
G1 X139.453 Y134.141 E6.02971
G1 X139.323 Y134.881 E6.05977
G1 X139.263 Y135.141 E6.07044
G1 X138.993 Y136.011 E6.10688
G1 X138.693 Y136.731 E6.13808
G1 X138.243 Y137.551 E6.17549
G1 X137.833 Y138.171 E6.20522
G1 X137.183 Y138.951 E6.24584
G1 X136.733 Y139.401 E6.27129
G1 X136.193 Y139.871 E6.29993
G1 X135.973 Y140.041 E6.31105
G1 X135.253 Y140.511 E6.34544
G1 X134.673 Y140.831 E6.37194
G1 X133.853 Y141.191 E6.40776
G1 X133.603 Y141.281 E6.41839
G1 X132.523 Y141.581 E6.46322
G1 X98.193 Y148.641 E7.86516
G1 X97.923 Y148.681 E7.87608
G1 X97.263 Y148.741 E7.90259
G1 X96.993 Y148.751 E7.91340
G1 X87.283 Y148.741 E8.30180
G1 X86.623 Y148.681 E8.32831
G1 X86.353 Y148.641 E8.33922
G1 X85.413 Y148.421 E8.37784
G1 X84.753 Y148.211 E8.40554
G1 X66.033 Y140.911 E9.20926
G1 X65.293 Y140.511 E9.24291
G1 X64.573 Y140.041 E9.27730
G1 X63.813 Y139.401 E9.31705
G1 X63.363 Y138.951 E9.34250
G1 X62.793 Y138.271 E9.37799
G1 X62.353 Y137.641 E9.40873
G1 X61.853 Y136.731 E9.45027
G1 X61.553 Y136.011 E9.48147
G1 X61.283 Y135.141 E9.51790
G1 X61.133 Y134.411 E9.54771
G1 X61.093 Y134.141 E9.55863
G1 X60.463 Y108.501 E10.58454
G1 X60.483 Y107.991 E10.60496
G1 X60.553 Y107.481 E10.62555
G1 X60.663 Y106.981 E10.64603
G1 X60.813 Y106.491 E10.66652
G1 X61.003 Y106.021 E10.68680
G1 X61.233 Y105.561 E10.70737
G1 X61.363 Y105.341 E10.71759
G1 X61.803 Y104.721 E10.74800
G1 X62.143 Y104.331 E10.76870
G1 X62.513 Y103.981 E10.78907
G1 X62.913 Y103.661 E10.80956
G1 X63.123 Y103.511 E10.81989
G1 X63.563 Y103.251 E10.84033
G1 X64.023 Y103.021 E10.86090
G1 X64.503 Y102.831 E10.88155
G1 X64.674 Y102.774 E10.88874
G1 F1800.000 E9.38874
G92 E0
G1 X66.900 Y108.938 F7800.000
G1 F1800.000 E1.50000
G1 X81.100 Y108.938 F2100.000 E2.06796
G1 X81.100 Y111.824 E2.18336
G1 X69.600 Y111.824 E2.64336
G1 X69.600 Y121.322 E3.02328
G1 X66.900 Y121.322 E3.13125
G1 X66.900 Y109.012 E3.62364
G1 X66.467 Y108.505 F7800.000
G1 X81.533 Y108.505 F2100.000 E4.22629
G1 X81.533 Y112.257 E4.37639
G1 X70.033 Y112.257 E4.83639
G1 X70.033 Y121.755 E5.21631
G1 X66.467 Y121.755 E5.35896
G1 X66.467 Y108.578 E5.88604
G1 F1800.000 E4.38604
G92 E0
G1 X85.318 Y118.780 F7800.000
G1 F1800.000 E1.50000
G1 X85.716 Y118.115 F2100.000 E1.53098
G1 X86.176 Y117.494 E1.56191
G1 X86.696 Y116.920 E1.59289
G1 X87.270 Y116.400 E1.62386
G1 X87.893 Y115.938 E1.65490
G1 X88.558 Y115.540 E1.68590
G1 X89.257 Y115.209 E1.71683
G1 X89.986 Y114.947 E1.74780
G1 X90.737 Y114.760 E1.77879
G1 X91.503 Y114.646 E1.80975
G1 X92.277 Y114.609 E1.84074
G1 X93.051 Y114.646 E1.87173
G1 X93.817 Y114.760 E1.90269
G1 X94.568 Y114.947 E1.93368
G1 X95.296 Y115.209 E1.96464
G1 X95.998 Y115.540 E1.99566
G1 X96.661 Y115.938 E2.02659
G1 X97.284 Y116.400 E2.05762
G1 X97.858 Y116.920 E2.08860
G1 X98.378 Y117.494 E2.11957
G1 X98.838 Y118.115 E2.15050
G1 X99.236 Y118.780 E2.18148
G1 X99.569 Y119.480 E2.21247
G1 X99.829 Y120.210 E2.24350
G1 X100.016 Y120.959 E2.27438
G1 X100.132 Y121.727 E2.30544
G1 X100.169 Y122.501 E2.33644
G1 X100.132 Y123.273 E2.36736
G1 X100.016 Y124.039 E2.39833
G1 X99.829 Y124.790 E2.42929
G1 X99.569 Y125.520 E2.46032
G1 X99.236 Y126.220 E2.49131
G1 X98.838 Y126.885 E2.52229
G1 X98.378 Y127.506 E2.55321
G1 X97.858 Y128.080 E2.58419
G1 X97.284 Y128.600 E2.61517
G1 X96.661 Y129.062 E2.64620
G1 X95.998 Y129.460 E2.67713
G1 X95.296 Y129.791 E2.70815
G1 X94.568 Y130.053 E2.73911
G1 X93.817 Y130.240 E2.77010
G1 X93.051 Y130.354 E2.80106
G1 X92.277 Y130.391 E2.83205
G1 X91.503 Y130.354 E2.86304
G1 X90.737 Y130.240 E2.89400
G1 X89.986 Y130.053 E2.92498
G1 X89.257 Y129.791 E2.95595
G1 X88.558 Y129.460 E2.98689
G1 X87.893 Y129.062 E3.01789
G1 X87.270 Y128.600 E3.04893
G1 X86.696 Y128.080 E3.07990
G1 X86.176 Y127.506 E3.11088
G1 X85.716 Y126.885 E3.14181
G1 X85.318 Y126.220 E3.17279
G1 X84.985 Y125.520 E3.20378
G1 X84.725 Y124.790 E3.23481
G1 X84.538 Y124.039 E3.26577
G1 X84.424 Y123.273 E3.29673
G1 X84.385 Y122.501 E3.32765
G1 X84.424 Y121.727 E3.35865
G1 X84.538 Y120.959 E3.38969
G1 X84.725 Y120.210 E3.42058
G1 X84.985 Y119.480 E3.45160
G1 X85.286 Y118.846 E3.47967
G1 X84.935 Y118.575 F7800.000
G1 X84.584 Y119.313 F2100.000 E3.51238
G1 X84.454 Y119.678 E3.52786
G1 X84.454 Y112.678 E3.80785
G1 X88.454 Y112.678 E3.96785
G1 X88.454 Y107.359 E4.18061
G1 X87.550 Y107.310 E4.21685
G1 X87.323 Y107.278 E4.22602
G1 X87.105 Y107.222 E4.23500
G1 X86.889 Y107.145 E4.24418
G1 X86.682 Y107.046 E4.25336
G1 X86.488 Y106.931 E4.26240
G1 X86.305 Y106.795 E4.27152
G1 X86.135 Y106.641 E4.28068
G1 X85.984 Y106.473 E4.28973
G1 X85.846 Y106.289 E4.29893
G1 X85.729 Y106.094 E4.30801
G1 X85.632 Y105.891 E4.31702
G1 X85.556 Y105.675 E4.32616
G1 X85.500 Y105.451 E4.33540
G1 X85.466 Y105.228 E4.34444
G1 X85.455 Y105.001 E4.35353
G1 X85.466 Y104.772 E4.36269
G1 X85.500 Y104.549 E4.37172
G1 X85.556 Y104.325 E4.38096
G1 X85.632 Y104.109 E4.39010
G1 X85.729 Y103.906 E4.39911
G1 X85.846 Y103.711 E4.40819
G1 X85.984 Y103.527 E4.41740
G1 X86.135 Y103.359 E4.42645
G1 X86.305 Y103.205 E4.43561
G1 X86.488 Y103.069 E4.44473
G1 X86.682 Y102.954 E4.45377
G1 X86.889 Y102.855 E4.46294
G1 X87.105 Y102.778 E4.47213
G1 X87.323 Y102.722 E4.48110
G1 X87.547 Y102.690 E4.49018
G1 X87.777 Y102.679 E4.49937
G1 X88.007 Y102.690 E4.50856
G1 X88.232 Y102.723 E4.51766
G1 X88.450 Y102.778 E4.52668
G1 X88.664 Y102.855 E4.53577
G1 X88.872 Y102.954 E4.54498
G1 X89.067 Y103.070 E4.55407
G1 X89.251 Y103.205 E4.56319
G1 X89.419 Y103.359 E4.57231
G1 X89.572 Y103.527 E4.58140
G1 X89.707 Y103.710 E4.59049
G1 X89.825 Y103.906 E4.59965
G1 X89.923 Y104.111 E4.60874
G1 X89.999 Y104.325 E4.61781
G1 X90.054 Y104.547 E4.62695
G1 X90.088 Y104.772 E4.63607
G1 X90.131 Y105.678 E4.67237
G1 X94.423 Y105.678 E4.84407
G1 X94.466 Y104.772 E4.88036
G1 X94.500 Y104.549 E4.88940
G1 X94.556 Y104.325 E4.89864
G1 X94.632 Y104.109 E4.90777
G1 X94.729 Y103.906 E4.91678
G1 X94.846 Y103.711 E4.92586
G1 X94.984 Y103.527 E4.93507
G1 X95.135 Y103.359 E4.94412
G1 X95.305 Y103.205 E4.95328
G1 X95.488 Y103.069 E4.96240
G1 X95.682 Y102.954 E4.97144
G1 X95.890 Y102.855 E4.98065
G1 X96.104 Y102.778 E4.98973
G1 X96.322 Y102.723 E4.99875
G1 X96.547 Y102.690 E5.00786
G1 X96.777 Y102.679 E5.01705
G1 X97.007 Y102.690 E5.02624
G1 X97.232 Y102.723 E5.03534
G1 X97.450 Y102.778 E5.04436
G1 X97.664 Y102.855 E5.05345
G1 X97.872 Y102.954 E5.06265
G1 X98.067 Y103.070 E5.07175
G1 X98.251 Y103.205 E5.08087
G1 X98.419 Y103.359 E5.08998
G1 X98.572 Y103.527 E5.09908
G1 X98.707 Y103.710 E5.10816
G1 X98.825 Y103.906 E5.11732
G1 X98.923 Y104.111 E5.12642
G1 X98.999 Y104.325 E5.13549
G1 X99.054 Y104.547 E5.14463
G1 X99.088 Y104.772 E5.15375
G1 X99.099 Y105.001 E5.16291
G1 X99.088 Y105.228 E5.17200
G1 X99.054 Y105.453 E5.18113
G1 X98.999 Y105.675 E5.19026
G1 X98.923 Y105.889 E5.19934
G1 X98.825 Y106.094 E5.20843
G1 X98.707 Y106.290 E5.21759
G1 X98.572 Y106.473 E5.22668
G1 X98.419 Y106.641 E5.23577
G1 X98.251 Y106.795 E5.24488
G1 X98.067 Y106.930 E5.25400
G1 X97.872 Y107.046 E5.26310
G1 X97.664 Y107.145 E5.27231
G1 X97.450 Y107.222 E5.28139
G1 X97.232 Y107.277 E5.29041
G1 X97.004 Y107.310 E5.29961
G1 X96.100 Y107.359 E5.33585
G1 X96.100 Y112.678 E5.54861
G1 X117.330 Y112.678 E6.39785
G1 X117.330 Y102.359 E6.81061
G1 X116.425 Y102.310 E6.84687
G1 X116.197 Y102.277 E6.85612
G1 X115.980 Y102.223 E6.86505
G1 X115.766 Y102.145 E6.87416
G1 X115.557 Y102.046 E6.88341
G1 X115.361 Y101.930 E6.89252
G1 X115.180 Y101.795 E6.90153
G1 X115.011 Y101.641 E6.91070
G1 X114.857 Y101.472 E6.91987
G1 X114.721 Y101.290 E6.92892
G1 X114.606 Y101.096 E6.93796
G1 X114.507 Y100.889 E6.94714
G1 X114.430 Y100.673 E6.95630
G1 X114.374 Y100.453 E6.96537
G1 X114.342 Y100.230 E6.97439
G1 X114.331 Y100.001 E6.98357
G1 X114.342 Y99.770 E6.99283
G1 X114.374 Y99.547 E7.00185
G1 X114.430 Y99.327 E7.01091
G1 X114.507 Y99.111 E7.02007
G1 X114.606 Y98.904 E7.02925
G1 X114.721 Y98.710 E7.03829
G1 X114.857 Y98.528 E7.04735
G1 X115.011 Y98.359 E7.05652
G1 X115.180 Y98.205 E7.06568
G1 X115.361 Y98.070 E7.07469
G1 X115.557 Y97.954 E7.08380
G1 X115.766 Y97.855 E7.09306
G1 X115.980 Y97.777 E7.10217
G1 X116.197 Y97.723 E7.11110
G1 X116.423 Y97.690 E7.12025
G1 X116.653 Y97.679 E7.12946
G1 X116.882 Y97.690 E7.13864
G1 X117.105 Y97.722 E7.14766
G1 X117.325 Y97.778 E7.15672
G1 X117.541 Y97.855 E7.16589
G1 X117.748 Y97.954 E7.17506
G1 X117.942 Y98.069 E7.18410
G1 X118.124 Y98.205 E7.19316
G1 X118.293 Y98.359 E7.20233
G1 X118.447 Y98.528 E7.21149
G1 X118.583 Y98.710 E7.22055
G1 X118.698 Y98.904 E7.22959
G1 X118.797 Y99.111 E7.23877
G1 X118.874 Y99.327 E7.24793
G1 X118.930 Y99.547 E7.25699
G1 X118.962 Y99.772 E7.26610
G1 X119.011 Y100.678 E7.30242
G1 X126.157 Y100.678 E7.58826
G1 X126.231 Y99.659 E7.62913
G1 X126.307 Y99.327 E7.64278
G1 X126.429 Y99.007 E7.65647
G1 X126.598 Y98.711 E7.67009
G1 X126.808 Y98.442 E7.68376
G1 X127.056 Y98.206 E7.69744
G1 X127.334 Y98.010 E7.71107
G1 X127.640 Y97.856 E7.72474
G1 X127.964 Y97.748 E7.73842
G1 X128.299 Y97.691 E7.75203
G1 X128.643 Y97.682 E7.76576
G1 X128.980 Y97.723 E7.77936
G1 X129.307 Y97.814 E7.79294
G1 X129.621 Y97.954 E7.80667
G1 X129.911 Y98.137 E7.82039
G1 X130.169 Y98.359 E7.83401
G1 X130.392 Y98.618 E7.84766
G1 X130.574 Y98.905 E7.86126
G1 X130.711 Y99.217 E7.87491
G1 X130.803 Y99.548 E7.88862
G1 X130.845 Y99.887 E7.90230
G1 X130.837 Y100.229 E7.91597
G1 X130.778 Y100.564 E7.92959
G1 X130.671 Y100.890 E7.94331
G1 X130.518 Y101.194 E7.95691
G1 X130.323 Y101.471 E7.97050
G1 X130.085 Y101.719 E7.98423
G1 X129.816 Y101.930 E7.99789
G1 X129.518 Y102.097 E8.01156
G1 X129.201 Y102.221 E8.02518
G1 X128.867 Y102.295 E8.03888
G1 X127.850 Y102.374 E8.07969
G1 X127.850 Y110.631 E8.40996
G1 X128.571 Y110.929 E8.44119
G1 X129.240 Y110.260 E8.47905
G1 X129.469 Y110.082 E8.49066
G1 X129.717 Y109.935 E8.50217
G1 X129.983 Y109.819 E8.51381
G1 X130.260 Y109.737 E8.52536
G1 X130.544 Y109.690 E8.53688
G1 X130.835 Y109.680 E8.54849
G1 X131.123 Y109.704 E8.56007
G1 X131.405 Y109.764 E8.57161
G1 X131.677 Y109.860 E8.58316
G1 X131.938 Y109.989 E8.59477
G1 X132.179 Y110.150 E8.60637
G1 X132.398 Y110.337 E8.61789
G1 X132.592 Y110.552 E8.62949
G1 X132.758 Y110.789 E8.64102
G1 X132.892 Y111.044 E8.65255
G1 X132.994 Y111.315 E8.66415
G1 X133.063 Y111.597 E8.67576
G1 X133.095 Y111.885 E8.68737
G1 X133.092 Y112.172 E8.69885
G1 X133.052 Y112.460 E8.71048
G1 X132.977 Y112.740 E8.72205
G1 X132.869 Y113.006 E8.73355
G1 X132.727 Y113.259 E8.74514
G1 X132.555 Y113.493 E8.75675
G1 X132.356 Y113.700 E8.76825
G1 X132.130 Y113.885 E8.77993
G1 X131.887 Y114.040 E8.79146
G1 X131.626 Y114.161 E8.80297
G1 X131.349 Y114.249 E8.81458
G1 X131.065 Y114.304 E8.82615
G1 X130.100 Y114.366 E8.86486
G1 X130.100 Y130.647 E9.51612
G1 X131.007 Y130.690 E9.55244
G1 X131.232 Y130.723 E9.56154
G1 X131.450 Y130.778 E9.57056
G1 X131.664 Y130.855 E9.57965
G1 X131.872 Y130.954 E9.58885
G1 X132.066 Y131.069 E9.59789
G1 X132.249 Y131.205 E9.60701
G1 X132.420 Y131.360 E9.61624
G1 X132.572 Y131.527 E9.62527
G1 X132.707 Y131.710 E9.63436
G1 X132.825 Y131.906 E9.64352
G1 X132.923 Y132.111 E9.65261
G1 X132.999 Y132.325 E9.66169
G1 X133.054 Y132.547 E9.67082
G1 X133.088 Y132.772 E9.67995
G1 X133.099 Y132.999 E9.68904
G1 X133.088 Y133.228 E9.69820
G1 X133.054 Y133.453 E9.70732
G1 X132.999 Y133.675 E9.71646
G1 X132.923 Y133.889 E9.72553
G1 X132.825 Y134.094 E9.73463
G1 X132.707 Y134.290 E9.74378
G1 X132.572 Y134.473 E9.75287
G1 X132.420 Y134.640 E9.76191
G1 X132.249 Y134.795 E9.77113
G1 X132.066 Y134.931 E9.78025
G1 X131.872 Y135.046 E9.78929
G1 X131.664 Y135.145 E9.79850
G1 X131.450 Y135.222 E9.80759
G1 X131.232 Y135.277 E9.81661
G1 X131.007 Y135.310 E9.82571
G1 X130.777 Y135.321 E9.83490
G1 X130.547 Y135.310 E9.84409
G1 X130.323 Y135.278 E9.85317
G1 X130.105 Y135.222 E9.86214
G1 X129.889 Y135.145 E9.87133
G1 X129.682 Y135.046 E9.88050
G1 X129.488 Y134.931 E9.88954
G1 X129.305 Y134.795 E9.89866
G1 X129.135 Y134.641 E9.90782
G1 X128.984 Y134.473 E9.91687
G1 X128.846 Y134.289 E9.92608
G1 X128.729 Y134.094 E9.93516
G1 X128.632 Y133.891 E9.94417
G1 X128.556 Y133.675 E9.95330
G1 X128.500 Y133.451 E9.96255
G1 X128.466 Y133.228 E9.97158
G1 X128.423 Y132.322 E10.00788
G1 X96.100 Y132.322 E11.30082
G1 X96.100 Y137.647 E11.51384
G1 X97.007 Y137.690 E11.55016
G1 X97.232 Y137.723 E11.55926
G1 X97.450 Y137.778 E11.56828
G1 X97.664 Y137.855 E11.57737
G1 X97.872 Y137.954 E11.58658
G1 X98.067 Y138.070 E11.59567
G1 X98.251 Y138.205 E11.60479
G1 X98.419 Y138.359 E11.61391
G1 X98.572 Y138.527 E11.62300
G1 X98.707 Y138.710 E11.63209
G1 X98.825 Y138.906 E11.64125
G1 X98.923 Y139.111 E11.65034
G1 X98.999 Y139.325 E11.65941
G1 X99.054 Y139.547 E11.66855
G1 X99.088 Y139.772 E11.67767
G1 X99.099 Y140.001 E11.68684
G1 X99.088 Y140.228 E11.69593
G1 X99.054 Y140.453 E11.70505
G1 X98.999 Y140.675 E11.71419
G1 X98.923 Y140.889 E11.72326
G1 X98.825 Y141.094 E11.73236
G1 X98.707 Y141.290 E11.74151
G1 X98.572 Y141.473 E11.75060
G1 X98.419 Y141.641 E11.75969
G1 X98.251 Y141.795 E11.76881
G1 X98.067 Y141.930 E11.77793
G1 X97.872 Y142.046 E11.78702
G1 X97.664 Y142.145 E11.79623
G1 X97.450 Y142.222 E11.80532
G1 X97.232 Y142.277 E11.81434
G1 X97.007 Y142.310 E11.82344
G1 X96.777 Y142.321 E11.83263
G1 X96.547 Y142.310 E11.84182
G1 X96.322 Y142.277 E11.85092
G1 X96.104 Y142.222 E11.85994
G1 X95.890 Y142.145 E11.86903
G1 X95.682 Y142.046 E11.87824
G1 X95.488 Y141.931 E11.88728
G1 X95.305 Y141.795 E11.89640
G1 X95.135 Y141.641 E11.90555
G1 X94.984 Y141.473 E11.91461
G1 X94.846 Y141.289 E11.92381
G1 X94.729 Y141.094 E11.93289
G1 X94.632 Y140.891 E11.94190
G1 X94.556 Y140.675 E11.95104
G1 X94.500 Y140.451 E11.96028
G1 X94.466 Y140.228 E11.96932
G1 X94.423 Y139.324 E12.00553
G1 X90.131 Y139.324 E12.17721
G1 X90.088 Y140.228 E12.21343
G1 X90.054 Y140.453 E12.22255
G1 X89.999 Y140.675 E12.23169
G1 X89.923 Y140.889 E12.24076
G1 X89.825 Y141.094 E12.24986
G1 X89.707 Y141.290 E12.25901
G1 X89.572 Y141.473 E12.26810
G1 X89.419 Y141.641 E12.27719
G1 X89.251 Y141.795 E12.28631
G1 X89.067 Y141.930 E12.29543
G1 X88.872 Y142.046 E12.30452
G1 X88.664 Y142.145 E12.31373
G1 X88.450 Y142.222 E12.32282
G1 X88.232 Y142.277 E12.33184
G1 X88.007 Y142.310 E12.34094
G1 X87.777 Y142.321 E12.35013
G1 X87.547 Y142.310 E12.35932
G1 X87.323 Y142.278 E12.36840
G1 X87.105 Y142.222 E12.37737
G1 X86.889 Y142.145 E12.38656
G1 X86.682 Y142.046 E12.39573
G1 X86.488 Y141.931 E12.40477
G1 X86.305 Y141.795 E12.41389
G1 X86.135 Y141.641 E12.42305
G1 X85.984 Y141.473 E12.43210
G1 X85.846 Y141.289 E12.44131
G1 X85.729 Y141.094 E12.45039
G1 X85.632 Y140.891 E12.45940
G1 X85.556 Y140.675 E12.46854
G1 X85.500 Y140.451 E12.47778
G1 X85.466 Y140.228 E12.48681
G1 X85.455 Y140.001 E12.49590
G1 X85.466 Y139.772 E12.50507
