; generated by Slic3r 0.7.1 on 2012-05-20 at 18:16:54

; layer_height = .21
; perimeters = 2
; solid_layers = 3
; fill_density = .25
; nozzle_diameter = .35
; filament_diameter = 1.75
; extrusion_multiplier = .95
; perimeter_speed = 100
; infill_speed = 125
; travel_speed = 130
; extrusion_width_ratio = 0
; scale = 1
; single wall width = 0.49mm

M190 S100 ; set bed temperature
M104 S225 ; set temperature
G28 ; home all axes
M109 S225 ; wait for temperature to be reached
G90 ; use absolute coordinates
G21 ; set units to millimeters
G92 E0 ; reset extrusion distance
M82 ; use absolute distances for extrusion
G1 Z0.710 F7800.000
G1 X64.743 Y102.750
G1 F1800.000 E1.50000
G1 X85.673 Y96.500 F4200.000 E2.33004
G1 X115.463 Y91.320 E3.47905
G1 X116.153 Y91.250 E3.50540
G1 X116.423 Y91.240 E3.51567
G1 X128.653 Y91.240 E3.98041
G1 X129.383 Y91.280 E4.00819
G1 X129.793 Y91.330 E4.02389
G1 X130.693 Y91.520 E4.05884
G1 X131.083 Y91.630 E4.07424
G1 X131.833 Y91.890 E4.10440
G1 X132.203 Y92.050 E4.11972
G1 X133.083 Y92.520 E4.15763
G1 X133.423 Y92.740 E4.17302
G1 X134.103 Y93.260 E4.20555
G1 X134.413 Y93.530 E4.22117
G1 X135.003 Y94.120 E4.25288
G1 X135.263 Y94.420 E4.26797
G1 X135.813 Y95.160 E4.30300
G1 X136.033 Y95.510 E4.31871
G1 X136.463 Y96.320 E4.35356
G1 X136.623 Y96.690 E4.36888
G1 X136.883 Y97.440 E4.39904
G1 X137.123 Y98.350 E4.43480
G1 X139.443 Y110.820 E4.91679
G1 X139.483 Y111.160 E4.92980
G1 X139.523 Y111.860 E4.95645
G1 X139.513 Y133.440 E5.77649
G1 X139.443 Y134.180 E5.80473
G1 X139.323 Y134.880 E5.83172
G1 X139.263 Y135.140 E5.84186
G1 X138.993 Y136.010 E5.87648
G1 X138.693 Y136.730 E5.90612
G1 X138.243 Y137.550 E5.94166
G1 X137.833 Y138.170 E5.96991
G1 X137.183 Y138.950 E6.00849
G1 X136.653 Y139.480 E6.03697
G1 X136.053 Y139.980 E6.06665
G1 X135.423 Y140.420 E6.09585
G1 X135.193 Y140.560 E6.10608
G1 X134.493 Y140.920 E6.13599
G1 X133.853 Y141.190 E6.16239
G1 X133.603 Y141.280 E6.17249
G1 X132.523 Y141.580 E6.21508
G1 X98.193 Y148.640 E7.54692
G1 X97.923 Y148.680 E7.55729
G1 X97.263 Y148.740 E7.58248
G1 X96.993 Y148.750 E7.59274
G1 X87.283 Y148.740 E7.96172
G1 X86.623 Y148.680 E7.98691
G1 X86.353 Y148.640 E7.99728
G1 X85.413 Y148.420 E8.03396
G1 X84.753 Y148.210 E8.06028
G1 X66.213 Y140.990 E8.81634
G1 X65.353 Y140.560 E8.85288
G1 X65.123 Y140.420 E8.86311
G1 X64.493 Y139.980 E8.89231
G1 X63.893 Y139.480 E8.92199
G1 X63.363 Y138.950 E8.95047
G1 X62.873 Y138.380 E8.97903
G1 X62.713 Y138.170 E8.98907
G1 X62.303 Y137.550 E9.01731
G1 X61.973 Y136.970 E9.04267
G1 X61.853 Y136.730 E9.05287
G1 X61.553 Y136.010 E9.08251
G1 X61.283 Y135.140 E9.11712
G1 X61.103 Y134.180 E9.15424
G1 X60.463 Y108.500 E10.13038
G1 X60.483 Y107.990 E10.14977
G1 X60.553 Y107.480 E10.16934
G1 X60.663 Y106.980 E10.18879
G1 X60.813 Y106.490 E10.20826
G1 X61.003 Y106.020 E10.22753
G1 X61.233 Y105.560 E10.24707
G1 X61.363 Y105.340 E10.25678
G1 X61.803 Y104.720 E10.28567
G1 X62.143 Y104.330 E10.30533
G1 X62.513 Y103.980 E10.32469
G1 X62.913 Y103.660 E10.34415
G1 X63.123 Y103.510 E10.35396
G1 X63.563 Y103.250 E10.37338
G1 X64.023 Y103.020 E10.39292
G1 X64.503 Y102.830 E10.41254
G1 X64.673 Y102.773 E10.41937
G1 F1800.000 E8.91937
G92 E0
G1 X66.900 Y108.939 F7800.000
G1 F1800.000 E1.50000
G1 X81.100 Y108.939 F4200.000 E2.03958
G1 X81.100 Y111.823 E2.14915
G1 X69.600 Y111.823 E2.58615
G1 X69.600 Y121.323 E2.94715
G1 X66.900 Y121.323 E3.04973
G1 X66.900 Y109.012 E3.51751
G1 X66.467 Y108.506 F7800.000
G1 X81.533 Y108.506 F4200.000 E4.09005
G1 X81.533 Y112.256 E4.23257
G1 X70.033 Y112.256 E4.66957
G1 X70.033 Y121.756 E5.03057
G1 X66.467 Y121.756 E5.16610
G1 X66.467 Y108.579 E5.66684
G1 F1800.000 E4.16684
G92 E0
G1 X70.455 Y124.677 F7800.000
G1 F1800.000 E1.50000
G1 X84.455 Y124.677 F4200.000 E2.03200
G1 X84.455 Y112.677 E2.48800
G1 X88.455 Y112.677 E2.64000
G1 X88.455 Y107.355 E2.84225
G1 X87.550 Y107.311 E2.87669
G1 X87.324 Y107.277 E2.88535
G1 X87.103 Y107.222 E2.89400
G1 X86.889 Y107.145 E2.90266
G1 X86.683 Y107.048 E2.91132
G1 X86.487 Y106.930 E2.91998
G1 X86.304 Y106.795 E2.92863
G1 X86.136 Y106.642 E2.93729
G1 X85.982 Y106.473 E2.94595
G1 X85.847 Y106.290 E2.95461
G1 X85.730 Y106.094 E2.96327
G1 X85.632 Y105.888 E2.97192
G1 X85.555 Y105.674 E2.98058
G1 X85.500 Y105.453 E2.98924
G1 X85.467 Y105.228 E2.99790
G1 X85.455 Y105.000 E3.00656
G1 X85.467 Y104.772 E3.01522
G1 X85.500 Y104.547 E3.02387
G1 X85.555 Y104.326 E3.03253
G1 X85.632 Y104.112 E3.04119
G1 X85.730 Y103.906 E3.04985
G1 X85.847 Y103.710 E3.05851
G1 X85.982 Y103.527 E3.06716
G1 X86.136 Y103.358 E3.07582
G1 X86.304 Y103.205 E3.08448
G1 X86.487 Y103.070 E3.09314
G1 X86.683 Y102.952 E3.10179
G1 X86.889 Y102.855 E3.11045
G1 X87.103 Y102.778 E3.11911
G1 X87.324 Y102.723 E3.12777
G1 X87.550 Y102.689 E3.13643
G1 X87.777 Y102.678 E3.14508
G1 X88.005 Y102.689 E3.15374
G1 X88.230 Y102.723 E3.16240
G1 X88.451 Y102.778 E3.17106
G1 X88.666 Y102.855 E3.17972
G1 X88.872 Y102.952 E3.18837
G1 X89.067 Y103.070 E3.19703
G1 X89.250 Y103.205 E3.20569
G1 X89.419 Y103.358 E3.21435
G1 X89.572 Y103.527 E3.22301
G1 X89.708 Y103.710 E3.23166
G1 X89.825 Y103.906 E3.24032
G1 X89.922 Y104.112 E3.24898
G1 X89.999 Y104.326 E3.25764
G1 X90.054 Y104.547 E3.26630
G1 X90.088 Y104.772 E3.27495
G1 X90.132 Y105.677 E3.30939
G1 X94.422 Y105.677 E3.47241
G1 X94.467 Y104.772 E3.50684
G1 X94.500 Y104.547 E3.51550
G1 X94.555 Y104.326 E3.52416
G1 X94.632 Y104.112 E3.53282
G1 X94.730 Y103.906 E3.54147
G1 X94.847 Y103.710 E3.55013
G1 X94.982 Y103.527 E3.55879
G1 X95.136 Y103.358 E3.56745
G1 X95.304 Y103.205 E3.57611
G1 X95.487 Y103.070 E3.58476
G1 X95.683 Y102.952 E3.59342
G1 X95.889 Y102.855 E3.60208
G1 X96.103 Y102.778 E3.61074
G1 X96.324 Y102.723 E3.61940
G1 X96.550 Y102.689 E3.62805
G1 X96.777 Y102.678 E3.63671
G1 X97.005 Y102.689 E3.64537
G1 X97.230 Y102.723 E3.65403
G1 X97.451 Y102.778 E3.66268
G1 X97.666 Y102.855 E3.67134
G1 X97.872 Y102.952 E3.68000
G1 X98.067 Y103.070 E3.68866
G1 X98.250 Y103.205 E3.69732
G1 X98.419 Y103.358 E3.70597
G1 X98.572 Y103.527 E3.71463
G1 X98.708 Y103.710 E3.72329
G1 X98.825 Y103.906 E3.73195
G1 X98.922 Y104.112 E3.74061
G1 X98.999 Y104.326 E3.74926
G1 X99.054 Y104.547 E3.75792
G1 X99.088 Y104.772 E3.76658
G1 X99.099 Y105.000 E3.77524
G1 X99.088 Y105.228 E3.78390
G1 X99.054 Y105.453 E3.79255
G1 X98.999 Y105.674 E3.80121
G1 X98.922 Y105.888 E3.80987
G1 X98.825 Y106.094 E3.81853
G1 X98.708 Y106.290 E3.82719
G1 X98.572 Y106.473 E3.83584
G1 X98.419 Y106.642 E3.84450
G1 X98.250 Y106.795 E3.85316
G1 X98.067 Y106.930 E3.86182
G1 X97.872 Y107.048 E3.87048
G1 X97.666 Y107.145 E3.87913
G1 X97.451 Y107.222 E3.88779
G1 X97.230 Y107.277 E3.89645
G1 X97.005 Y107.311 E3.90511
G1 X96.100 Y107.355 E3.93954
G1 X96.100 Y112.677 E4.14180
G1 X117.330 Y112.677 E4.94853
G1 X117.330 Y102.355 E5.34079
G1 X116.425 Y102.311 E5.37522
G1 X116.199 Y102.277 E5.38388
G1 X115.978 Y102.222 E5.39254
G1 X115.764 Y102.145 E5.40120
G1 X115.558 Y102.048 E5.40985
G1 X115.362 Y101.930 E5.41851
G1 X115.179 Y101.795 E5.42717
G1 X115.010 Y101.642 E5.43583
G1 X114.857 Y101.473 E5.44449
G1 X114.722 Y101.290 E5.45314
G1 X114.605 Y101.094 E5.46180
G1 X114.507 Y100.888 E5.47046
G1 X114.430 Y100.674 E5.47912
G1 X114.375 Y100.453 E5.48777
G1 X114.342 Y100.228 E5.49643
G1 X114.331 Y100.000 E5.50509
G1 X114.342 Y99.772 E5.51375
G1 X114.375 Y99.547 E5.52241
G1 X114.430 Y99.326 E5.53107
G1 X114.507 Y99.112 E5.53972
G1 X114.605 Y98.906 E5.54838
G1 X114.722 Y98.710 E5.55704
G1 X114.858 Y98.527 E5.56570
G1 X115.010 Y98.358 E5.57435
G1 X115.179 Y98.205 E5.58301
G1 X115.362 Y98.070 E5.59167
G1 X115.558 Y97.952 E5.60033
G1 X115.764 Y97.855 E5.60899
G1 X115.978 Y97.778 E5.61764
G1 X116.199 Y97.723 E5.62630
G1 X116.425 Y97.689 E5.63496
G1 X116.652 Y97.678 E5.64362
G1 X116.880 Y97.689 E5.65228
G1 X117.105 Y97.723 E5.66093
G1 X117.326 Y97.778 E5.66959
G1 X117.541 Y97.855 E5.67825
G1 X117.747 Y97.952 E5.68691
G1 X117.942 Y98.070 E5.69557
G1 X118.125 Y98.205 E5.70422
G1 X118.294 Y98.358 E5.71288
G1 X118.447 Y98.527 E5.72154
G1 X118.583 Y98.710 E5.73020
G1 X118.700 Y98.906 E5.73886
G1 X118.797 Y99.112 E5.74751
G1 X118.874 Y99.326 E5.75617
G1 X118.929 Y99.547 E5.76483
G1 X118.963 Y99.772 E5.77349
G1 X119.007 Y100.677 E5.80792
G1 X126.157 Y100.677 E6.07960
G1 X126.232 Y99.659 E6.11839
G1 X126.306 Y99.326 E6.13136
G1 X126.429 Y99.008 E6.14433
G1 X126.598 Y98.711 E6.15731
G1 X126.808 Y98.442 E6.17028
G1 X127.055 Y98.206 E6.18326
G1 X127.334 Y98.009 E6.19623
G1 X127.639 Y97.856 E6.20921
G1 X127.963 Y97.749 E6.22218
G1 X128.300 Y97.690 E6.23516
G1 X128.641 Y97.682 E6.24813
G1 X128.980 Y97.724 E6.26111
G1 X129.309 Y97.815 E6.27408
G1 X129.621 Y97.953 E6.28706
G1 X129.910 Y98.136 E6.30003
G1 X130.168 Y98.359 E6.31301
G1 X130.391 Y98.618 E6.32598
G1 X130.574 Y98.906 E6.33896
G1 X130.712 Y99.218 E6.35193
G1 X130.803 Y99.547 E6.36491
G1 X130.845 Y99.886 E6.37788
G1 X130.837 Y100.227 E6.39085
G1 X130.778 Y100.564 E6.40383
G1 X130.671 Y100.888 E6.41680
G1 X130.518 Y101.193 E6.42978
G1 X130.321 Y101.472 E6.44275
G1 X130.086 Y101.720 E6.45573
G1 X129.817 Y101.930 E6.46870
G1 X129.519 Y102.098 E6.48168
G1 X129.201 Y102.221 E6.49465
G1 X128.868 Y102.296 E6.50763
G1 X127.850 Y102.371 E6.54642
G1 X127.850 Y110.631 E6.86032
G1 X128.571 Y110.930 E6.89000
G1 X129.241 Y110.260 E6.92599
G1 X129.469 Y110.083 E6.93698
G1 X129.718 Y109.935 E6.94797
G1 X129.983 Y109.819 E6.95896
G1 X130.260 Y109.737 E6.96995
G1 X130.545 Y109.690 E6.98094
G1 X130.834 Y109.679 E6.99193
G1 X131.123 Y109.705 E7.00292
G1 X131.405 Y109.765 E7.01391
G1 X131.678 Y109.861 E7.02490
G1 X131.937 Y109.990 E7.03589
G1 X132.178 Y110.149 E7.04688
G1 X132.398 Y110.338 E7.05787
G1 X132.592 Y110.552 E7.06886
G1 X132.758 Y110.789 E7.07985
G1 X132.893 Y111.045 E7.09084
G1 X132.995 Y111.315 E7.10183
G1 X133.063 Y111.597 E7.11282
G1 X133.096 Y111.884 E7.12381
G1 X133.092 Y112.173 E7.13480
G1 X133.052 Y112.460 E7.14579
G1 X132.978 Y112.739 E7.15678
G1 X132.869 Y113.007 E7.16777
G1 X132.727 Y113.259 E7.17876
G1 X132.555 Y113.492 E7.18975
G1 X132.356 Y113.701 E7.20074
G1 X132.132 Y113.885 E7.21173
G1 X131.887 Y114.038 E7.22272
G1 X131.625 Y114.161 E7.23371
G1 X131.350 Y114.249 E7.24470
G1 X131.066 Y114.303 E7.25569
G1 X130.100 Y114.363 E7.29248
G1 X130.100 Y130.645 E7.91117
G1 X131.005 Y130.689 E7.94561
G1 X131.230 Y130.723 E7.95427
G1 X131.451 Y130.778 E7.96292
G1 X131.666 Y130.855 E7.97158
G1 X131.872 Y130.952 E7.98024
G1 X132.067 Y131.070 E7.98890
G1 X132.250 Y131.205 E7.99755
G1 X132.419 Y131.358 E8.00621
G1 X132.572 Y131.527 E8.01487
G1 X132.708 Y131.710 E8.02353
G1 X132.825 Y131.906 E8.03219
G1 X132.922 Y132.112 E8.04084
G1 X132.999 Y132.326 E8.04950
G1 X133.054 Y132.547 E8.05816
G1 X133.088 Y132.772 E8.06682
G1 X133.099 Y133.000 E8.07548
G1 X133.088 Y133.228 E8.08414
G1 X133.054 Y133.453 E8.09279
G1 X132.999 Y133.674 E8.10145
G1 X132.922 Y133.888 E8.11011
G1 X132.825 Y134.094 E8.11877
G1 X132.708 Y134.290 E8.12743
G1 X132.572 Y134.473 E8.13608
G1 X132.419 Y134.642 E8.14474
G1 X132.250 Y134.795 E8.15340
G1 X132.067 Y134.930 E8.16206
G1 X131.872 Y135.048 E8.17072
G1 X131.666 Y135.145 E8.17937
G1 X131.451 Y135.222 E8.18803
G1 X131.230 Y135.277 E8.19669
G1 X131.005 Y135.311 E8.20535
G1 X130.777 Y135.322 E8.21400
G1 X130.550 Y135.311 E8.22266
G1 X130.324 Y135.277 E8.23132
G1 X130.103 Y135.222 E8.23998
G1 X129.889 Y135.145 E8.24864
G1 X129.683 Y135.048 E8.25729
G1 X129.487 Y134.930 E8.26595
G1 X129.304 Y134.795 E8.27461
G1 X129.136 Y134.642 E8.28327
G1 X128.982 Y134.473 E8.29193
G1 X128.847 Y134.290 E8.30058
G1 X128.730 Y134.094 E8.30924
G1 X128.632 Y133.888 E8.31790
G1 X128.555 Y133.674 E8.32656
G1 X128.500 Y133.453 E8.33522
G1 X128.467 Y133.228 E8.34387
G1 X128.422 Y132.323 E8.37831
G1 X96.100 Y132.323 E9.60656
G1 X96.100 Y137.645 E9.80882
G1 X97.005 Y137.689 E9.84325
G1 X97.230 Y137.723 E9.85191
G1 X97.451 Y137.778 E9.86057
G1 X97.666 Y137.855 E9.86922
G1 X97.872 Y137.952 E9.87788
G1 X98.067 Y138.070 E9.88654
G1 X98.250 Y138.205 E9.89520
G1 X98.419 Y138.358 E9.90386
G1 X98.572 Y138.527 E9.91251
G1 X98.708 Y138.710 E9.92117
G1 X98.825 Y138.906 E9.92983
G1 X98.922 Y139.112 E9.93849
G1 X98.999 Y139.326 E9.94715
G1 X99.054 Y139.547 E9.95580
G1 X99.088 Y139.772 E9.96446
G1 X99.099 Y140.000 E9.97312
G1 X99.088 Y140.228 E9.98178
G1 X99.054 Y140.453 E9.99043
G1 X98.999 Y140.674 E9.99909
G1 X98.922 Y140.888 E10.00775
G1 X98.825 Y141.094 E10.01641
G1 X98.708 Y141.290 E10.02507
G1 X98.572 Y141.473 E10.03372
G1 X98.419 Y141.642 E10.04238
G1 X98.250 Y141.795 E10.05104
G1 X98.067 Y141.930 E10.05970
G1 X97.872 Y142.048 E10.06836
G1 X97.666 Y142.145 E10.07701
G1 X97.451 Y142.222 E10.08567
G1 X97.230 Y142.277 E10.09433
G1 X97.005 Y142.311 E10.10299
G1 X96.777 Y142.322 E10.11165
G1 X96.550 Y142.311 E10.12031
G1 X96.324 Y142.277 E10.12896
G1 X96.103 Y142.222 E10.13762
G1 X95.889 Y142.145 E10.14628
G1 X95.683 Y142.048 E10.15494
G1 X95.487 Y141.930 E10.16359
G1 X95.304 Y141.795 E10.17225
G1 X95.136 Y141.642 E10.18091
G1 X94.982 Y141.473 E10.18957
G1 X94.847 Y141.290 E10.19823
G1 X94.730 Y141.094 E10.20688
G1 X94.632 Y140.888 E10.21554
G1 X94.555 Y140.674 E10.22420
G1 X94.500 Y140.453 E10.23286
G1 X94.467 Y140.228 E10.24152
G1 X94.422 Y139.323 E10.27595
G1 X90.132 Y139.323 E10.43897
G1 X90.088 Y140.228 E10.47340
G1 X90.054 Y140.453 E10.48206
G1 X89.999 Y140.674 E10.49072
G1 X89.922 Y140.888 E10.49938
G1 X89.825 Y141.094 E10.50804
G1 X89.708 Y141.290 E10.51669
G1 X89.572 Y141.473 E10.52535
G1 X89.419 Y141.642 E10.53401
G1 X89.250 Y141.795 E10.54267
G1 X89.067 Y141.930 E10.55132
G1 X88.872 Y142.048 E10.55998
G1 X88.666 Y142.145 E10.56864
G1 X88.451 Y142.222 E10.57730
G1 X88.230 Y142.277 E10.58596
G1 X88.005 Y142.311 E10.59461
G1 X87.777 Y142.322 E10.60327
G1 X87.550 Y142.311 E10.61193
G1 X87.324 Y142.277 E10.62059
G1 X87.103 Y142.222 E10.62925
G1 X86.889 Y142.145 E10.63790
G1 X86.683 Y142.048 E10.64656
G1 X86.487 Y141.930 E10.65522
G1 X86.304 Y141.795 E10.66388
G1 X86.136 Y141.642 E10.67254
G1 X85.982 Y141.473 E10.68119
G1 X85.847 Y141.290 E10.68985
G1 X85.730 Y141.094 E10.69851
G1 X85.632 Y140.888 E10.70717
G1 X85.555 Y140.674 E10.71583
G1 X85.500 Y140.453 E10.72448
G1 X85.467 Y140.228 E10.73314
G1 X85.455 Y140.000 E10.74180
G1 X85.467 Y139.772 E10.75046
G1 X85.500 Y139.547 E10.75912
G1 X85.555 Y139.326 E10.76777
G1 X85.632 Y139.112 E10.77643
G1 X85.730 Y138.906 E10.78509
G1 X85.847 Y138.710 E10.79375
G1 X85.982 Y138.527 E10.80241
G1 X86.136 Y138.358 E10.81106
G1 X86.304 Y138.205 E10.81972
G1 X86.487 Y138.070 E10.82838
G1 X86.683 Y137.952 E10.83704
G1 X86.889 Y137.855 E10.84570
G1 X87.103 Y137.778 E10.85435
G1 X87.324 Y137.723 E10.86301
G1 X87.550 Y137.689 E10.87167
G1 X88.455 Y137.645 E10.90610
G1 X88.455 Y132.323 E11.10836
G1 X72.132 Y132.323 E11.72861
G1 X72.088 Y133.228 E11.76304
G1 X72.054 Y133.453 E11.77170
G1 X71.999 Y133.674 E11.78036
G1 X71.922 Y133.888 E11.78902
G1 X71.825 Y134.094 E11.79768
G1 X71.708 Y134.290 E11.80633
G1 X71.572 Y134.473 E11.81499
G1 X71.419 Y134.642 E11.82365
G1 X71.250 Y134.795 E11.83231
G1 X71.067 Y134.930 E11.84097
G1 X70.872 Y135.048 E11.84962
G1 X70.666 Y135.145 E11.85828
G1 X70.451 Y135.222 E11.86694
G1 X70.230 Y135.277 E11.87560
G1 X70.005 Y135.311 E11.88426
G1 X69.777 Y135.322 E11.89291
G1 X69.550 Y135.311 E11.90157
G1 X69.324 Y135.277 E11.91023
G1 X69.103 Y135.222 E11.91889
G1 X68.889 Y135.145 E11.92755
G1 X68.683 Y135.048 E11.93620
G1 X68.487 Y134.930 E11.94486
G1 X68.304 Y134.795 E11.95352
G1 X68.136 Y134.642 E11.96218
G1 X67.983 Y134.473 E11.97084
G1 X67.847 Y134.290 E11.97949
G1 X67.730 Y134.094 E11.98815
G1 X67.632 Y133.888 E11.99681
G1 X67.555 Y133.674 E12.00547
G1 X67.500 Y133.453 E12.01413
G1 X67.467 Y133.228 E12.02278
G1 X67.456 Y133.000 E12.03144
G1 X67.467 Y132.772 E12.04010
G1 X67.500 Y132.547 E12.04876
G1 X67.555 Y132.326 E12.05742
G1 X67.632 Y132.112 E12.06607
G1 X67.730 Y131.906 E12.07473
G1 X67.847 Y131.710 E12.08339
G1 X67.983 Y131.527 E12.09205
G1 X68.136 Y131.358 E12.10071
G1 X68.304 Y131.205 E12.10936
G1 X68.487 Y131.070 E12.11802
G1 X68.683 Y130.952 E12.12668
G1 X68.889 Y130.855 E12.13534
G1 X69.103 Y130.778 E12.14400
G1 X69.324 Y130.723 E12.15265
