(** This GCode was generated by ReplicatorG 0034 **)
(*  using Skeinforge (35)  *)
(*  for a Single headed Thing-O-Matic  *)
(*  on 2012/04/10 17:45:49 (-0400) *)
(**** beginning of start.gcode ****)
(This file is for a MakerBot Thing-O-Matic)
(**** begin initialization commands ****)
G21 (set units to mm)
G90 (set positioning to absolute)
M108 R5.0 (set extruder speed)
M103 (Make sure extruder is off)
M104 S225 T0 (set extruder temperature)
M109 S100 T0 (set heated-build-platform temperature)
(**** end initialization commands ****)
(**** begin homing ****)
G162 Z F1000 (home Z axis maximum)
G92 Z10 (set Z to 0)
G1 Z0 (move z down 10)
G162 Z F150 (home Z axis maximum)
G161 X Y F2500 (home XY axes minimum)
M132 X Y Z A B (Recall stored home offsets for XYZAB axis)
(**** end homing ****)
(**** begin pre-wipe commands ****)
( Some people have had problems with the nozzle hitting )
( bolts or wipers during this pre-extrusion warmup.     )
( If this happens to you, you can change the values for )
( the X and Y positions in the following code.          )
( The goal is to have the toolhead wipe its initial     )
( extrusion near the edge of the platform, [anchor it]  )
( so as not to have it interfere with the print.        )
( This file can be found in:                            )
( replicatorg/skein_engines/skeinforge-##/skeinforge_application/ )
( prefs/<profile name [e.g. Thingomatic-ABP-Mk7]>/alterations )
G1 X25 Y-60 Z10 F3300.0 (move to waiting position)
M6 T0 (wait for toolhead parts, nozzle, HBP, etc., to reach temperature)
G0 X25 Y-57 (Position Nozzle)
G0 Z0.6     (Position Height)
M108 R4.0   (Set Extruder Speed)
M101        (Start Extruder)
G4 P1500    (Create Anchor)
(**** end pre-wipe commands ****)
(**** end of start.gcode ****)
(<creation> skeinforge </creation>)
(<version> 10.11.05 </version>)
(<extruderInitialization>)
(<craftTypeName> extrusion </craftTypeName>)
M105
(<bridgeWidthMultiplier> 1.0 </bridgeWidthMultiplier>)
(<decimalPlacesCarried> 3 </decimalPlacesCarried>)
(<layerThickness> 0.3 </layerThickness>)
(<threadSequenceString> loops perimeter infill </threadSequenceString>)
(<operatingFeedRatePerSecond> 60.0 </operatingFeedRatePerSecond>)
(<operatingFlowRate> 6.15496009173 </operatingFlowRate>)
(<orbitalFeedRatePerSecond> 30.0 </orbitalFeedRatePerSecond>)
(<travelFeedRatePerSecond> 50.0 </travelFeedRatePerSecond>)
(<perimeterWidth> 0.419 </perimeterWidth>)
(<profileName> ABS </profileName>)
(<procedureDone> carve </procedureDone>)
(<procedureDone> preface </procedureDone>)
(<procedureDone> inset </procedureDone>)
(<procedureDone> fill </procedureDone>)
(<procedureDone> multiply </procedureDone>)
(<procedureDone> speed </procedureDone>)
(<procedureDone> raft </procedureDone>)
(<procedureDone> jitter </procedureDone>)
(<procedureDone> comb </procedureDone>)
(<procedureDone> cool </procedureDone>)
(<procedureDone> outline </procedureDone>)
(<procedureDone> reversal </procedureDone>)
(<procedureDone> export </procedureDone>)
(</extruderInitialization>)
(<extrusion>)
;M113 S1.0
M108 R6.155
(<layer> 0.15 )
(<surroundingLoop>)
(<boundaryPerimeter>)
(<boundaryPoint> X-13.023 Y-3.984 Z0.15 </boundaryPoint>)
(<boundaryPoint> X-22.172 Y-9.267 Z0.15 </boundaryPoint>)
(<boundaryPoint> X-22.172 Y-19.834 Z0.15 </boundaryPoint>)
(<boundaryPoint> X-13.023 Y-25.117 Z0.15 </boundaryPoint>)
(<boundaryPoint> X-3.873 Y-19.834 Z0.15 </boundaryPoint>)
(<boundaryPoint> X-3.873 Y-9.267 Z0.15 </boundaryPoint>)
(<loop> inner )
M108 R3.693
G1 X-23.96 Y-26.87 Z0.15 F2160.0
M101
G1 X-23.96 Y26.87 Z0.15 F2160.0
G1 X23.96 Y26.87 Z0.15 F2160.0
G1 X23.96 Y-26.87 Z0.15 F2160.0
G1 X-23.42 Y-26.87 Z0.15 F2160.0
M108 R30.0
M102
G1 X-23.96 Y-26.87 Z0.15 F2160.0
M108 R3.693
M103
G1 X-16.18 Y-13.66 Z0.15 F3000.0
M108 R30.0
M101
G1 X-15.77 Y-12.97 Z0.15 F3000.0
M108 R3.693
G1 X-15.67 Y-12.78 Z0.15 F2160.0
G1 X-15.27 Y-12.3 Z0.15 F2160.0
G1 X-14.79 Y-11.9 Z0.15 F2160.0
G1 X-14.24 Y-11.61 Z0.15 F2160.0
G1 X-13.64 Y-11.43 Z0.15 F2160.0
G1 X-13.02 Y-11.37 Z0.15 F2160.0
G1 X-12.4 Y-11.43 Z0.15 F2160.0
G1 X-11.8 Y-11.61 Z0.15 F2160.0
G1 X-11.26 Y-11.9 Z0.15 F2160.0
G1 X-10.77 Y-12.3 Z0.15 F2160.0
G1 X-10.38 Y-12.78 Z0.15 F2160.0
G1 X-10.08 Y-13.33 Z0.15 F2160.0
G1 X-9.9 Y-13.93 Z0.15 F2160.0
G1 X-9.84 Y-14.55 Z0.15 F2160.0
G1 X-9.9 Y-15.17 Z0.15 F2160.0
G1 X-10.08 Y-15.77 Z0.15 F2160.0
G1 X-10.38 Y-16.32 Z0.15 F2160.0
G1 X-10.77 Y-16.8 Z0.15 F2160.0
G1 X-11.26 Y-17.2 Z0.15 F2160.0
G1 X-11.8 Y-17.49 Z0.15 F2160.0
G1 X-12.4 Y-17.67 Z0.15 F2160.0
G1 X-13.02 Y-17.73 Z0.15 F2160.0
G1 X-13.64 Y-17.67 Z0.15 F2160.0
G1 X-14.24 Y-17.49 Z0.15 F2160.0
G1 X-14.79 Y-17.2 Z0.15 F2160.0
G1 X-15.27 Y-16.8 Z0.15 F2160.0
G1 X-15.67 Y-16.31 Z0.15 F2160.0
G1 X-15.96 Y-15.77 Z0.15 F2160.0
G1 X-16.14 Y-15.17 Z0.15 F2160.0
G1 X-16.2 Y-14.55 Z0.15 F2160.0
G1 X-16.14 Y-13.93 Z0.15 F2160.0
G1 X-15.96 Y-13.34 Z0.15 F2160.0
G1 X-15.82 Y-13.06 Z0.15 F2160.0
G1 X-15.77 Y-12.97 Z0.15 F2160.0
M103
(</loop>)
(<loop> inner )
G1 X-16.75 Y-13.06 Z0.15 F3000.0
M101
G1 X-16.75 Y-18.23 Z0.15 F2160.0
G1 X-20.8 Y-18.23 Z0.15 F2160.0
G1 X-20.8 Y-10.87 Z0.15 F2160.0
G1 X-16.75 Y-10.87 Z0.15 F2160.0
G1 X-16.75 Y-12.52 Z0.15 F2160.0
M108 R30.0
M102
G1 X-16.75 Y-13.06 Z0.15 F2160.0
M108 R3.693
M103
(</loop>)
(<loop> outer )
G1 X-17.08 Y-13.06 Z0.15 F3000.0
G1 X-17.23 Y-11.35 Z0.15 F3000.0
G1 X-20.32 Y-11.35 Z0.15 F3000.0
G1 X-20.46 Y-13.06 Z0.15 F3000.0
G1 X-20.74 Y-13.06 Z0.15 F3000.0
M108 R30.0
M101
G1 X-21.54 Y-13.06 Z0.15 F3000.0
M108 R3.693
G1 X-21.54 Y-19.47 Z0.15 F2160.0
G1 X-13.02 Y-24.39 Z0.15 F2160.0
G1 X-4.5 Y-19.47 Z0.15 F2160.0
G1 X-4.5 Y-9.63 Z0.15 F2160.0
G1 X-13.02 Y-4.71 Z0.15 F2160.0
G1 X-21.54 Y-9.63 Z0.15 F2160.0
G1 X-21.54 Y-13.06 Z0.15 F2160.0
M103
(</loop>)
(<perimeter> outer )
G1 X-21.96 Y-13.06 Z0.15 F3000.0
M101
G1 X-21.96 Y-19.71 Z0.15 F2160.0
G1 X-13.02 Y-24.87 Z0.15 F2160.0
G1 X-4.08 Y-19.71 Z0.15 F2160.0
G1 X-4.08 Y-9.39 Z0.15 F2160.0
G1 X-13.02 Y-4.23 Z0.15 F2160.0
G1 X-21.96 Y-9.39 Z0.15 F2160.0
G1 X-21.96 Y-12.52 Z0.15 F2160.0
M108 R30.0
M102
G1 X-21.96 Y-13.06 Z0.15 F2160.0
M108 R3.693
M103
(</perimeter>)
(</boundaryPerimeter>)
(<surroundingLoop>)
(<boundaryPerimeter>)
(<boundaryPoint> X-20.172 Y-17.601 Z0.15 </boundaryPoint>)
(<boundaryPoint> X-20.172 Y-11.5 Z0.15 </boundaryPoint>)
(<boundaryPoint> X-17.373 Y-11.5 Z0.15 </boundaryPoint>)
(<boundaryPoint> X-17.373 Y-17.601 Z0.15 </boundaryPoint>)
(<perimeter> inner )
G1 X-21.18 Y-13.06 Z0.15 F3000.0
M108 R30.0
M101
G1 X-20.38 Y-13.06 Z0.15 F3000.0
M108 R3.693
G1 X-20.38 Y-11.29 Z0.15 F2160.0
G1 X-17.16 Y-11.29 Z0.15 F2160.0
G1 X-17.16 Y-17.81 Z0.15 F2160.0
G1 X-20.38 Y-17.81 Z0.15 F2160.0
G1 X-20.38 Y-13.6 Z0.15 F2160.0
M108 R30.0
M102
G1 X-20.38 Y-13.06 Z0.15 F2160.0
M108 R3.693
M103
(</perimeter>)
(</boundaryPerimeter>)
(</surroundingLoop>)
(<surroundingLoop>)
(<boundaryPerimeter>)
(<boundaryPoint> X-10.902 Y-13.133 Z0.15 </boundaryPoint>)
(<boundaryPoint> X-10.667 Y-13.575 Z0.15 </boundaryPoint>)
(<boundaryPoint> X-10.522 Y-14.053 Z0.15 </boundaryPoint>)
(<boundaryPoint> X-10.473 Y-14.55 Z0.15 </boundaryPoint>)
(<boundaryPoint> X-10.522 Y-15.047 Z0.15 </boundaryPoint>)
(<boundaryPoint> X-10.667 Y-15.526 Z0.15 </boundaryPoint>)
(<boundaryPoint> X-10.902 Y-15.967 Z0.15 </boundaryPoint>)
(<boundaryPoint> X-11.22 Y-16.354 Z0.15 </boundaryPoint>)
(<boundaryPoint> X-11.606 Y-16.671 Z0.15 </boundaryPoint>)
(<boundaryPoint> X-12.047 Y-16.907 Z0.15 </boundaryPoint>)
(<boundaryPoint> X-12.526 Y-17.052 Z0.15 </boundaryPoint>)
(<boundaryPoint> X-13.023 Y-17.101 Z0.15 </boundaryPoint>)
(<boundaryPoint> X-13.52 Y-17.052 Z0.15 </boundaryPoint>)
(<boundaryPoint> X-13.998 Y-16.907 Z0.15 </boundaryPoint>)
(<boundaryPoint> X-14.44 Y-16.671 Z0.15 </boundaryPoint>)
(<boundaryPoint> X-14.826 Y-16.354 Z0.15 </boundaryPoint>)
(<boundaryPoint> X-15.146 Y-15.962 Z0.15 </boundaryPoint>)
(<boundaryPoint> X-15.378 Y-15.528 Z0.15 </boundaryPoint>)
(<boundaryPoint> X-15.524 Y-15.044 Z0.15 </boundaryPoint>)
(<boundaryPoint> X-15.573 Y-14.55 Z0.15 </boundaryPoint>)
(<boundaryPoint> X-15.524 Y-14.053 Z0.15 </boundaryPoint>)
(<boundaryPoint> X-15.38 Y-13.579 Z0.15 </boundaryPoint>)
(<boundaryPoint> X-15.141 Y-13.13 Z0.15 </boundaryPoint>)
(<boundaryPoint> X-14.826 Y-12.747 Z0.15 </boundaryPoint>)
(<boundaryPoint> X-14.44 Y-12.43 Z0.15 </boundaryPoint>)
(<boundaryPoint> X-13.998 Y-12.194 Z0.15 </boundaryPoint>)
(<boundaryPoint> X-13.52 Y-12.05 Z0.15 </boundaryPoint>)
(<boundaryPoint> X-13.023 Y-12.0 Z0.15 </boundaryPoint>)
(<boundaryPoint> X-12.526 Y-12.05 Z0.15 </boundaryPoint>)
(<boundaryPoint> X-12.047 Y-12.194 Z0.15 </boundaryPoint>)
(<boundaryPoint> X-11.606 Y-12.43 Z0.15 </boundaryPoint>)
(<boundaryPoint> X-11.22 Y-12.747 Z0.15 </boundaryPoint>)
(<perimeter> inner )
G1 X-20.46 Y-13.1 Z0.15 F3000.0
G1 X-20.32 Y-11.35 Z0.15 F3000.0
G1 X-17.23 Y-11.35 Z0.15 F3000.0
G1 X-17.08 Y-13.68 Z0.15 F3000.0
G1 X-16.51 Y-13.82 Z0.15 F3000.0
M108 R30.0
M101
G1 X-15.73 Y-14.01 Z0.15 F3000.0
M108 R3.693
G1 X-15.57 Y-13.5 Z0.15 F2160.0
G1 X-15.32 Y-13.01 Z0.15 F2160.0
G1 X-14.97 Y-12.6 Z0.15 F2160.0
G1 X-14.56 Y-12.26 Z0.15 F2160.0
G1 X-14.08 Y-12.0 Z0.15 F2160.0
G1 X-13.56 Y-11.84 Z0.15 F2160.0
G1 X-13.02 Y-11.79 Z0.15 F2160.0
G1 X-12.48 Y-11.84 Z0.15 F2160.0
G1 X-11.97 Y-12.0 Z0.15 F2160.0
G1 X-11.49 Y-12.26 Z0.15 F2160.0
G1 X-11.07 Y-12.6 Z0.15 F2160.0
G1 X-10.73 Y-13.02 Z0.15 F2160.0
G1 X-10.47 Y-13.49 Z0.15 F2160.0
G1 X-10.32 Y-14.01 Z0.15 F2160.0
G1 X-10.26 Y-14.55 Z0.15 F2160.0
G1 X-10.32 Y-15.09 Z0.15 F2160.0
G1 X-10.47 Y-15.61 Z0.15 F2160.0
G1 X-10.73 Y-16.08 Z0.15 F2160.0
G1 X-11.07 Y-16.5 Z0.15 F2160.0
G1 X-11.49 Y-16.85 Z0.15 F2160.0
G1 X-11.97 Y-17.1 Z0.15 F2160.0
G1 X-12.48 Y-17.26 Z0.15 F2160.0
G1 X-13.02 Y-17.31 Z0.15 F2160.0
G1 X-13.56 Y-17.26 Z0.15 F2160.0
G1 X-14.08 Y-17.1 Z0.15 F2160.0
G1 X-14.56 Y-16.85 Z0.15 F2160.0
G1 X-14.97 Y-16.5 Z0.15 F2160.0
G1 X-15.32 Y-16.08 Z0.15 F2160.0
G1 X-15.57 Y-15.61 Z0.15 F2160.0
G1 X-15.73 Y-15.09 Z0.15 F2160.0
G1 X-15.78 Y-14.55 Z0.15 F2160.0
G1 X-15.73 Y-14.01 Z0.15 F2160.0
M103
(</perimeter>)
(</boundaryPerimeter>)
(</surroundingLoop>)
G1 X-16.37 Y-13.75 Z0.15 F1800.0
M101
G1 X-16.37 Y-6.96 Z0.15 F2160.0
G1 X-16.79 Y-7.2 Z0.15 F2160.0
G1 X-16.79 Y-10.06 Z0.15 F2160.0
M108 R30.0
M102
G1 X-16.79 Y-10.6 Z0.15 F2160.0
M108 R3.693
M103
G1 X-17.15 Y-7.92 Z0.15 F1800.0
M108 R30.0
M101
G1 X-17.21 Y-7.44 Z0.15 F1800.0
M108 R3.693
G1 X-17.21 Y-10.6 Z0.15 F2160.0
M103
G1 X-17.63 Y-10.6 Z0.15 F1800.0
M101
G1 X-17.63 Y-7.68 Z0.15 F2160.0
G1 X-18.05 Y-7.93 Z0.15 F2160.0
G1 X-18.05 Y-10.6 Z0.15 F2160.0
M103
G1 X-18.47 Y-10.6 Z0.15 F1800.0
M101
G1 X-18.47 Y-8.17 Z0.15 F2160.0
G1 X-18.89 Y-8.41 Z0.15 F2160.0
G1 X-18.89 Y-10.6 Z0.15 F2160.0
M103
G1 X-19.31 Y-10.6 Z0.15 F1800.0
M101
G1 X-19.31 Y-8.65 Z0.15 F2160.0
G1 X-19.72 Y-8.89 Z0.15 F2160.0
G1 X-19.72 Y-10.6 Z0.15 F2160.0
M103
G1 X-20.14 Y-10.6 Z0.15 F1800.0
M101
G1 X-20.14 Y-9.68 Z0.15 F2160.0
M108 R30.0
M102
G1 X-20.14 Y-9.14 Z0.15 F2160.0
M108 R3.693
M103
G1 X-20.43 Y-10.14 Z0.15 F1800.0
M108 R30.0
M101
G1 X-20.56 Y-10.6 Z0.15 F1800.0
M108 R3.693
G1 X-20.56 Y-9.38 Z0.15 F2160.0
G1 X-20.98 Y-9.62 Z0.15 F2160.0
G1 X-20.98 Y-10.06 Z0.15 F2160.0
M108 R30.0
M102
G1 X-20.98 Y-10.6 Z0.15 F2160.0
M108 R3.693
M103
G1 X-14.76 Y-11.29 Z0.15 F1800.0
M108 R30.0
M101
G1 X-14.28 Y-11.34 Z0.15 F1800.0
M108 R3.693
G1 X-14.28 Y-5.75 Z0.15 F2160.0
G1 X-14.7 Y-5.99 Z0.15 F2160.0
G1 X-14.7 Y-11.55 Z0.15 F2160.0
G1 X-15.12 Y-11.82 Z0.15 F2160.0
G1 X-15.12 Y-6.23 Z0.15 F2160.0
G1 X-15.54 Y-6.48 Z0.15 F2160.0
G1 X-15.54 Y-12.19 Z0.15 F2160.0
G1 X-15.96 Y-12.74 Z0.15 F2160.0
G1 X-15.96 Y-7.26 Z0.15 F2160.0
M108 R30.0
M102
G1 X-15.96 Y-6.72 Z0.15 F2160.0
M108 R3.693
M103
G1 X-13.86 Y-5.51 Z0.15 F1800.0
M108 R30.0
M101
G1 X-13.44 Y-5.27 Z0.15 F1800.0
M108 R3.693
G1 X-13.44 Y-11.14 Z0.15 F2160.0
G1 X-13.86 Y-11.21 Z0.15 F2160.0
G1 X-13.86 Y-6.05 Z0.15 F2160.0
M108 R30.0
M102
G1 X-13.86 Y-5.51 Z0.15 F2160.0
M108 R3.693
M103
G1 X-11.82 Y-5.9 Z0.15 F1800.0
M108 R30.0
M101
G1 X-11.35 Y-5.99 Z0.15 F1800.0
M108 R3.693
G1 X-11.35 Y-11.55 Z0.15 F2160.0
G1 X-11.77 Y-11.34 Z0.15 F2160.0
G1 X-11.77 Y-5.75 Z0.15 F2160.0
G1 X-12.19 Y-5.51 Z0.15 F2160.0
G1 X-12.19 Y-11.21 Z0.15 F2160.0
G1 X-12.6 Y-11.14 Z0.15 F2160.0
G1 X-12.6 Y-5.27 Z0.15 F2160.0
G1 X-13.02 Y-5.02 Z0.15 F2160.0
G1 X-13.02 Y-10.55 Z0.15 F2160.0
M108 R30.0
M102
G1 X-13.02 Y-11.1 Z0.15 F2160.0
M108 R3.693
M103
G1 X-10.51 Y-12.51 Z0.15 F1800.0
M108 R30.0
M101
G1 X-10.09 Y-12.74 Z0.15 F1800.0
M108 R3.693
G1 X-10.09 Y-6.72 Z0.15 F2160.0
G1 X-10.51 Y-6.48 Z0.15 F2160.0
G1 X-10.51 Y-12.19 Z0.15 F2160.0
G1 X-10.93 Y-11.82 Z0.15 F2160.0
G1 X-10.93 Y-6.77 Z0.15 F2160.0
M108 R30.0
M102
G1 X-10.93 Y-6.23 Z0.15 F2160.0
M108 R3.693
M103
G1 X-9.25 Y-7.2 Z0.15 F1800.0
M108 R30.0
M101
G1 X-8.83 Y-7.44 Z0.15 F1800.0
M108 R3.693
G1 X-8.83 Y-21.12 Z0.15 F2160.0
M108 R30.0
M102
G1 X-8.83 Y-21.66 Z0.15 F2160.0
M108 R3.693
M103
G1 X-11.48 Y-18.14 Z0.15 F1800.0
M108 R30.0
M101
G1 X-11.77 Y-17.76 Z0.15 F1800.0
M108 R3.693
G1 X-11.77 Y-23.35 Z0.15 F2160.0
G1 X-11.35 Y-23.11 Z0.15 F2160.0
G1 X-11.35 Y-17.55 Z0.15 F2160.0
G1 X-10.93 Y-17.28 Z0.15 F2160.0
G1 X-10.93 Y-22.87 Z0.15 F2160.0
G1 X-10.51 Y-22.63 Z0.15 F2160.0
G1 X-10.51 Y-16.91 Z0.15 F2160.0
G1 X-10.09 Y-16.36 Z0.15 F2160.0
G1 X-10.09 Y-21.84 Z0.15 F2160.0
M108 R30.0
M102
G1 X-10.09 Y-22.38 Z0.15 F2160.0
M108 R3.693
M103
G1 X-12.19 Y-23.59 Z0.15 F1800.0
M108 R30.0
M101
G1 X-12.6 Y-23.83 Z0.15 F1800.0
M108 R3.693
G1 X-12.6 Y-17.96 Z0.15 F2160.0
G1 X-12.19 Y-17.89 Z0.15 F2160.0
G1 X-12.19 Y-23.05 Z0.15 F2160.0
M108 R30.0
M102
G1 X-12.19 Y-23.59 Z0.15 F2160.0
M108 R3.693
M103
G1 X-14.23 Y-23.2 Z0.15 F1800.0
M108 R30.0
M101
G1 X-14.7 Y-23.11 Z0.15 F1800.0
M108 R3.693
G1 X-14.7 Y-17.55 Z0.15 F2160.0
G1 X-14.28 Y-17.76 Z0.15 F2160.0
G1 X-14.28 Y-23.35 Z0.15 F2160.0
G1 X-13.86 Y-23.59 Z0.15 F2160.0
G1 X-13.86 Y-17.89 Z0.15 F2160.0
G1 X-13.44 Y-17.96 Z0.15 F2160.0
G1 X-13.44 Y-23.83 Z0.15 F2160.0
G1 X-13.02 Y-24.08 Z0.15 F2160.0
G1 X-13.02 Y-18.55 Z0.15 F2160.0
M108 R30.0
M102
G1 X-13.02 Y-18.0 Z0.15 F2160.0
M108 R3.693
M103
G1 X-15.54 Y-16.59 Z0.15 F1800.0
M108 R30.0
M101
G1 X-15.96 Y-16.36 Z0.15 F1800.0
M108 R3.693
G1 X-15.96 Y-22.38 Z0.15 F2160.0
G1 X-15.54 Y-22.63 Z0.15 F2160.0
G1 X-15.54 Y-16.91 Z0.15 F2160.0
G1 X-15.12 Y-17.28 Z0.15 F2160.0
G1 X-15.12 Y-22.33 Z0.15 F2160.0
M108 R30.0
M102
G1 X-15.12 Y-22.87 Z0.15 F2160.0
M108 R3.693
M103
G1 X-17.0 Y-18.93 Z0.15 F1800.0
M108 R30.0
M101
G1 X-17.21 Y-18.5 Z0.15 F1800.0
M108 R3.693
G1 X-17.21 Y-21.12 Z0.15 F2160.0
M108 R30.0
M102
G1 X-17.21 Y-21.66 Z0.15 F2160.0
M108 R3.693
M103
G1 X-18.89 Y-20.69 Z0.15 F1800.0
M108 R30.0
M101
G1 X-19.31 Y-20.45 Z0.15 F1800.0
M108 R3.693
G1 X-19.31 Y-18.5 Z0.15 F2160.0
M103
G1 X-19.72 Y-18.5 Z0.15 F1800.0
M101
G1 X-19.72 Y-20.21 Z0.15 F2160.0
G1 X-20.14 Y-19.96 Z0.15 F2160.0
G1 X-20.14 Y-18.5 Z0.15 F2160.0
M103
G1 X-20.56 Y-18.5 Z0.15 F1800.0
M101
G1 X-20.56 Y-19.72 Z0.15 F2160.0
G1 X-20.98 Y-19.48 Z0.15 F2160.0
G1 X-20.98 Y-19.04 Z0.15 F2160.0
M108 R30.0
M102
G1 X-20.98 Y-18.5 Z0.15 F2160.0
M108 R3.693
M103
G1 X-18.95 Y-18.5 Z0.15 F1800.0
M108 R30.0
M101
G1 X-18.47 Y-18.5 Z0.15 F1800.0
M108 R3.693
G1 X-18.47 Y-20.93 Z0.15 F2160.0
G1 X-18.89 Y-20.69 Z0.15 F2160.0
G1 X-18.89 Y-19.04 Z0.15 F2160.0
M108 R30.0
M102
G1 X-18.89 Y-18.5 Z0.15 F2160.0
M108 R3.693
M103
G1 X-18.11 Y-18.5 Z0.15 F1800.0
M108 R30.0
M101
G1 X-17.63 Y-18.5 Z0.15 F1800.0
M108 R3.693
G1 X-17.63 Y-21.42 Z0.15 F2160.0
G1 X-18.05 Y-21.17 Z0.15 F2160.0
G1 X-18.05 Y-19.04 Z0.15 F2160.0
M108 R30.0
M102
G1 X-18.05 Y-18.5 Z0.15 F2160.0
M108 R3.693
M103
G1 X-17.57 Y-17.89 Z0.15 F3000.0
G1 X-17.23 Y-17.75 Z0.15 F3000.0
G1 X-17.08 Y-17.23 Z0.15 F3000.0
G1 X-16.54 Y-15.8 Z0.15 F1800.0
M108 R30.0
M101
G1 X-16.37 Y-15.35 Z0.15 F1800.0
M108 R3.693
G1 X-16.37 Y-22.14 Z0.15 F2160.0
G1 X-16.79 Y-21.9 Z0.15 F2160.0
G1 X-16.79 Y-19.04 Z0.15 F2160.0
M108 R30.0
M102
G1 X-16.79 Y-18.5 Z0.15 F2160.0
M108 R3.693
M103
G1 X-11.44 Y-16.91 Z0.15 F3000.0
G1 X-11.01 Y-16.56 Z0.15 F3000.0
G1 X-10.66 Y-16.13 Z0.15 F3000.0
G1 X-9.86 Y-14.2 Z0.15 F1800.0
M108 R30.0
M101
G1 X-9.67 Y-13.75 Z0.15 F1800.0
M108 R3.693
G1 X-9.67 Y-6.96 Z0.15 F2160.0
G1 X-9.25 Y-7.2 Z0.15 F2160.0
G1 X-9.25 Y-21.9 Z0.15 F2160.0
G1 X-9.67 Y-22.14 Z0.15 F2160.0
G1 X-9.67 Y-15.89 Z0.15 F2160.0
M108 R30.0
M102
G1 X-9.67 Y-15.35 Z0.15 F2160.0
M108 R3.693
M103
G1 X-6.21 Y-19.59 Z0.15 F1800.0
M108 R30.0
M101
G1 X-5.9 Y-19.96 Z0.15 F1800.0
M108 R3.693
G1 X-5.9 Y-9.14 Z0.15 F2160.0
G1 X-6.32 Y-8.89 Z0.15 F2160.0
G1 X-6.32 Y-20.21 Z0.15 F2160.0
G1 X-6.74 Y-20.45 Z0.15 F2160.0
G1 X-6.74 Y-8.65 Z0.15 F2160.0
M103
G1 X-7.16 Y-8.41 Z0.15 F1800.0
M101
G1 X-7.16 Y-20.69 Z0.15 F2160.0
G1 X-7.58 Y-20.93 Z0.15 F2160.0
G1 X-7.58 Y-8.17 Z0.15 F2160.0
M103
G1 X-8.0 Y-7.93 Z0.15 F1800.0
M101
G1 X-8.0 Y-21.17 Z0.15 F2160.0
G1 X-8.41 Y-21.42 Z0.15 F2160.0
G1 X-8.41 Y-8.22 Z0.15 F2160.0
M108 R30.0
M102
G1 X-8.41 Y-7.68 Z0.15 F2160.0
M108 R3.693
M103
G1 X-5.2 Y-19.02 Z0.15 F1800.0
M108 R30.0
M101
G1 X-5.06 Y-19.48 Z0.15 F1800.0
M108 R3.693
G1 X-5.06 Y-9.62 Z0.15 F2160.0
G1 X-5.48 Y-9.38 Z0.15 F2160.0
G1 X-5.48 Y-19.18 Z0.15 F2160.0
M108 R30.0
M102
G1 X-5.48 Y-19.72 Z0.15 F2160.0
M108 R3.693
M103
(</surroundingLoop>)
(<surroundingLoop>)
(<boundaryPerimeter>)
(<boundaryPoint> X13.023 Y-3.984 Z0.15 </boundaryPoint>)
(<boundaryPoint> X3.873 Y-9.267 Z0.15 </boundaryPoint>)
(<boundaryPoint> X3.873 Y-19.834 Z0.15 </boundaryPoint>)
(<boundaryPoint> X13.023 Y-25.117 Z0.15 </boundaryPoint>)
(<boundaryPoint> X22.172 Y-19.834 Z0.15 </boundaryPoint>)
(<boundaryPoint> X22.172 Y-9.267 Z0.15 </boundaryPoint>)
(<loop> inner )
G1 X5.58 Y-16.29 Z0.15 F3000.0
G1 X5.73 Y-17.75 Z0.15 F3000.0
G1 X8.82 Y-17.75 Z0.15 F3000.0
G1 X8.97 Y-15.44 Z0.15 F3000.0
G1 X9.15 Y-15.37 Z0.15 F3000.0
M108 R30.0
M101
G1 X9.89 Y-15.07 Z0.15 F3000.0
M108 R3.693
G1 X9.84 Y-14.55 Z0.15 F2160.0
G1 X9.9 Y-13.93 Z0.15 F2160.0
G1 X10.08 Y-13.34 Z0.15 F2160.0
G1 X10.23 Y-13.06 Z0.15 F2160.0
G1 X10.38 Y-12.78 Z0.15 F2160.0
G1 X10.77 Y-12.3 Z0.15 F2160.0
G1 X11.26 Y-11.9 Z0.15 F2160.0
G1 X11.8 Y-11.61 Z0.15 F2160.0
G1 X12.4 Y-11.43 Z0.15 F2160.0
G1 X13.02 Y-11.37 Z0.15 F2160.0
G1 X13.64 Y-11.43 Z0.15 F2160.0
G1 X14.24 Y-11.61 Z0.15 F2160.0
G1 X14.79 Y-11.9 Z0.15 F2160.0
G1 X15.27 Y-12.3 Z0.15 F2160.0
G1 X15.67 Y-12.78 Z0.15 F2160.0
G1 X15.96 Y-13.33 Z0.15 F2160.0
G1 X16.14 Y-13.93 Z0.15 F2160.0
G1 X16.2 Y-14.55 Z0.15 F2160.0
G1 X16.14 Y-15.17 Z0.15 F2160.0
G1 X15.96 Y-15.77 Z0.15 F2160.0
G1 X15.67 Y-16.32 Z0.15 F2160.0
G1 X15.27 Y-16.8 Z0.15 F2160.0
G1 X14.79 Y-17.2 Z0.15 F2160.0
G1 X14.24 Y-17.49 Z0.15 F2160.0
G1 X13.64 Y-17.67 Z0.15 F2160.0
G1 X13.02 Y-17.73 Z0.15 F2160.0
G1 X12.4 Y-17.67 Z0.15 F2160.0
G1 X11.8 Y-17.49 Z0.15 F2160.0
G1 X11.26 Y-17.2 Z0.15 F2160.0
G1 X10.77 Y-16.8 Z0.15 F2160.0
G1 X10.38 Y-16.31 Z0.15 F2160.0
G1 X10.09 Y-15.77 Z0.15 F2160.0
G1 X9.9 Y-15.17 Z0.15 F2160.0
G1 X9.89 Y-15.07 Z0.15 F2160.0
M103
(</loop>)
(<loop> inner )
G1 X9.3 Y-15.07 Z0.15 F3000.0
M101
G1 X9.3 Y-18.23 Z0.15 F2160.0
G1 X5.25 Y-18.23 Z0.15 F2160.0
G1 X5.25 Y-10.87 Z0.15 F2160.0
G1 X9.3 Y-10.87 Z0.15 F2160.0
G1 X9.3 Y-13.06 Z0.15 F2160.0
G1 X9.3 Y-14.53 Z0.15 F2160.0
M108 R30.0
M102
G1 X9.3 Y-15.07 Z0.15 F2160.0
M108 R3.693
M103
(</loop>)
(<loop> outer )
G1 X8.97 Y-15.07 Z0.15 F3000.0
G1 X8.82 Y-17.75 Z0.15 F3000.0
G1 X5.73 Y-17.75 Z0.15 F3000.0
G1 X5.58 Y-15.07 Z0.15 F3000.0
G1 X5.3 Y-15.07 Z0.15 F3000.0
M108 R30.0
M101
G1 X4.5 Y-15.07 Z0.15 F3000.0
M108 R3.693
G1 X4.5 Y-19.47 Z0.15 F2160.0
G1 X13.02 Y-24.39 Z0.15 F2160.0
G1 X21.54 Y-19.47 Z0.15 F2160.0
G1 X21.54 Y-9.63 Z0.15 F2160.0
G1 X13.02 Y-4.71 Z0.15 F2160.0
G1 X4.5 Y-9.63 Z0.15 F2160.0
G1 X4.5 Y-13.06 Z0.15 F2160.0
G1 X4.5 Y-15.07 Z0.15 F2160.0
M103
(</loop>)
(<perimeter> outer )
G1 X4.08 Y-15.07 Z0.15 F3000.0
M101
G1 X4.08 Y-19.71 Z0.15 F2160.0
G1 X13.02 Y-24.87 Z0.15 F2160.0
G1 X21.96 Y-19.71 Z0.15 F2160.0
G1 X21.96 Y-9.39 Z0.15 F2160.0
G1 X13.02 Y-4.23 Z0.15 F2160.0
G1 X4.08 Y-9.39 Z0.15 F2160.0
G1 X4.08 Y-13.06 Z0.15 F2160.0
G1 X4.08 Y-14.53 Z0.15 F2160.0
M108 R30.0
M102
G1 X4.08 Y-15.07 Z0.15 F2160.0
M108 R3.693
M103
(</perimeter>)
(</boundaryPerimeter>)
(<surroundingLoop>)
(<boundaryPerimeter>)
(<boundaryPoint> X5.873 Y-17.601 Z0.15 </boundaryPoint>)
(<boundaryPoint> X5.873 Y-11.5 Z0.15 </boundaryPoint>)
(<boundaryPoint> X8.673 Y-11.5 Z0.15 </boundaryPoint>)
(<boundaryPoint> X8.673 Y-17.601 Z0.15 </boundaryPoint>)
(<perimeter> inner )
G1 X4.86 Y-15.07 Z0.15 F3000.0
M108 R30.0
M101
G1 X5.66 Y-15.07 Z0.15 F3000.0
M108 R3.693
G1 X5.66 Y-13.06 Z0.15 F2160.0
G1 X5.66 Y-11.29 Z0.15 F2160.0
G1 X8.88 Y-11.29 Z0.15 F2160.0
G1 X8.88 Y-17.81 Z0.15 F2160.0
G1 X5.66 Y-17.81 Z0.15 F2160.0
G1 X5.66 Y-15.61 Z0.15 F2160.0
M108 R30.0
M102
G1 X5.66 Y-15.07 Z0.15 F2160.0
M108 R3.693
M103
(</perimeter>)
(</boundaryPerimeter>)
(</surroundingLoop>)
(<surroundingLoop>)
(<boundaryPerimeter>)
(<boundaryPoint> X15.143 Y-13.133 Z0.15 </boundaryPoint>)
(<boundaryPoint> X15.379 Y-13.575 Z0.15 </boundaryPoint>)
(<boundaryPoint> X15.524 Y-14.053 Z0.15 </boundaryPoint>)
(<boundaryPoint> X15.573 Y-14.55 Z0.15 </boundaryPoint>)
(<boundaryPoint> X15.524 Y-15.047 Z0.15 </boundaryPoint>)
(<boundaryPoint> X15.379 Y-15.526 Z0.15 </boundaryPoint>)
(<boundaryPoint> X15.143 Y-15.967 Z0.15 </boundaryPoint>)
(<boundaryPoint> X14.826 Y-16.354 Z0.15 </boundaryPoint>)
(<boundaryPoint> X14.44 Y-16.671 Z0.15 </boundaryPoint>)
(<boundaryPoint> X13.998 Y-16.907 Z0.15 </boundaryPoint>)
(<boundaryPoint> X13.52 Y-17.052 Z0.15 </boundaryPoint>)
(<boundaryPoint> X13.023 Y-17.101 Z0.15 </boundaryPoint>)
(<boundaryPoint> X12.526 Y-17.052 Z0.15 </boundaryPoint>)
(<boundaryPoint> X12.047 Y-16.907 Z0.15 </boundaryPoint>)
(<boundaryPoint> X11.606 Y-16.671 Z0.15 </boundaryPoint>)
(<boundaryPoint> X11.22 Y-16.354 Z0.15 </boundaryPoint>)
(<boundaryPoint> X10.899 Y-15.962 Z0.15 </boundaryPoint>)
(<boundaryPoint> X10.668 Y-15.528 Z0.15 </boundaryPoint>)
(<boundaryPoint> X10.521 Y-15.044 Z0.15 </boundaryPoint>)
(<boundaryPoint> X10.473 Y-14.55 Z0.15 </boundaryPoint>)
(<boundaryPoint> X10.522 Y-14.053 Z0.15 </boundaryPoint>)
(<boundaryPoint> X10.666 Y-13.579 Z0.15 </boundaryPoint>)
(<boundaryPoint> X10.905 Y-13.13 Z0.15 </boundaryPoint>)
(<boundaryPoint> X11.22 Y-12.747 Z0.15 </boundaryPoint>)
(<boundaryPoint> X11.606 Y-12.43 Z0.15 </boundaryPoint>)
(<boundaryPoint> X12.047 Y-12.194 Z0.15 </boundaryPoint>)
(<boundaryPoint> X12.526 Y-12.05 Z0.15 </boundaryPoint>)
(<boundaryPoint> X13.023 Y-12.0 Z0.15 </boundaryPoint>)
(<boundaryPoint> X13.52 Y-12.05 Z0.15 </boundaryPoint>)
(<boundaryPoint> X13.998 Y-12.194 Z0.15 </boundaryPoint>)
(<boundaryPoint> X14.44 Y-12.43 Z0.15 </boundaryPoint>)
(<boundaryPoint> X14.826 Y-12.747 Z0.15 </boundaryPoint>)
(<perimeter> inner )
G1 X5.58 Y-15.05 Z0.15 F3000.0
G1 X5.73 Y-17.75 Z0.15 F3000.0
G1 X8.82 Y-17.75 Z0.15 F3000.0
G1 X8.97 Y-14.73 Z0.15 F3000.0
G1 X9.47 Y-14.66 Z0.15 F3000.0
M108 R30.0
M101
G1 X10.26 Y-14.55 Z0.15 F3000.0
M108 R3.693
G1 X10.32 Y-14.01 Z0.15 F2160.0
G1 X10.47 Y-13.5 Z0.15 F2160.0
G1 X10.73 Y-13.01 Z0.15 F2160.0
G1 X11.07 Y-12.6 Z0.15 F2160.0
G1 X11.49 Y-12.26 Z0.15 F2160.0
G1 X11.97 Y-12.0 Z0.15 F2160.0
G1 X12.48 Y-11.84 Z0.15 F2160.0
G1 X13.02 Y-11.79 Z0.15 F2160.0
G1 X13.56 Y-11.84 Z0.15 F2160.0
G1 X14.08 Y-12.0 Z0.15 F2160.0
G1 X14.56 Y-12.26 Z0.15 F2160.0
G1 X14.97 Y-12.6 Z0.15 F2160.0
G1 X15.32 Y-13.02 Z0.15 F2160.0
G1 X15.57 Y-13.49 Z0.15 F2160.0
G1 X15.73 Y-14.01 Z0.15 F2160.0
G1 X15.78 Y-14.55 Z0.15 F2160.0
G1 X15.73 Y-15.09 Z0.15 F2160.0
G1 X15.57 Y-15.61 Z0.15 F2160.0
G1 X15.32 Y-16.08 Z0.15 F2160.0
G1 X14.97 Y-16.5 Z0.15 F2160.0
G1 X14.56 Y-16.85 Z0.15 F2160.0
G1 X14.08 Y-17.1 Z0.15 F2160.0
G1 X13.56 Y-17.26 Z0.15 F2160.0
G1 X13.02 Y-17.31 Z0.15 F2160.0
G1 X12.48 Y-17.26 Z0.15 F2160.0
G1 X11.97 Y-17.1 Z0.15 F2160.0
G1 X11.49 Y-16.85 Z0.15 F2160.0
G1 X11.07 Y-16.5 Z0.15 F2160.0
G1 X10.72 Y-16.08 Z0.15 F2160.0
G1 X10.47 Y-15.61 Z0.15 F2160.0
G1 X10.31 Y-15.09 Z0.15 F2160.0
G1 X10.26 Y-14.55 Z0.15 F2160.0
M103
(</perimeter>)
(</boundaryPerimeter>)
(</surroundingLoop>)
G1 X9.67 Y-13.75 Z0.15 F1800.0
M101
G1 X9.67 Y-6.96 Z0.15 F2160.0
G1 X9.25 Y-7.2 Z0.15 F2160.0
G1 X9.25 Y-10.06 Z0.15 F2160.0
M108 R30.0
M102
G1 X9.25 Y-10.6 Z0.15 F2160.0
M108 R3.693
M103
G1 X8.9 Y-7.92 Z0.15 F1800.0
M108 R30.0
M101
G1 X8.83 Y-7.44 Z0.15 F1800.0
M108 R3.693
G1 X8.83 Y-10.6 Z0.15 F2160.0
M103
G1 X8.41 Y-10.6 Z0.15 F1800.0
M101
G1 X8.41 Y-7.68 Z0.15 F2160.0
G1 X8.0 Y-7.93 Z0.15 F2160.0
G1 X8.0 Y-10.6 Z0.15 F2160.0
M103
G1 X7.58 Y-10.6 Z0.15 F1800.0
M101
G1 X7.58 Y-8.17 Z0.15 F2160.0
G1 X7.16 Y-8.41 Z0.15 F2160.0
G1 X7.16 Y-10.6 Z0.15 F2160.0
M103
G1 X6.74 Y-10.6 Z0.15 F1800.0
M101
G1 X6.74 Y-8.65 Z0.15 F2160.0
G1 X6.32 Y-8.89 Z0.15 F2160.0
G1 X6.32 Y-10.6 Z0.15 F2160.0
M103
G1 X5.9 Y-10.6 Z0.15 F1800.0
M101
G1 X5.9 Y-9.68 Z0.15 F2160.0
M108 R30.0
M102
G1 X5.9 Y-9.14 Z0.15 F2160.0
M108 R3.693
M103
G1 X5.62 Y-10.14 Z0.15 F1800.0
M108 R30.0
M101
G1 X5.48 Y-10.6 Z0.15 F1800.0
M108 R3.693
G1 X5.48 Y-9.38 Z0.15 F2160.0
G1 X5.06 Y-9.62 Z0.15 F2160.0
G1 X5.06 Y-10.06 Z0.15 F2160.0
M108 R30.0
M102
G1 X5.06 Y-10.6 Z0.15 F2160.0
M108 R3.693
M103
G1 X11.29 Y-11.29 Z0.15 F1800.0
M108 R30.0
M101
G1 X11.77 Y-11.34 Z0.15 F1800.0
M108 R3.693
G1 X11.77 Y-5.75 Z0.15 F2160.0
G1 X11.35 Y-5.99 Z0.15 F2160.0
G1 X11.35 Y-11.55 Z0.15 F2160.0
G1 X10.93 Y-11.82 Z0.15 F2160.0
G1 X10.93 Y-6.23 Z0.15 F2160.0
G1 X10.51 Y-6.48 Z0.15 F2160.0
G1 X10.51 Y-12.19 Z0.15 F2160.0
G1 X10.09 Y-12.74 Z0.15 F2160.0
G1 X10.09 Y-7.26 Z0.15 F2160.0
M108 R30.0
M102
G1 X10.09 Y-6.72 Z0.15 F2160.0
M108 R3.693
M103
G1 X12.19 Y-5.51 Z0.15 F1800.0
M108 R30.0
M101
G1 X12.6 Y-5.27 Z0.15 F1800.0
M108 R3.693
G1 X12.6 Y-11.14 Z0.15 F2160.0
G1 X12.19 Y-11.21 Z0.15 F2160.0
G1 X12.19 Y-6.05 Z0.15 F2160.0
M108 R30.0
M102
G1 X12.19 Y-5.51 Z0.15 F2160.0
M108 R3.693
M103
G1 X14.23 Y-5.9 Z0.15 F1800.0
M108 R30.0
M101
G1 X14.7 Y-5.99 Z0.15 F1800.0
M108 R3.693
G1 X14.7 Y-11.55 Z0.15 F2160.0
G1 X14.28 Y-11.34 Z0.15 F2160.0
G1 X14.28 Y-5.75 Z0.15 F2160.0
G1 X13.86 Y-5.51 Z0.15 F2160.0
G1 X13.86 Y-11.21 Z0.15 F2160.0
G1 X13.44 Y-11.14 Z0.15 F2160.0
G1 X13.44 Y-5.27 Z0.15 F2160.0
G1 X13.02 Y-5.02 Z0.15 F2160.0
G1 X13.02 Y-10.55 Z0.15 F2160.0
M108 R30.0
M102
G1 X13.02 Y-11.1 Z0.15 F2160.0
M108 R3.693
M103
G1 X15.54 Y-12.51 Z0.15 F1800.0
M108 R30.0
M101
G1 X15.96 Y-12.74 Z0.15 F1800.0
M108 R3.693
G1 X15.96 Y-6.72 Z0.15 F2160.0
G1 X15.54 Y-6.48 Z0.15 F2160.0
G1 X15.54 Y-12.19 Z0.15 F2160.0
G1 X15.12 Y-11.82 Z0.15 F2160.0
G1 X15.12 Y-6.77 Z0.15 F2160.0
M108 R30.0
M102
G1 X15.12 Y-6.23 Z0.15 F2160.0
M108 R3.693
M103
G1 X16.8 Y-7.2 Z0.15 F1800.0
M108 R30.0
M101
G1 X17.21 Y-7.44 Z0.15 F1800.0
M108 R3.693
G1 X17.21 Y-21.12 Z0.15 F2160.0
M108 R30.0
M102
G1 X17.21 Y-21.66 Z0.15 F2160.0
M108 R3.693
M103
G1 X14.57 Y-18.14 Z0.15 F1800.0
M108 R30.0
M101
G1 X14.28 Y-17.76 Z0.15 F1800.0
M108 R3.693
G1 X14.28 Y-23.35 Z0.15 F2160.0
G1 X14.7 Y-23.11 Z0.15 F2160.0
G1 X14.7 Y-17.55 Z0.15 F2160.0
G1 X15.12 Y-17.28 Z0.15 F2160.0
G1 X15.12 Y-22.87 Z0.15 F2160.0
G1 X15.54 Y-22.63 Z0.15 F2160.0
G1 X15.54 Y-16.91 Z0.15 F2160.0
G1 X15.96 Y-16.36 Z0.15 F2160.0
G1 X15.96 Y-21.84 Z0.15 F2160.0
M108 R30.0
M102
G1 X15.96 Y-22.38 Z0.15 F2160.0
M108 R3.693
M103
G1 X13.86 Y-23.59 Z0.15 F1800.0
M108 R30.0
M101
G1 X13.44 Y-23.83 Z0.15 F1800.0
M108 R3.693
G1 X13.44 Y-17.96 Z0.15 F2160.0
G1 X13.86 Y-17.89 Z0.15 F2160.0
G1 X13.86 Y-23.05 Z0.15 F2160.0
M108 R30.0
M102
G1 X13.86 Y-23.59 Z0.15 F2160.0
M108 R3.693
M103
G1 X11.82 Y-23.2 Z0.15 F1800.0
M108 R30.0
M101
G1 X11.35 Y-23.11 Z0.15 F1800.0
M108 R3.693
G1 X11.35 Y-17.55 Z0.15 F2160.0
G1 X11.77 Y-17.76 Z0.15 F2160.0
G1 X11.77 Y-23.35 Z0.15 F2160.0
G1 X12.19 Y-23.59 Z0.15 F2160.0
G1 X12.19 Y-17.89 Z0.15 F2160.0
G1 X12.6 Y-17.96 Z0.15 F2160.0
G1 X12.6 Y-23.83 Z0.15 F2160.0
G1 X13.02 Y-24.08 Z0.15 F2160.0
G1 X13.02 Y-18.55 Z0.15 F2160.0
M108 R30.0
M102
G1 X13.02 Y-18.0 Z0.15 F2160.0
M108 R3.693
M103
G1 X10.51 Y-16.59 Z0.15 F1800.0
M108 R30.0
M101
G1 X10.09 Y-16.36 Z0.15 F1800.0
M108 R3.693
G1 X10.09 Y-22.38 Z0.15 F2160.0
G1 X10.51 Y-22.63 Z0.15 F2160.0
G1 X10.51 Y-16.91 Z0.15 F2160.0
G1 X10.93 Y-17.28 Z0.15 F2160.0
G1 X10.93 Y-22.33 Z0.15 F2160.0
M108 R30.0
M102
G1 X10.93 Y-22.87 Z0.15 F2160.0
M108 R3.693
M103
G1 X9.04 Y-18.93 Z0.15 F1800.0
M108 R30.0
M101
G1 X8.83 Y-18.5 Z0.15 F1800.0
M108 R3.693
G1 X8.83 Y-21.12 Z0.15 F2160.0
M108 R30.0
M102
G1 X8.83 Y-21.66 Z0.15 F2160.0
M108 R3.693
M103
G1 X7.16 Y-20.69 Z0.15 F1800.0
M108 R30.0
M101
G1 X6.74 Y-20.45 Z0.15 F1800.0
M108 R3.693
G1 X6.74 Y-18.5 Z0.15 F2160.0
M103
G1 X6.32 Y-18.5 Z0.15 F1800.0
M101
G1 X6.32 Y-20.21 Z0.15 F2160.0
G1 X5.9 Y-19.96 Z0.15 F2160.0
G1 X5.9 Y-18.5 Z0.15 F2160.0
M103
G1 X5.48 Y-18.5 Z0.15 F1800.0
M101
G1 X5.48 Y-19.72 Z0.15 F2160.0
G1 X5.06 Y-19.48 Z0.15 F2160.0
G1 X5.06 Y-19.04 Z0.15 F2160.0
M108 R30.0
M102
G1 X5.06 Y-18.5 Z0.15 F2160.0
M108 R3.693
M103
G1 X7.1 Y-18.5 Z0.15 F1800.0
M108 R30.0
M101
G1 X7.58 Y-18.5 Z0.15 F1800.0
M108 R3.693
G1 X7.58 Y-20.93 Z0.15 F2160.0
G1 X7.16 Y-20.69 Z0.15 F2160.0
G1 X7.16 Y-19.04 Z0.15 F2160.0
M108 R30.0
M102
G1 X7.16 Y-18.5 Z0.15 F2160.0
M108 R3.693
M103
G1 X7.93 Y-18.5 Z0.15 F1800.0
M108 R30.0
M101
G1 X8.41 Y-18.5 Z0.15 F1800.0
M108 R3.693
G1 X8.41 Y-21.42 Z0.15 F2160.0
G1 X8.0 Y-21.17 Z0.15 F2160.0
G1 X8.0 Y-19.04 Z0.15 F2160.0
M108 R30.0
M102
G1 X8.0 Y-18.5 Z0.15 F2160.0
M108 R3.693
M103
G1 X8.47 Y-17.89 Z0.15 F3000.0
G1 X8.82 Y-17.75 Z0.15 F3000.0
G1 X8.97 Y-17.23 Z0.15 F3000.0
G1 X9.5 Y-15.8 Z0.15 F1800.0
M108 R30.0
M101
G1 X9.67 Y-15.35 Z0.15 F1800.0
M108 R3.693
G1 X9.67 Y-22.14 Z0.15 F2160.0
G1 X9.25 Y-21.9 Z0.15 F2160.0
G1 X9.25 Y-19.04 Z0.15 F2160.0
M108 R30.0
M102
G1 X9.25 Y-18.5 Z0.15 F2160.0
M108 R3.693
M103
G1 X14.6 Y-16.91 Z0.15 F3000.0
G1 X15.03 Y-16.56 Z0.15 F3000.0
G1 X15.39 Y-16.13 Z0.15 F3000.0
G1 X16.19 Y-14.2 Z0.15 F1800.0
M108 R30.0
M101
G1 X16.37 Y-13.75 Z0.15 F1800.0
M108 R3.693
G1 X16.37 Y-6.96 Z0.15 F2160.0
G1 X16.79 Y-7.2 Z0.15 F2160.0
G1 X16.79 Y-21.9 Z0.15 F2160.0
G1 X16.37 Y-22.14 Z0.15 F2160.0
G1 X16.37 Y-15.89 Z0.15 F2160.0
M108 R30.0
M102
G1 X16.37 Y-15.35 Z0.15 F2160.0
M108 R3.693
M103
G1 X19.84 Y-19.59 Z0.15 F1800.0
M108 R30.0
M101
G1 X20.14 Y-19.96 Z0.15 F1800.0
M108 R3.693
G1 X20.14 Y-9.14 Z0.15 F2160.0
G1 X19.72 Y-8.89 Z0.15 F2160.0
G1 X19.72 Y-20.21 Z0.15 F2160.0
G1 X19.31 Y-20.45 Z0.15 F2160.0
G1 X19.31 Y-8.65 Z0.15 F2160.0
M103
G1 X18.89 Y-8.41 Z0.15 F1800.0
M101
G1 X18.89 Y-20.69 Z0.15 F2160.0
G1 X18.47 Y-20.93 Z0.15 F2160.0
G1 X18.47 Y-8.17 Z0.15 F2160.0
M103
G1 X18.05 Y-7.93 Z0.15 F1800.0
M101
G1 X18.05 Y-21.17 Z0.15 F2160.0
G1 X17.63 Y-21.42 Z0.15 F2160.0
G1 X17.63 Y-8.22 Z0.15 F2160.0
M108 R30.0
M102
G1 X17.63 Y-7.68 Z0.15 F2160.0
M108 R3.693
M103
G1 X20.85 Y-19.02 Z0.15 F1800.0
M108 R30.0
M101
G1 X20.98 Y-19.48 Z0.15 F1800.0
M108 R3.693
G1 X20.98 Y-9.62 Z0.15 F2160.0
G1 X20.56 Y-9.38 Z0.15 F2160.0
G1 X20.56 Y-19.18 Z0.15 F2160.0
M108 R30.0
M102
G1 X20.56 Y-19.72 Z0.15 F2160.0
M108 R3.693
M103
(</surroundingLoop>)
(<surroundingLoop>)
(<boundaryPerimeter>)
(<boundaryPoint> X13.023 Y25.117 Z0.15 </boundaryPoint>)
(<boundaryPoint> X3.873 Y19.834 Z0.15 </boundaryPoint>)
(<boundaryPoint> X3.873 Y9.267 Z0.15 </boundaryPoint>)
(<boundaryPoint> X13.023 Y3.984 Z0.15 </boundaryPoint>)
(<boundaryPoint> X22.172 Y9.267 Z0.15 </boundaryPoint>)
(<boundaryPoint> X22.172 Y19.834 Z0.15 </boundaryPoint>)
(<loop> inner )
G1 X13.72 Y10.64 Z0.15 F3000.0
M108 R30.0
M101
G1 X13.54 Y11.42 Z0.15 F3000.0
M108 R3.693
G1 X13.02 Y11.37 Z0.15 F2160.0
G1 X12.4 Y11.43 Z0.15 F2160.0
G1 X11.8 Y11.61 Z0.15 F2160.0
G1 X11.26 Y11.9 Z0.15 F2160.0
G1 X10.77 Y12.3 Z0.15 F2160.0
G1 X10.38 Y12.79 Z0.15 F2160.0
G1 X10.09 Y13.33 Z0.15 F2160.0
G1 X9.9 Y13.93 Z0.15 F2160.0
G1 X9.84 Y14.55 Z0.15 F2160.0
G1 X9.9 Y15.17 Z0.15 F2160.0
G1 X10.08 Y15.76 Z0.15 F2160.0
G1 X10.23 Y16.04 Z0.15 F2160.0
G1 X10.38 Y16.32 Z0.15 F2160.0
G1 X10.77 Y16.8 Z0.15 F2160.0
G1 X11.26 Y17.2 Z0.15 F2160.0
G1 X11.8 Y17.49 Z0.15 F2160.0
G1 X12.4 Y17.67 Z0.15 F2160.0
G1 X13.02 Y17.73 Z0.15 F2160.0
G1 X13.64 Y17.67 Z0.15 F2160.0
G1 X14.24 Y17.49 Z0.15 F2160.0
G1 X14.79 Y17.2 Z0.15 F2160.0
G1 X15.27 Y16.8 Z0.15 F2160.0
G1 X15.67 Y16.32 Z0.15 F2160.0
G1 X15.96 Y15.77 Z0.15 F2160.0
G1 X16.14 Y15.17 Z0.15 F2160.0
G1 X16.2 Y14.55 Z0.15 F2160.0
G1 X16.14 Y13.93 Z0.15 F2160.0
G1 X15.96 Y13.33 Z0.15 F2160.0
G1 X15.67 Y12.78 Z0.15 F2160.0
G1 X15.27 Y12.3 Z0.15 F2160.0
G1 X14.79 Y11.9 Z0.15 F2160.0
G1 X14.24 Y11.61 Z0.15 F2160.0
G1 X14.07 Y11.56 Z0.15 F2160.0
M108 R30.0
M102
G1 X13.64 Y11.43 Z0.15 F2160.0
G1 X13.54 Y11.42 Z0.15 F2160.0
M108 R3.693
M103
(</loop>)
(<loop> inner )
G1 X10.1 Y11.42 Z0.15 F3000.0
M108 R30.0
M101
G1 X9.3 Y11.42 Z0.15 F3000.0
M108 R3.693
G1 X9.3 Y10.87 Z0.15 F2160.0
G1 X5.25 Y10.87 Z0.15 F2160.0
G1 X5.25 Y18.23 Z0.15 F2160.0
G1 X9.3 Y18.23 Z0.15 F2160.0
G1 X9.3 Y16.04 Z0.15 F2160.0
G1 X9.3 Y11.96 Z0.15 F2160.0
M108 R30.0
M102
G1 X9.3 Y11.42 Z0.15 F2160.0
M108 R3.693
M103
(</loop>)
(<loop> outer )
G1 X7.73 Y8.69 Z0.15 F3000.0
M108 R30.0
M101
G1 X7.33 Y8.0 Z0.15 F3000.0
M108 R3.693
G1 X13.02 Y4.71 Z0.15 F2160.0
G1 X21.54 Y9.63 Z0.15 F2160.0
G1 X21.54 Y19.47 Z0.15 F2160.0
G1 X13.02 Y24.39 Z0.15 F2160.0
G1 X4.5 Y19.47 Z0.15 F2160.0
G1 X4.5 Y16.04 Z0.15 F2160.0
G1 X4.5 Y9.63 Z0.15 F2160.0
G1 X7.33 Y8.0 Z0.15 F2160.0
M103
(</loop>)
(<perimeter> outer )
G1 X7.12 Y7.64 Z0.15 F3000.0
M101
G1 X13.02 Y4.23 Z0.15 F2160.0
G1 X21.96 Y9.39 Z0.15 F2160.0
G1 X21.96 Y19.71 Z0.15 F2160.0
G1 X13.02 Y24.87 Z0.15 F2160.0
G1 X4.08 Y19.71 Z0.15 F2160.0
G1 X4.08 Y16.04 Z0.15 F2160.0
G1 X4.08 Y9.39 Z0.15 F2160.0
G1 X6.65 Y7.91 Z0.15 F2160.0
M108 R30.0
M102
G1 X7.12 Y7.64 Z0.15 F2160.0
M108 R3.693
M103
(</perimeter>)
(</boundaryPerimeter>)
(<surroundingLoop>)
(<boundaryPerimeter>)
(<boundaryPoint> X5.873 Y11.5 Z0.15 </boundaryPoint>)
(<boundaryPoint> X5.873 Y17.601 Z0.15 </boundaryPoint>)
(<boundaryPoint> X8.673 Y17.601 Z0.15 </boundaryPoint>)
(<boundaryPoint> X8.673 Y11.5 Z0.15 </boundaryPoint>)
(<perimeter> inner )
G1 X7.12 Y10.49 Z0.15 F3000.0
M108 R30.0
M101
G1 X7.12 Y11.29 Z0.15 F3000.0
M108 R3.693
G1 X5.66 Y11.29 Z0.15 F2160.0
G1 X5.66 Y16.04 Z0.15 F2160.0
G1 X5.66 Y17.81 Z0.15 F2160.0
G1 X8.88 Y17.81 Z0.15 F2160.0
G1 X8.88 Y11.29 Z0.15 F2160.0
G1 X7.66 Y11.29 Z0.15 F2160.0
M108 R30.0
M102
G1 X7.12 Y11.29 Z0.15 F2160.0
M108 R3.693
M103
(</perimeter>)
(</boundaryPerimeter>)
(</surroundingLoop>)
(<surroundingLoop>)
(<boundaryPerimeter>)
(<boundaryPoint> X15.143 Y15.967 Z0.15 </boundaryPoint>)
(<boundaryPoint> X15.379 Y15.526 Z0.15 </boundaryPoint>)
(<boundaryPoint> X15.524 Y15.047 Z0.15 </boundaryPoint>)
(<boundaryPoint> X15.573 Y14.55 Z0.15 </boundaryPoint>)
(<boundaryPoint> X15.524 Y14.053 Z0.15 </boundaryPoint>)
(<boundaryPoint> X15.379 Y13.575 Z0.15 </boundaryPoint>)
(<boundaryPoint> X15.143 Y13.133 Z0.15 </boundaryPoint>)
(<boundaryPoint> X14.826 Y12.747 Z0.15 </boundaryPoint>)
(<boundaryPoint> X14.44 Y12.43 Z0.15 </boundaryPoint>)
(<boundaryPoint> X13.998 Y12.194 Z0.15 </boundaryPoint>)
(<boundaryPoint> X13.52 Y12.05 Z0.15 </boundaryPoint>)
(<boundaryPoint> X13.023 Y12.0 Z0.15 </boundaryPoint>)
(<boundaryPoint> X12.526 Y12.05 Z0.15 </boundaryPoint>)
(<boundaryPoint> X12.047 Y12.194 Z0.15 </boundaryPoint>)
(<boundaryPoint> X11.606 Y12.43 Z0.15 </boundaryPoint>)
(<boundaryPoint> X11.22 Y12.747 Z0.15 </boundaryPoint>)
(<boundaryPoint> X10.899 Y13.139 Z0.15 </boundaryPoint>)
(<boundaryPoint> X10.668 Y13.572 Z0.15 </boundaryPoint>)
(<boundaryPoint> X10.521 Y14.056 Z0.15 </boundaryPoint>)
(<boundaryPoint> X10.473 Y14.551 Z0.15 </boundaryPoint>)
(<boundaryPoint> X10.522 Y15.047 Z0.15 </boundaryPoint>)
(<boundaryPoint> X10.666 Y15.522 Z0.15 </boundaryPoint>)
(<boundaryPoint> X10.905 Y15.97 Z0.15 </boundaryPoint>)
(<boundaryPoint> X11.22 Y16.354 Z0.15 </boundaryPoint>)
(<boundaryPoint> X11.606 Y16.671 Z0.15 </boundaryPoint>)
(<boundaryPoint> X12.047 Y16.907 Z0.15 </boundaryPoint>)
(<boundaryPoint> X12.526 Y17.052 Z0.15 </boundaryPoint>)
(<boundaryPoint> X13.023 Y17.101 Z0.15 </boundaryPoint>)
(<boundaryPoint> X13.52 Y17.052 Z0.15 </boundaryPoint>)
(<boundaryPoint> X13.998 Y16.907 Z0.15 </boundaryPoint>)
(<boundaryPoint> X14.44 Y16.671 Z0.15 </boundaryPoint>)
(<boundaryPoint> X14.826 Y16.354 Z0.15 </boundaryPoint>)
(<perimeter> inner )
G1 X7.55 Y11.21 Z0.15 F3000.0
G1 X8.82 Y11.35 Z0.15 F3000.0
G1 X8.97 Y12.04 Z0.15 F3000.0
G1 X10.03 Y12.63 Z0.15 F3000.0
M108 R30.0
M101
G1 X10.72 Y13.02 Z0.15 F3000.0
M108 R3.693
G1 X10.47 Y13.49 Z0.15 F2160.0
G1 X10.31 Y14.02 Z0.15 F2160.0
G1 X10.26 Y14.55 Z0.15 F2160.0
G1 X10.32 Y15.09 Z0.15 F2160.0
G1 X10.47 Y15.6 Z0.15 F2160.0
G1 X10.73 Y16.09 Z0.15 F2160.0
G1 X11.07 Y16.5 Z0.15 F2160.0
G1 X11.49 Y16.85 Z0.15 F2160.0
G1 X11.97 Y17.1 Z0.15 F2160.0
G1 X12.48 Y17.26 Z0.15 F2160.0
G1 X13.02 Y17.31 Z0.15 F2160.0
G1 X13.56 Y17.26 Z0.15 F2160.0
G1 X14.08 Y17.1 Z0.15 F2160.0
G1 X14.56 Y16.85 Z0.15 F2160.0
G1 X14.97 Y16.5 Z0.15 F2160.0
G1 X15.32 Y16.08 Z0.15 F2160.0
G1 X15.57 Y15.61 Z0.15 F2160.0
G1 X15.73 Y15.09 Z0.15 F2160.0
G1 X15.78 Y14.55 Z0.15 F2160.0
G1 X15.73 Y14.01 Z0.15 F2160.0
G1 X15.57 Y13.49 Z0.15 F2160.0
G1 X15.32 Y13.02 Z0.15 F2160.0
G1 X14.97 Y12.6 Z0.15 F2160.0
G1 X14.56 Y12.26 Z0.15 F2160.0
G1 X14.08 Y12.0 Z0.15 F2160.0
G1 X13.56 Y11.84 Z0.15 F2160.0
G1 X13.02 Y11.79 Z0.15 F2160.0
G1 X12.48 Y11.84 Z0.15 F2160.0
G1 X11.97 Y12.0 Z0.15 F2160.0
G1 X11.49 Y12.26 Z0.15 F2160.0
G1 X11.07 Y12.6 Z0.15 F2160.0
G1 X11.07 Y12.6 Z0.15 F2160.0
M108 R30.0
M102
G1 X10.72 Y13.02 Z0.15 F2160.0
M108 R3.693
M103
(</perimeter>)
(</boundaryPerimeter>)
(</surroundingLoop>)
G1 X9.87 Y14.91 Z0.15 F1800.0
M108 R30.0
M101
G1 X9.67 Y15.35 Z0.15 F1800.0
M108 R3.693
G1 X9.67 Y22.14 Z0.15 F2160.0
G1 X9.25 Y21.9 Z0.15 F2160.0
G1 X9.25 Y19.04 Z0.15 F2160.0
M108 R30.0
M102
G1 X9.25 Y18.5 Z0.15 F2160.0
M108 R3.693
M103
G1 X8.9 Y21.18 Z0.15 F1800.0
M108 R30.0
M101
G1 X8.83 Y21.66 Z0.15 F1800.0
M108 R3.693
G1 X8.83 Y18.5 Z0.15 F2160.0
M103
G1 X8.41 Y18.5 Z0.15 F1800.0
M101
G1 X8.41 Y21.42 Z0.15 F2160.0
G1 X8.0 Y21.17 Z0.15 F2160.0
G1 X8.0 Y18.5 Z0.15 F2160.0
M103
G1 X7.58 Y18.5 Z0.15 F1800.0
M101
G1 X7.58 Y20.93 Z0.15 F2160.0
G1 X7.16 Y20.69 Z0.15 F2160.0
G1 X7.16 Y18.5 Z0.15 F2160.0
M103
G1 X6.74 Y18.5 Z0.15 F1800.0
M101
G1 X6.74 Y20.45 Z0.15 F2160.0
G1 X6.32 Y20.21 Z0.15 F2160.0
G1 X6.32 Y18.5 Z0.15 F2160.0
M103
G1 X5.9 Y18.5 Z0.15 F1800.0
M101
G1 X5.9 Y19.43 Z0.15 F2160.0
M108 R30.0
M102
G1 X5.9 Y19.96 Z0.15 F2160.0
M108 R3.693
M103
G1 X5.62 Y18.96 Z0.15 F1800.0
M108 R30.0
M101
G1 X5.48 Y18.5 Z0.15 F1800.0
M108 R3.693
G1 X5.48 Y19.72 Z0.15 F2160.0
G1 X5.06 Y19.48 Z0.15 F2160.0
G1 X5.06 Y19.04 Z0.15 F2160.0
M108 R30.0
M102
G1 X5.06 Y18.5 Z0.15 F2160.0
M108 R3.693
M103
G1 X11.29 Y17.82 Z0.15 F1800.0
M108 R30.0
M101
G1 X11.77 Y17.76 Z0.15 F1800.0
M108 R3.693
G1 X11.77 Y23.35 Z0.15 F2160.0
G1 X11.35 Y23.11 Z0.15 F2160.0
G1 X11.35 Y17.55 Z0.15 F2160.0
G1 X10.93 Y17.28 Z0.15 F2160.0
G1 X10.93 Y22.87 Z0.15 F2160.0
G1 X10.51 Y22.63 Z0.15 F2160.0
G1 X10.51 Y16.91 Z0.15 F2160.0
G1 X10.09 Y16.36 Z0.15 F2160.0
G1 X10.09 Y21.84 Z0.15 F2160.0
M108 R30.0
M102
G1 X10.09 Y22.38 Z0.15 F2160.0
M108 R3.693
M103
G1 X12.19 Y23.59 Z0.15 F1800.0
M108 R30.0
M101
G1 X12.6 Y23.83 Z0.15 F1800.0
M108 R3.693
G1 X12.6 Y17.96 Z0.15 F2160.0
G1 X12.19 Y17.89 Z0.15 F2160.0
G1 X12.19 Y23.05 Z0.15 F2160.0
M108 R30.0
M102
G1 X12.19 Y23.59 Z0.15 F2160.0
M108 R3.693
M103
G1 X14.23 Y23.2 Z0.15 F1800.0
M108 R30.0
M101
G1 X14.7 Y23.11 Z0.15 F1800.0
M108 R3.693
G1 X14.7 Y17.55 Z0.15 F2160.0
G1 X14.28 Y17.76 Z0.15 F2160.0
G1 X14.28 Y23.35 Z0.15 F2160.0
G1 X13.86 Y23.59 Z0.15 F2160.0
G1 X13.86 Y17.89 Z0.15 F2160.0
G1 X13.44 Y17.96 Z0.15 F2160.0
G1 X13.44 Y23.83 Z0.15 F2160.0
G1 X13.02 Y24.08 Z0.15 F2160.0
G1 X13.02 Y18.55 Z0.15 F2160.0
M108 R30.0
M102
G1 X13.02 Y18.0 Z0.15 F2160.0
M108 R3.693
M103
G1 X15.54 Y16.59 Z0.15 F1800.0
M108 R30.0
M101
G1 X15.96 Y16.36 Z0.15 F1800.0
M108 R3.693
G1 X15.96 Y22.38 Z0.15 F2160.0
G1 X15.54 Y22.63 Z0.15 F2160.0
G1 X15.54 Y16.91 Z0.15 F2160.0
G1 X15.12 Y17.28 Z0.15 F2160.0
G1 X15.12 Y22.33 Z0.15 F2160.0
M108 R30.0
M102
G1 X15.12 Y22.87 Z0.15 F2160.0
M108 R3.693
M103
G1 X16.8 Y21.9 Z0.15 F1800.0
M108 R30.0
M101
G1 X17.21 Y21.66 Z0.15 F1800.0
M108 R3.693
G1 X17.21 Y7.98 Z0.15 F2160.0
M108 R30.0
M102
G1 X17.21 Y7.44 Z0.15 F2160.0
M108 R3.693
M103
G1 X14.57 Y10.96 Z0.15 F1800.0
M108 R30.0
M101
G1 X14.28 Y11.34 Z0.15 F1800.0
M108 R3.693
G1 X14.28 Y5.75 Z0.15 F2160.0
G1 X14.7 Y5.99 Z0.15 F2160.0
G1 X14.7 Y11.55 Z0.15 F2160.0
G1 X15.12 Y11.82 Z0.15 F2160.0
G1 X15.12 Y6.23 Z0.15 F2160.0
G1 X15.54 Y6.48 Z0.15 F2160.0
G1 X15.54 Y12.19 Z0.15 F2160.0
G1 X15.96 Y12.74 Z0.15 F2160.0
G1 X15.96 Y7.26 Z0.15 F2160.0
M108 R30.0
M102
G1 X15.96 Y6.72 Z0.15 F2160.0
M108 R3.693
M103
G1 X13.86 Y5.51 Z0.15 F1800.0
M108 R30.0
M101
G1 X13.44 Y5.27 Z0.15 F1800.0
M108 R3.693
G1 X13.44 Y11.14 Z0.15 F2160.0
G1 X13.86 Y11.21 Z0.15 F2160.0
G1 X13.86 Y6.05 Z0.15 F2160.0
M108 R30.0
M102
G1 X13.86 Y5.51 Z0.15 F2160.0
M108 R3.693
M103
G1 X11.82 Y5.9 Z0.15 F1800.0
M108 R30.0
M101
G1 X11.35 Y5.99 Z0.15 F1800.0
M108 R3.693
G1 X11.35 Y11.55 Z0.15 F2160.0
G1 X11.77 Y11.34 Z0.15 F2160.0
G1 X11.77 Y5.75 Z0.15 F2160.0
G1 X12.19 Y5.51 Z0.15 F2160.0
G1 X12.19 Y11.21 Z0.15 F2160.0
G1 X12.6 Y11.14 Z0.15 F2160.0
G1 X12.6 Y5.27 Z0.15 F2160.0
G1 X13.02 Y5.02 Z0.15 F2160.0
G1 X13.02 Y10.55 Z0.15 F2160.0
M108 R30.0
M102
G1 X13.02 Y11.1 Z0.15 F2160.0
M108 R3.693
M103
G1 X10.51 Y12.51 Z0.15 F1800.0
M108 R30.0
M101
G1 X10.09 Y12.74 Z0.15 F1800.0
M108 R3.693
G1 X10.09 Y6.72 Z0.15 F2160.0
G1 X10.51 Y6.48 Z0.15 F2160.0
G1 X10.51 Y12.19 Z0.15 F2160.0
G1 X10.93 Y11.82 Z0.15 F2160.0
G1 X10.93 Y6.77 Z0.15 F2160.0
M108 R30.0
M102
G1 X10.93 Y6.23 Z0.15 F2160.0
M108 R3.693
M103
G1 X9.04 Y10.17 Z0.15 F1800.0
M108 R30.0
M101
G1 X8.83 Y10.6 Z0.15 F1800.0
M108 R3.693
G1 X8.83 Y7.98 Z0.15 F2160.0
M108 R30.0
M102
G1 X8.83 Y7.44 Z0.15 F2160.0
M108 R3.693
M103
G1 X7.16 Y8.41 Z0.15 F1800.0
M108 R30.0
M101
G1 X6.74 Y8.65 Z0.15 F1800.0
M108 R3.693
G1 X6.74 Y10.6 Z0.15 F2160.0
M103
G1 X6.32 Y10.6 Z0.15 F1800.0
M101
G1 X6.32 Y8.89 Z0.15 F2160.0
G1 X5.9 Y9.14 Z0.15 F2160.0
G1 X5.9 Y10.6 Z0.15 F2160.0
M103
G1 X5.48 Y10.6 Z0.15 F1800.0
M101
G1 X5.48 Y9.38 Z0.15 F2160.0
G1 X5.06 Y9.62 Z0.15 F2160.0
G1 X5.06 Y10.06 Z0.15 F2160.0
M108 R30.0
M102
G1 X5.06 Y10.6 Z0.15 F2160.0
M108 R3.693
M103
G1 X7.1 Y10.6 Z0.15 F1800.0
M108 R30.0
M101
G1 X7.58 Y10.6 Z0.15 F1800.0
M108 R3.693
G1 X7.58 Y8.17 Z0.15 F2160.0
G1 X7.16 Y8.41 Z0.15 F2160.0
G1 X7.16 Y10.06 Z0.15 F2160.0
M108 R30.0
M102
G1 X7.16 Y10.6 Z0.15 F2160.0
M108 R3.693
M103
G1 X7.93 Y10.6 Z0.15 F1800.0
M108 R30.0
M101
G1 X8.41 Y10.6 Z0.15 F1800.0
M108 R3.693
G1 X8.41 Y7.68 Z0.15 F2160.0
G1 X8.0 Y7.93 Z0.15 F2160.0
G1 X8.0 Y10.06 Z0.15 F2160.0
M108 R30.0
M102
G1 X8.0 Y10.6 Z0.15 F2160.0
M108 R3.693
M103
G1 X8.47 Y11.21 Z0.15 F3000.0
G1 X8.82 Y11.35 Z0.15 F3000.0
G1 X8.97 Y11.87 Z0.15 F3000.0
G1 X9.5 Y13.3 Z0.15 F1800.0
M108 R30.0
M101
G1 X9.67 Y13.75 Z0.15 F1800.0
M108 R3.693
G1 X9.67 Y6.96 Z0.15 F2160.0
G1 X9.25 Y7.2 Z0.15 F2160.0
G1 X9.25 Y10.06 Z0.15 F2160.0
M108 R30.0
M102
G1 X9.25 Y10.6 Z0.15 F2160.0
M108 R3.693
M103
G1 X14.6 Y12.19 Z0.15 F3000.0
G1 X15.03 Y12.54 Z0.15 F3000.0
G1 X15.39 Y12.97 Z0.15 F3000.0
G1 X16.19 Y14.9 Z0.15 F1800.0
M108 R30.0
M101
G1 X16.37 Y15.35 Z0.15 F1800.0
M108 R3.693
G1 X16.37 Y22.14 Z0.15 F2160.0
G1 X16.79 Y21.9 Z0.15 F2160.0
G1 X16.79 Y7.2 Z0.15 F2160.0
G1 X16.37 Y6.96 Z0.15 F2160.0
G1 X16.37 Y13.21 Z0.15 F2160.0
M108 R30.0
M102
G1 X16.37 Y13.75 Z0.15 F2160.0
M108 R3.693
M103
G1 X19.84 Y9.51 Z0.15 F1800.0
M108 R30.0
M101
G1 X20.14 Y9.14 Z0.15 F1800.0
M108 R3.693
G1 X20.14 Y19.96 Z0.15 F2160.0
G1 X19.72 Y20.21 Z0.15 F2160.0
G1 X19.72 Y8.89 Z0.15 F2160.0
G1 X19.31 Y8.65 Z0.15 F2160.0
G1 X19.31 Y20.45 Z0.15 F2160.0
M103
G1 X18.89 Y20.69 Z0.15 F1800.0
M101
G1 X18.89 Y8.41 Z0.15 F2160.0
G1 X18.47 Y8.17 Z0.15 F2160.0
G1 X18.47 Y20.93 Z0.15 F2160.0
M103
G1 X18.05 Y21.17 Z0.15 F1800.0
M101
G1 X18.05 Y7.93 Z0.15 F2160.0
G1 X17.63 Y7.68 Z0.15 F2160.0
G1 X17.63 Y20.88 Z0.15 F2160.0
M108 R30.0
M102
G1 X17.63 Y21.42 Z0.15 F2160.0
M108 R3.693
M103
G1 X20.85 Y10.08 Z0.15 F1800.0
M108 R30.0
M101
G1 X20.98 Y9.62 Z0.15 F1800.0
M108 R3.693
G1 X20.98 Y19.48 Z0.15 F2160.0
G1 X20.56 Y19.72 Z0.15 F2160.0
G1 X20.56 Y9.92 Z0.15 F2160.0
M108 R30.0
M102
G1 X20.56 Y9.38 Z0.15 F2160.0
M108 R3.693
M103
(</surroundingLoop>)
(<surroundingLoop>)
(<boundaryPerimeter>)
(<boundaryPoint> X-13.023 Y25.117 Z0.15 </boundaryPoint>)
(<boundaryPoint> X-22.172 Y19.834 Z0.15 </boundaryPoint>)
(<boundaryPoint> X-22.172 Y9.267 Z0.15 </boundaryPoint>)
(<boundaryPoint> X-13.023 Y3.984 Z0.15 </boundaryPoint>)
(<boundaryPoint> X-3.873 Y9.267 Z0.15 </boundaryPoint>)
(<boundaryPoint> X-3.873 Y19.834 Z0.15 </boundaryPoint>)
(<loop> inner )
G1 X6.04 Y11.21 Z0.15 F3000.0
G1 X5.73 Y11.35 Z0.15 F3000.0
G1 X5.58 Y11.53 Z0.15 F3000.0
G1 X-9.14 Y13.72 Z0.15 F3000.0
M108 R30.0
M101
G1 X-9.93 Y13.84 Z0.15 F3000.0
M108 R3.693
G1 X-10.08 Y13.33 Z0.15 F2160.0
G1 X-10.38 Y12.78 Z0.15 F2160.0
G1 X-10.77 Y12.3 Z0.15 F2160.0
G1 X-11.26 Y11.9 Z0.15 F2160.0
G1 X-11.8 Y11.61 Z0.15 F2160.0
G1 X-12.4 Y11.43 Z0.15 F2160.0
G1 X-13.02 Y11.37 Z0.15 F2160.0
G1 X-13.64 Y11.43 Z0.15 F2160.0
G1 X-14.24 Y11.61 Z0.15 F2160.0
G1 X-14.79 Y11.9 Z0.15 F2160.0
G1 X-15.27 Y12.3 Z0.15 F2160.0
G1 X-15.67 Y12.79 Z0.15 F2160.0
G1 X-15.96 Y13.33 Z0.15 F2160.0
G1 X-16.14 Y13.93 Z0.15 F2160.0
G1 X-16.2 Y14.55 Z0.15 F2160.0
G1 X-16.14 Y15.17 Z0.15 F2160.0
G1 X-15.96 Y15.76 Z0.15 F2160.0
G1 X-15.82 Y16.04 Z0.15 F2160.0
G1 X-15.67 Y16.32 Z0.15 F2160.0
G1 X-15.27 Y16.8 Z0.15 F2160.0
G1 X-14.79 Y17.2 Z0.15 F2160.0
G1 X-14.24 Y17.49 Z0.15 F2160.0
G1 X-13.64 Y17.67 Z0.15 F2160.0
G1 X-13.02 Y17.73 Z0.15 F2160.0
G1 X-12.4 Y17.67 Z0.15 F2160.0
G1 X-11.8 Y17.49 Z0.15 F2160.0
G1 X-11.26 Y17.2 Z0.15 F2160.0
G1 X-10.77 Y16.8 Z0.15 F2160.0
G1 X-10.38 Y16.32 Z0.15 F2160.0
G1 X-10.08 Y15.77 Z0.15 F2160.0
G1 X-9.9 Y15.17 Z0.15 F2160.0
G1 X-9.84 Y14.55 Z0.15 F2160.0
G1 X-9.86 Y14.37 Z0.15 F2160.0
M108 R30.0
M102
G1 X-9.9 Y13.93 Z0.15 F2160.0
G1 X-9.93 Y13.84 Z0.15 F2160.0
M108 R3.693
M103
(</loop>)
(<loop> inner )
G1 X-11.44 Y12.19 Z0.15 F3000.0
G1 X-11.94 Y11.92 Z0.15 F3000.0
G1 X-12.47 Y11.76 Z0.15 F3000.0
G1 X-13.02 Y11.71 Z0.15 F3000.0
G1 X-13.58 Y11.76 Z0.15 F3000.0
G1 X-14.11 Y11.92 Z0.15 F3000.0
G1 X-16.1 Y13.37 Z0.15 F3000.0
M108 R30.0
M101
G1 X-16.75 Y13.84 Z0.15 F3000.0
M108 R3.693
G1 X-16.75 Y10.87 Z0.15 F2160.0
G1 X-20.8 Y10.87 Z0.15 F2160.0
G1 X-20.8 Y18.23 Z0.15 F2160.0
G1 X-16.75 Y18.23 Z0.15 F2160.0
G1 X-16.75 Y16.04 Z0.15 F2160.0
G1 X-16.75 Y14.38 Z0.15 F2160.0
M108 R30.0
M102
G1 X-16.75 Y13.84 Z0.15 F2160.0
M108 R3.693
M103
(</loop>)
(<loop> outer )
G1 X-17.08 Y13.84 Z0.15 F3000.0
G1 X-17.23 Y11.35 Z0.15 F3000.0
G1 X-20.32 Y11.35 Z0.15 F3000.0
G1 X-20.46 Y13.84 Z0.15 F3000.0
G1 X-20.74 Y13.84 Z0.15 F3000.0
M108 R30.0
M101
G1 X-21.54 Y13.84 Z0.15 F3000.0
M108 R3.693
G1 X-21.54 Y9.63 Z0.15 F2160.0
G1 X-13.02 Y4.71 Z0.15 F2160.0
G1 X-4.5 Y9.63 Z0.15 F2160.0
G1 X-4.5 Y19.47 Z0.15 F2160.0
G1 X-13.02 Y24.39 Z0.15 F2160.0
G1 X-21.54 Y19.47 Z0.15 F2160.0
G1 X-21.54 Y16.04 Z0.15 F2160.0
G1 X-21.54 Y13.84 Z0.15 F2160.0
M103
(</loop>)
(<perimeter> outer )
G1 X-21.96 Y13.84 Z0.15 F3000.0
M101
G1 X-21.96 Y9.39 Z0.15 F2160.0
G1 X-13.02 Y4.23 Z0.15 F2160.0
G1 X-4.08 Y9.39 Z0.15 F2160.0
G1 X-4.08 Y19.71 Z0.15 F2160.0
G1 X-13.02 Y24.87 Z0.15 F2160.0
G1 X-21.96 Y19.71 Z0.15 F2160.0
G1 X-21.96 Y16.04 Z0.15 F2160.0
G1 X-21.96 Y14.38 Z0.15 F2160.0
M108 R30.0
M102
G1 X-21.96 Y13.84 Z0.15 F2160.0
M108 R3.693
M103
(</perimeter>)
(</boundaryPerimeter>)
(<surroundingLoop>)
(<boundaryPerimeter>)
(<boundaryPoint> X-20.172 Y11.5 Z0.15 </boundaryPoint>)
(<boundaryPoint> X-20.172 Y17.601 Z0.15 </boundaryPoint>)
(<boundaryPoint> X-17.373 Y17.601 Z0.15 </boundaryPoint>)
(<boundaryPoint> X-17.373 Y11.5 Z0.15 </boundaryPoint>)
(<perimeter> inner )
G1 X-21.18 Y13.84 Z0.15 F3000.0
M108 R30.0
M101
G1 X-20.38 Y13.84 Z0.15 F3000.0
M108 R3.693
G1 X-20.38 Y16.04 Z0.15 F2160.0
G1 X-20.38 Y17.81 Z0.15 F2160.0
G1 X-17.16 Y17.81 Z0.15 F2160.0
G1 X-17.16 Y11.29 Z0.15 F2160.0
G1 X-20.38 Y11.29 Z0.15 F2160.0
G1 X-20.38 Y13.3 Z0.15 F2160.0
M108 R30.0
M102
G1 X-20.38 Y13.84 Z0.15 F2160.0
M108 R3.693
M103
(</perimeter>)
(</boundaryPerimeter>)
(</surroundingLoop>)
(<surroundingLoop>)
(<boundaryPerimeter>)
(<boundaryPoint> X-10.902 Y15.967 Z0.15 </boundaryPoint>)
(<boundaryPoint> X-10.667 Y15.526 Z0.15 </boundaryPoint>)
(<boundaryPoint> X-10.522 Y15.047 Z0.15 </boundaryPoint>)
(<boundaryPoint> X-10.473 Y14.55 Z0.15 </boundaryPoint>)
(<boundaryPoint> X-10.522 Y14.053 Z0.15 </boundaryPoint>)
(<boundaryPoint> X-10.667 Y13.575 Z0.15 </boundaryPoint>)
(<boundaryPoint> X-10.902 Y13.133 Z0.15 </boundaryPoint>)
(<boundaryPoint> X-11.22 Y12.747 Z0.15 </boundaryPoint>)
(<boundaryPoint> X-11.606 Y12.43 Z0.15 </boundaryPoint>)
(<boundaryPoint> X-12.047 Y12.194 Z0.15 </boundaryPoint>)
(<boundaryPoint> X-12.526 Y12.05 Z0.15 </boundaryPoint>)
(<boundaryPoint> X-13.023 Y12.0 Z0.15 </boundaryPoint>)
(<boundaryPoint> X-13.52 Y12.05 Z0.15 </boundaryPoint>)
(<boundaryPoint> X-13.998 Y12.194 Z0.15 </boundaryPoint>)
(<boundaryPoint> X-14.44 Y12.43 Z0.15 </boundaryPoint>)
(<boundaryPoint> X-14.826 Y12.747 Z0.15 </boundaryPoint>)
(<boundaryPoint> X-15.146 Y13.139 Z0.15 </boundaryPoint>)
(<boundaryPoint> X-15.378 Y13.572 Z0.15 </boundaryPoint>)
(<boundaryPoint> X-15.524 Y14.056 Z0.15 </boundaryPoint>)
(<boundaryPoint> X-15.573 Y14.551 Z0.15 </boundaryPoint>)
(<boundaryPoint> X-15.524 Y15.047 Z0.15 </boundaryPoint>)
(<boundaryPoint> X-15.38 Y15.522 Z0.15 </boundaryPoint>)
(<boundaryPoint> X-15.141 Y15.97 Z0.15 </boundaryPoint>)
(<boundaryPoint> X-14.826 Y16.354 Z0.15 </boundaryPoint>)
(<boundaryPoint> X-14.44 Y16.671 Z0.15 </boundaryPoint>)
(<boundaryPoint> X-13.998 Y16.907 Z0.15 </boundaryPoint>)
(<boundaryPoint> X-13.52 Y17.052 Z0.15 </boundaryPoint>)
(<boundaryPoint> X-13.023 Y17.101 Z0.15 </boundaryPoint>)
(<boundaryPoint> X-12.526 Y17.052 Z0.15 </boundaryPoint>)
(<boundaryPoint> X-12.047 Y16.907 Z0.15 </boundaryPoint>)
(<boundaryPoint> X-11.606 Y16.671 Z0.15 </boundaryPoint>)
(<boundaryPoint> X-11.22 Y16.354 Z0.15 </boundaryPoint>)
(<perimeter> inner )
G1 X-20.46 Y13.86 Z0.15 F3000.0
G1 X-20.32 Y11.35 Z0.15 F3000.0
G1 X-17.23 Y11.35 Z0.15 F3000.0
G1 X-17.08 Y14.13 Z0.15 F3000.0
G1 X-16.55 Y14.19 Z0.15 F3000.0
M108 R30.0
M101
G1 X-15.76 Y14.29 Z0.15 F3000.0
M108 R3.693
G1 X-15.78 Y14.55 Z0.15 F2160.0
G1 X-15.73 Y15.09 Z0.15 F2160.0
G1 X-15.57 Y15.6 Z0.15 F2160.0
G1 X-15.32 Y16.09 Z0.15 F2160.0
G1 X-14.97 Y16.5 Z0.15 F2160.0
G1 X-14.56 Y16.85 Z0.15 F2160.0
G1 X-14.08 Y17.1 Z0.15 F2160.0
G1 X-13.56 Y17.26 Z0.15 F2160.0
G1 X-13.02 Y17.31 Z0.15 F2160.0
G1 X-12.48 Y17.26 Z0.15 F2160.0
G1 X-11.97 Y17.1 Z0.15 F2160.0
G1 X-11.49 Y16.85 Z0.15 F2160.0
G1 X-11.07 Y16.5 Z0.15 F2160.0
G1 X-10.73 Y16.08 Z0.15 F2160.0
G1 X-10.47 Y15.61 Z0.15 F2160.0
G1 X-10.32 Y15.09 Z0.15 F2160.0
G1 X-10.26 Y14.55 Z0.15 F2160.0
G1 X-10.32 Y14.01 Z0.15 F2160.0
G1 X-10.47 Y13.49 Z0.15 F2160.0
G1 X-10.73 Y13.02 Z0.15 F2160.0
G1 X-11.07 Y12.6 Z0.15 F2160.0
G1 X-11.49 Y12.26 Z0.15 F2160.0
G1 X-11.97 Y12.0 Z0.15 F2160.0
G1 X-12.48 Y11.84 Z0.15 F2160.0
G1 X-13.02 Y11.79 Z0.15 F2160.0
G1 X-13.56 Y11.84 Z0.15 F2160.0
G1 X-14.08 Y12.0 Z0.15 F2160.0
G1 X-14.56 Y12.26 Z0.15 F2160.0
G1 X-14.97 Y12.6 Z0.15 F2160.0
G1 X-15.32 Y13.02 Z0.15 F2160.0
G1 X-15.57 Y13.49 Z0.15 F2160.0
G1 X-15.65 Y13.76 Z0.15 F2160.0
M108 R30.0
M102
G1 X-15.73 Y14.02 Z0.15 F2160.0
G1 X-15.76 Y14.29 Z0.15 F2160.0
M108 R3.693
M103
(</perimeter>)
(</boundaryPerimeter>)
(</surroundingLoop>)
G1 X-16.13 Y14.93 Z0.15 F1800.0
M108 R30.0
M101
G1 X-16.37 Y15.35 Z0.15 F1800.0
M108 R3.693
G1 X-16.37 Y22.14 Z0.15 F2160.0
G1 X-16.79 Y21.9 Z0.15 F2160.0
G1 X-16.79 Y19.04 Z0.15 F2160.0
M108 R30.0
M102
G1 X-16.79 Y18.5 Z0.15 F2160.0
M108 R3.693
M103
G1 X-17.15 Y21.18 Z0.15 F1800.0
M108 R30.0
M101
G1 X-17.21 Y21.66 Z0.15 F1800.0
M108 R3.693
G1 X-17.21 Y18.5 Z0.15 F2160.0
M103
G1 X-17.63 Y18.5 Z0.15 F1800.0
M101
G1 X-17.63 Y21.42 Z0.15 F2160.0
G1 X-18.05 Y21.17 Z0.15 F2160.0
G1 X-18.05 Y18.5 Z0.15 F2160.0
M103
G1 X-18.47 Y18.5 Z0.15 F1800.0
M101
G1 X-18.47 Y20.93 Z0.15 F2160.0
G1 X-18.89 Y20.69 Z0.15 F2160.0
G1 X-18.89 Y18.5 Z0.15 F2160.0
M103
G1 X-19.31 Y18.5 Z0.15 F1800.0
M101
G1 X-19.31 Y20.45 Z0.15 F2160.0
G1 X-19.72 Y20.21 Z0.15 F2160.0
G1 X-19.72 Y18.5 Z0.15 F2160.0
M103
G1 X-20.14 Y18.5 Z0.15 F1800.0
M101
G1 X-20.14 Y19.43 Z0.15 F2160.0
M108 R30.0
M102
G1 X-20.14 Y19.96 Z0.15 F2160.0
M108 R3.693
M103
G1 X-20.43 Y18.96 Z0.15 F1800.0
M108 R30.0
M101
G1 X-20.56 Y18.5 Z0.15 F1800.0
M108 R3.693
G1 X-20.56 Y19.72 Z0.15 F2160.0
G1 X-20.98 Y19.48 Z0.15 F2160.0
G1 X-20.98 Y19.04 Z0.15 F2160.0
M108 R30.0
M102
G1 X-20.98 Y18.5 Z0.15 F2160.0
M108 R3.693
M103
G1 X-14.76 Y17.82 Z0.15 F1800.0
M108 R30.0
M101
G1 X-14.28 Y17.76 Z0.15 F1800.0
M108 R3.693
G1 X-14.28 Y23.35 Z0.15 F2160.0
G1 X-14.7 Y23.11 Z0.15 F2160.0
G1 X-14.7 Y17.55 Z0.15 F2160.0
G1 X-15.12 Y17.28 Z0.15 F2160.0
G1 X-15.12 Y22.87 Z0.15 F2160.0
G1 X-15.54 Y22.63 Z0.15 F2160.0
G1 X-15.54 Y16.91 Z0.15 F2160.0
G1 X-15.96 Y16.36 Z0.15 F2160.0
G1 X-15.96 Y21.84 Z0.15 F2160.0
M108 R30.0
M102
G1 X-15.96 Y22.38 Z0.15 F2160.0
M108 R3.693
M103
G1 X-13.86 Y23.59 Z0.15 F1800.0
M108 R30.0
M101
G1 X-13.44 Y23.83 Z0.15 F1800.0
M108 R3.693
G1 X-13.44 Y17.96 Z0.15 F2160.0
G1 X-13.86 Y17.89 Z0.15 F2160.0
G1 X-13.86 Y23.05 Z0.15 F2160.0
M108 R30.0
M102
G1 X-13.86 Y23.59 Z0.15 F2160.0
M108 R3.693
M103
G1 X-11.82 Y23.2 Z0.15 F1800.0
M108 R30.0
M101
G1 X-11.35 Y23.11 Z0.15 F1800.0
M108 R3.693
G1 X-11.35 Y17.55 Z0.15 F2160.0
G1 X-11.77 Y17.76 Z0.15 F2160.0
G1 X-11.77 Y23.35 Z0.15 F2160.0
G1 X-12.19 Y23.59 Z0.15 F2160.0
G1 X-12.19 Y17.89 Z0.15 F2160.0
G1 X-12.6 Y17.96 Z0.15 F2160.0
G1 X-12.6 Y23.83 Z0.15 F2160.0
G1 X-13.02 Y24.08 Z0.15 F2160.0
G1 X-13.02 Y18.55 Z0.15 F2160.0
M108 R30.0
M102
G1 X-13.02 Y18.0 Z0.15 F2160.0
M108 R3.693
M103
G1 X-10.51 Y16.59 Z0.15 F1800.0
M108 R30.0
M101
G1 X-10.09 Y16.36 Z0.15 F1800.0
M108 R3.693
G1 X-10.09 Y22.38 Z0.15 F2160.0
G1 X-10.51 Y22.63 Z0.15 F2160.0
G1 X-10.51 Y16.91 Z0.15 F2160.0
G1 X-10.93 Y17.28 Z0.15 F2160.0
G1 X-10.93 Y22.33 Z0.15 F2160.0
M108 R30.0
M102
G1 X-10.93 Y22.87 Z0.15 F2160.0
M108 R3.693
M103
G1 X-9.25 Y21.9 Z0.15 F1800.0
M108 R30.0
M101
G1 X-8.83 Y21.66 Z0.15 F1800.0
M108 R3.693
G1 X-8.83 Y7.98 Z0.15 F2160.0
M108 R30.0
M102
G1 X-8.83 Y7.44 Z0.15 F2160.0
M108 R3.693
M103
G1 X-11.48 Y10.96 Z0.15 F1800.0
M108 R30.0
M101
G1 X-11.77 Y11.34 Z0.15 F1800.0
M108 R3.693
G1 X-11.77 Y5.75 Z0.15 F2160.0
G1 X-11.35 Y5.99 Z0.15 F2160.0
G1 X-11.35 Y11.55 Z0.15 F2160.0
G1 X-10.93 Y11.82 Z0.15 F2160.0
G1 X-10.93 Y6.23 Z0.15 F2160.0
G1 X-10.51 Y6.48 Z0.15 F2160.0
G1 X-10.51 Y12.19 Z0.15 F2160.0
G1 X-10.09 Y12.74 Z0.15 F2160.0
G1 X-10.09 Y7.26 Z0.15 F2160.0
M108 R30.0
M102
G1 X-10.09 Y6.72 Z0.15 F2160.0
M108 R3.693
M103
G1 X-12.19 Y5.51 Z0.15 F1800.0
M108 R30.0
M101
G1 X-12.6 Y5.27 Z0.15 F1800.0
M108 R3.693
G1 X-12.6 Y11.14 Z0.15 F2160.0
G1 X-12.19 Y11.21 Z0.15 F2160.0
G1 X-12.19 Y6.05 Z0.15 F2160.0
M108 R30.0
M102
G1 X-12.19 Y5.51 Z0.15 F2160.0
M108 R3.693
M103
G1 X-14.23 Y5.9 Z0.15 F1800.0
M108 R30.0
M101
G1 X-14.7 Y5.99 Z0.15 F1800.0
M108 R3.693
G1 X-14.7 Y11.55 Z0.15 F2160.0
G1 X-14.28 Y11.34 Z0.15 F2160.0
G1 X-14.28 Y5.75 Z0.15 F2160.0
G1 X-13.86 Y5.51 Z0.15 F2160.0
G1 X-13.86 Y11.21 Z0.15 F2160.0
G1 X-13.44 Y11.14 Z0.15 F2160.0
G1 X-13.44 Y5.27 Z0.15 F2160.0
G1 X-13.02 Y5.02 Z0.15 F2160.0
G1 X-13.02 Y10.55 Z0.15 F2160.0
M108 R30.0
M102
G1 X-13.02 Y11.1 Z0.15 F2160.0
M108 R3.693
M103
G1 X-15.54 Y12.51 Z0.15 F1800.0
M108 R30.0
M101
G1 X-15.96 Y12.74 Z0.15 F1800.0
M108 R3.693
G1 X-15.96 Y6.72 Z0.15 F2160.0
G1 X-15.54 Y6.48 Z0.15 F2160.0
G1 X-15.54 Y12.19 Z0.15 F2160.0
G1 X-15.12 Y11.82 Z0.15 F2160.0
G1 X-15.12 Y6.77 Z0.15 F2160.0
M108 R30.0
M102
G1 X-15.12 Y6.23 Z0.15 F2160.0
M108 R3.693
M103
G1 X-17.0 Y10.17 Z0.15 F1800.0
M108 R30.0
M101
G1 X-17.21 Y10.6 Z0.15 F1800.0
M108 R3.693
G1 X-17.21 Y7.98 Z0.15 F2160.0
M108 R30.0
M102
G1 X-17.21 Y7.44 Z0.15 F2160.0
M108 R3.693
M103
G1 X-18.89 Y8.41 Z0.15 F1800.0
M108 R30.0
M101
G1 X-19.31 Y8.65 Z0.15 F1800.0
M108 R3.693
G1 X-19.31 Y10.6 Z0.15 F2160.0
M103
G1 X-19.72 Y10.6 Z0.15 F1800.0
M101
G1 X-19.72 Y8.89 Z0.15 F2160.0
G1 X-20.14 Y9.14 Z0.15 F2160.0
G1 X-20.14 Y10.6 Z0.15 F2160.0
M103
G1 X-20.56 Y10.6 Z0.15 F1800.0
M101
G1 X-20.56 Y9.38 Z0.15 F2160.0
G1 X-20.98 Y9.62 Z0.15 F2160.0
G1 X-20.98 Y10.06 Z0.15 F2160.0
M108 R30.0
M102
G1 X-20.98 Y10.6 Z0.15 F2160.0
M108 R3.693
M103
G1 X-18.95 Y10.6 Z0.15 F1800.0
M108 R30.0
M101
G1 X-18.47 Y10.6 Z0.15 F1800.0
M108 R3.693
G1 X-18.47 Y8.17 Z0.15 F2160.0
G1 X-18.89 Y8.41 Z0.15 F2160.0
G1 X-18.89 Y10.06 Z0.15 F2160.0
M108 R30.0
M102
G1 X-18.89 Y10.6 Z0.15 F2160.0
M108 R3.693
M103
G1 X-18.11 Y10.6 Z0.15 F1800.0
M108 R30.0
M101
G1 X-17.63 Y10.6 Z0.15 F1800.0
M108 R3.693
G1 X-17.63 Y7.68 Z0.15 F2160.0
G1 X-18.05 Y7.93 Z0.15 F2160.0
G1 X-18.05 Y10.06 Z0.15 F2160.0
M108 R30.0
M102
G1 X-18.05 Y10.6 Z0.15 F2160.0
M108 R3.693
M103
G1 X-17.57 Y11.21 Z0.15 F3000.0
G1 X-17.23 Y11.35 Z0.15 F3000.0
G1 X-17.08 Y11.87 Z0.15 F3000.0
G1 X-16.54 Y13.3 Z0.15 F1800.0
M108 R30.0
M101
G1 X-16.37 Y13.75 Z0.15 F1800.0
M108 R3.693
G1 X-16.37 Y6.96 Z0.15 F2160.0
G1 X-16.79 Y7.2 Z0.15 F2160.0
G1 X-16.79 Y10.06 Z0.15 F2160.0
M108 R30.0
M102
G1 X-16.79 Y10.6 Z0.15 F2160.0
M108 R3.693
M103
G1 X-11.44 Y12.19 Z0.15 F3000.0
G1 X-11.01 Y12.54 Z0.15 F3000.0
G1 X-10.66 Y12.97 Z0.15 F3000.0
G1 X-9.86 Y14.9 Z0.15 F1800.0
M108 R30.0
M101
G1 X-9.67 Y15.35 Z0.15 F1800.0
M108 R3.693
G1 X-9.67 Y22.14 Z0.15 F2160.0
G1 X-9.25 Y21.9 Z0.15 F2160.0
G1 X-9.25 Y7.2 Z0.15 F2160.0
G1 X-9.67 Y6.96 Z0.15 F2160.0
G1 X-9.67 Y13.21 Z0.15 F2160.0
M108 R30.0
M102
G1 X-9.67 Y13.75 Z0.15 F2160.0
M108 R3.693
M103
G1 X-6.21 Y9.51 Z0.15 F1800.0
M108 R30.0
M101
G1 X-5.9 Y9.14 Z0.15 F1800.0
M108 R3.693
G1 X-5.9 Y19.96 Z0.15 F2160.0
G1 X-6.32 Y20.21 Z0.15 F2160.0
G1 X-6.32 Y8.89 Z0.15 F2160.0
G1 X-6.74 Y8.65 Z0.15 F2160.0
G1 X-6.74 Y20.45 Z0.15 F2160.0
M103
G1 X-7.16 Y20.69 Z0.15 F1800.0
M101
G1 X-7.16 Y8.41 Z0.15 F2160.0
G1 X-7.58 Y8.17 Z0.15 F2160.0
G1 X-7.58 Y20.93 Z0.15 F2160.0
M103
G1 X-8.0 Y21.17 Z0.15 F1800.0
M101
G1 X-8.0 Y7.93 Z0.15 F2160.0
G1 X-8.41 Y7.68 Z0.15 F2160.0
G1 X-8.41 Y20.88 Z0.15 F2160.0
M108 R30.0
M102
G1 X-8.41 Y21.42 Z0.15 F2160.0
M108 R3.693
M103
G1 X-5.2 Y10.08 Z0.15 F1800.0
M108 R30.0
M101
G1 X-5.06 Y9.62 Z0.15 F1800.0
M108 R3.693
G1 X-5.06 Y19.48 Z0.15 F2160.0
G1 X-5.48 Y19.72 Z0.15 F2160.0
G1 X-5.48 Y9.92 Z0.15 F2160.0
M108 R30.0
M102
G1 X-5.48 Y9.38 Z0.15 F2160.0
M108 R3.693
M103
(</surroundingLoop>)
(</layer>)
(<layer> 0.45 )
(<surroundingLoop>)
(<boundaryPerimeter>)
(<boundaryPoint> X-13.023 Y25.117 Z0.45 </boundaryPoint>)
(<boundaryPoint> X-22.172 Y19.834 Z0.45 </boundaryPoint>)
(<boundaryPoint> X-22.172 Y9.267 Z0.45 </boundaryPoint>)
(<boundaryPoint> X-13.023 Y3.984 Z0.45 </boundaryPoint>)
(<boundaryPoint> X-3.873 Y9.267 Z0.45 </boundaryPoint>)
(<boundaryPoint> X-3.873 Y19.834 Z0.45 </boundaryPoint>)
(<loop> inner )
M108 R6.155
G1 X-9.63 Y12.5 Z0.41 F3000.0
M108 R30.0
M101
G1 X-10.27 Y12.98 Z0.45 F3000.0
M108 R6.155
G1 X-10.38 Y12.78 Z0.45 F3600.0
G1 X-10.77 Y12.3 Z0.45 F3600.0
G1 X-11.26 Y11.9 Z0.45 F3600.0
G1 X-11.8 Y11.61 Z0.45 F3600.0
G1 X-12.4 Y11.43 Z0.45 F3600.0
G1 X-13.02 Y11.37 Z0.45 F3600.0
G1 X-13.64 Y11.43 Z0.45 F3600.0
G1 X-14.24 Y11.61 Z0.45 F3600.0
G1 X-14.79 Y11.9 Z0.45 F3600.0
G1 X-15.27 Y12.3 Z0.45 F3600.0
G1 X-15.66 Y12.77 Z0.45 F3600.0
G1 X-15.96 Y13.33 Z0.45 F3600.0
G1 X-16.15 Y13.94 Z0.45 F3600.0
G1 X-16.2 Y14.55 Z0.45 F3600.0
G1 X-16.14 Y15.17 Z0.45 F3600.0
G1 X-15.97 Y15.76 Z0.45 F3600.0
G1 X-15.66 Y16.33 Z0.45 F3600.0
G1 X-15.27 Y16.8 Z0.45 F3600.0
G1 X-14.79 Y17.2 Z0.45 F3600.0
G1 X-14.24 Y17.49 Z0.45 F3600.0
G1 X-13.64 Y17.67 Z0.45 F3600.0
G1 X-13.02 Y17.73 Z0.45 F3600.0
G1 X-12.4 Y17.67 Z0.45 F3600.0
G1 X-11.8 Y17.49 Z0.45 F3600.0
G1 X-11.26 Y17.2 Z0.45 F3600.0
G1 X-10.77 Y16.8 Z0.45 F3600.0
G1 X-10.38 Y16.32 Z0.45 F3600.0
G1 X-10.08 Y15.77 Z0.45 F3600.0
G1 X-9.9 Y15.17 Z0.45 F3600.0
G1 X-9.84 Y14.55 Z0.45 F3600.0
G1 X-9.9 Y13.93 Z0.45 F3600.0
G1 X-9.94 Y13.81 Z0.45 F3600.0
M108 R30.0
M102
G1 X-10.08 Y13.33 Z0.45 F3600.0
G1 X-10.27 Y12.98 Z0.45 F3600.0
M108 R6.155
M103
(</loop>)
(<loop> inner )
G1 X-11.94 Y11.92 Z0.45 F3000.0
G1 X-12.47 Y11.76 Z0.45 F3000.0
G1 X-13.02 Y11.71 Z0.45 F3000.0
G1 X-15.98 Y12.56 Z0.45 F3000.0
M108 R30.0
M101
G1 X-16.75 Y12.78 Z0.45 F3000.0
M108 R6.155
G1 X-16.75 Y10.87 Z0.45 F3600.0
G1 X-20.8 Y10.87 Z0.45 F3600.0
G1 X-20.8 Y18.23 Z0.45 F3600.0
G1 X-16.75 Y18.23 Z0.45 F3600.0
G1 X-16.75 Y13.68 Z0.45 F3600.0
M108 R30.0
M102
G1 X-16.75 Y12.78 Z0.45 F3600.0
M108 R6.155
M103
(</loop>)
(<loop> outer )
G1 X-17.08 Y12.78 Z0.45 F3000.0
G1 X-17.23 Y11.35 Z0.45 F3000.0
G1 X-20.32 Y11.35 Z0.45 F3000.0
G1 X-20.46 Y12.78 Z0.45 F3000.0
G1 X-20.74 Y12.78 Z0.45 F3000.0
M108 R30.0
M101
G1 X-21.54 Y12.78 Z0.45 F3000.0
M108 R6.155
G1 X-21.54 Y9.63 Z0.45 F3600.0
G1 X-13.02 Y4.71 Z0.45 F3600.0
G1 X-4.5 Y9.63 Z0.45 F3600.0
G1 X-4.5 Y19.47 Z0.45 F3600.0
G1 X-13.02 Y24.39 Z0.45 F3600.0
G1 X-21.54 Y19.47 Z0.45 F3600.0
G1 X-21.54 Y12.78 Z0.45 F3600.0
M103
(</loop>)
(<perimeter> outer )
G1 X-21.96 Y12.78 Z0.45 F3000.0
M101
G1 X-21.96 Y9.39 Z0.45 F3600.0
G1 X-13.02 Y4.23 Z0.45 F3600.0
G1 X-4.08 Y9.39 Z0.45 F3600.0
G1 X-4.08 Y19.71 Z0.45 F3600.0
G1 X-13.02 Y24.87 Z0.45 F3600.0
G1 X-21.96 Y19.71 Z0.45 F3600.0
G1 X-21.96 Y13.68 Z0.45 F3600.0
M108 R30.0
M102
G1 X-21.96 Y12.78 Z0.45 F3600.0
M108 R6.155
M103
(</perimeter>)
(</boundaryPerimeter>)
(<surroundingLoop>)
(<boundaryPerimeter>)
(<boundaryPoint> X-20.172 Y11.5 Z0.45 </boundaryPoint>)
(<boundaryPoint> X-20.172 Y17.601 Z0.45 </boundaryPoint>)
(<boundaryPoint> X-17.373 Y17.601 Z0.45 </boundaryPoint>)
(<boundaryPoint> X-17.373 Y11.5 Z0.45 </boundaryPoint>)
(<perimeter> inner )
G1 X-21.18 Y12.78 Z0.45 F3000.0
M108 R30.0
M101
G1 X-20.38 Y12.78 Z0.45 F3000.0
M108 R6.155
G1 X-20.38 Y17.81 Z0.45 F3600.0
G1 X-17.16 Y17.81 Z0.45 F3600.0
G1 X-17.16 Y11.29 Z0.45 F3600.0
G1 X-20.38 Y11.29 Z0.45 F3600.0
G1 X-20.38 Y11.88 Z0.45 F3600.0
M108 R30.0
M102
G1 X-20.38 Y12.78 Z0.45 F3600.0
M108 R6.155
M103
(</perimeter>)
(</boundaryPerimeter>)
(</surroundingLoop>)
(<surroundingLoop>)
(<boundaryPerimeter>)
(<boundaryPoint> X-10.902 Y15.967 Z0.45 </boundaryPoint>)
(<boundaryPoint> X-10.667 Y15.526 Z0.45 </boundaryPoint>)
(<boundaryPoint> X-10.522 Y15.047 Z0.45 </boundaryPoint>)
(<boundaryPoint> X-10.473 Y14.55 Z0.45 </boundaryPoint>)
(<boundaryPoint> X-10.522 Y14.053 Z0.45 </boundaryPoint>)
(<boundaryPoint> X-10.667 Y13.575 Z0.45 </boundaryPoint>)
(<boundaryPoint> X-10.902 Y13.133 Z0.45 </boundaryPoint>)
(<boundaryPoint> X-11.22 Y12.747 Z0.45 </boundaryPoint>)
(<boundaryPoint> X-11.606 Y12.43 Z0.45 </boundaryPoint>)
(<boundaryPoint> X-12.047 Y12.194 Z0.45 </boundaryPoint>)
(<boundaryPoint> X-12.526 Y12.05 Z0.45 </boundaryPoint>)
(<boundaryPoint> X-13.023 Y12.0 Z0.45 </boundaryPoint>)
(<boundaryPoint> X-13.52 Y12.05 Z0.45 </boundaryPoint>)
(<boundaryPoint> X-13.998 Y12.194 Z0.45 </boundaryPoint>)
(<boundaryPoint> X-14.44 Y12.43 Z0.45 </boundaryPoint>)
(<boundaryPoint> X-14.826 Y12.747 Z0.45 </boundaryPoint>)
(<boundaryPoint> X-15.137 Y13.125 Z0.45 </boundaryPoint>)
(<boundaryPoint> X-15.377 Y13.569 Z0.45 </boundaryPoint>)
(<boundaryPoint> X-15.526 Y14.061 Z0.45 </boundaryPoint>)
(<boundaryPoint> X-15.573 Y14.553 Z0.45 </boundaryPoint>)
(<boundaryPoint> X-15.524 Y15.045 Z0.45 </boundaryPoint>)
(<boundaryPoint> X-15.383 Y15.515 Z0.45 </boundaryPoint>)
(<boundaryPoint> X-15.136 Y15.977 Z0.45 </boundaryPoint>)
(<boundaryPoint> X-14.826 Y16.354 Z0.45 </boundaryPoint>)
(<boundaryPoint> X-14.44 Y16.671 Z0.45 </boundaryPoint>)
(<boundaryPoint> X-13.998 Y16.907 Z0.45 </boundaryPoint>)
(<boundaryPoint> X-13.52 Y17.052 Z0.45 </boundaryPoint>)
(<boundaryPoint> X-13.023 Y17.101 Z0.45 </boundaryPoint>)
(<boundaryPoint> X-12.526 Y17.052 Z0.45 </boundaryPoint>)
(<boundaryPoint> X-12.047 Y16.907 Z0.45 </boundaryPoint>)
(<boundaryPoint> X-11.606 Y16.671 Z0.45 </boundaryPoint>)
(<boundaryPoint> X-11.22 Y16.354 Z0.45 </boundaryPoint>)
(<perimeter> inner )
G1 X-20.46 Y12.84 Z0.45 F3000.0
G1 X-20.32 Y11.35 Z0.45 F3000.0
G1 X-17.23 Y11.35 Z0.45 F3000.0
G1 X-17.08 Y13.58 Z0.45 F3000.0
G1 X-16.49 Y13.77 Z0.45 F3000.0
M108 R30.0
M101
G1 X-15.73 Y14.02 Z0.45 F3000.0
M108 R6.155
G1 X-15.78 Y14.55 Z0.45 F3600.0
G1 X-15.73 Y15.09 Z0.45 F3600.0
G1 X-15.58 Y15.6 Z0.45 F3600.0
G1 X-15.31 Y16.09 Z0.45 F3600.0
G1 X-14.97 Y16.5 Z0.45 F3600.0
G1 X-14.56 Y16.85 Z0.45 F3600.0
G1 X-14.08 Y17.1 Z0.45 F3600.0
G1 X-13.56 Y17.26 Z0.45 F3600.0
G1 X-13.02 Y17.31 Z0.45 F3600.0
G1 X-12.48 Y17.26 Z0.45 F3600.0
G1 X-11.97 Y17.1 Z0.45 F3600.0
G1 X-11.49 Y16.85 Z0.45 F3600.0
G1 X-11.07 Y16.5 Z0.45 F3600.0
G1 X-10.73 Y16.08 Z0.45 F3600.0
G1 X-10.47 Y15.61 Z0.45 F3600.0
G1 X-10.32 Y15.09 Z0.45 F3600.0
G1 X-10.26 Y14.55 Z0.45 F3600.0
G1 X-10.32 Y14.01 Z0.45 F3600.0
G1 X-10.47 Y13.49 Z0.45 F3600.0
G1 X-10.73 Y13.02 Z0.45 F3600.0
G1 X-11.07 Y12.6 Z0.45 F3600.0
G1 X-11.49 Y12.26 Z0.45 F3600.0
G1 X-11.97 Y12.0 Z0.45 F3600.0
G1 X-12.48 Y11.84 Z0.45 F3600.0
G1 X-13.02 Y11.79 Z0.45 F3600.0
G1 X-13.56 Y11.84 Z0.45 F3600.0
G1 X-14.08 Y12.0 Z0.45 F3600.0
G1 X-14.56 Y12.26 Z0.45 F3600.0
G1 X-14.97 Y12.6 Z0.45 F3600.0
G1 X-15.31 Y13.01 Z0.45 F3600.0
G1 X-15.57 Y13.49 Z0.45 F3600.0
G1 X-15.73 Y14.02 Z0.45 F3600.0
M103
(</perimeter>)
(</boundaryPerimeter>)
(</surroundingLoop>)
G1 X-16.47 Y14.13 Z0.45 F3000.0
M101
G1 X-16.44 Y14.13 Z0.45 F3600.0
G1 X-16.47 Y13.71 Z0.45 F3600.0
G1 X-16.36 Y13.71 Z0.45 F3600.0
G1 X-16.47 Y13.29 Z0.45 F3600.0
G1 X-16.23 Y13.29 Z0.45 F3600.0
G1 X-16.02 Y12.87 Z0.45 F3600.0
G1 X-16.47 Y12.87 Z0.45 F3600.0
G1 X-16.47 Y12.46 Z0.45 F3600.0
G1 X-15.75 Y12.46 Z0.45 F3600.0
G1 X-15.38 Y12.04 Z0.45 F3600.0
G1 X-16.47 Y12.04 Z0.45 F3600.0
G1 X-16.47 Y11.62 Z0.45 F3600.0
G1 X-15.73 Y11.62 Z0.45 F3600.0
M108 R30.0
M102
G1 X-14.83 Y11.62 Z0.45 F3600.0
M108 R6.155
M103
G1 X-14.56 Y11.51 Z0.45 F3000.0
M108 R30.0
M101
G1 X-13.82 Y11.2 Z0.45 F3000.0
M108 R6.155
G1 X-16.47 Y11.2 Z0.45 F3600.0
G1 X-16.47 Y10.78 Z0.45 F3600.0
G1 X-5.67 Y10.78 Z0.45 F3600.0
M108 R30.0
M102
G1 X-4.77 Y10.78 Z0.45 F3600.0
M108 R6.155
M103
G1 X-5.19 Y18.78 Z0.45 F3000.0
M108 R30.0
M101
G1 X-5.23 Y19.58 Z0.45 F3000.0
M108 R6.155
G1 X-20.82 Y19.58 Z0.45 F3600.0
G1 X-21.27 Y19.16 Z0.45 F3600.0
G1 X-4.77 Y19.16 Z0.45 F3600.0
G1 X-4.77 Y18.74 Z0.45 F3600.0
G1 X-21.27 Y18.74 Z0.45 F3600.0
G1 X-21.27 Y18.32 Z0.45 F3600.0
G1 X-21.07 Y18.32 Z0.45 F3600.0
G1 X-21.27 Y17.9 Z0.45 F3600.0
G1 X-21.07 Y17.9 Z0.45 F3600.0
G1 X-21.27 Y17.48 Z0.45 F3600.0
G1 X-21.07 Y17.48 Z0.45 F3600.0
G1 X-21.27 Y17.06 Z0.45 F3600.0
G1 X-21.07 Y17.06 Z0.45 F3600.0
G1 X-21.27 Y16.64 Z0.45 F3600.0
G1 X-21.07 Y16.64 Z0.45 F3600.0
G1 X-21.27 Y16.23 Z0.45 F3600.0
G1 X-21.07 Y16.23 Z0.45 F3600.0
G1 X-21.27 Y15.81 Z0.45 F3600.0
G1 X-21.07 Y15.81 Z0.45 F3600.0
G1 X-21.27 Y15.39 Z0.45 F3600.0
G1 X-21.07 Y15.39 Z0.45 F3600.0
G1 X-21.27 Y14.97 Z0.45 F3600.0
G1 X-21.07 Y14.97 Z0.45 F3600.0
G1 X-21.27 Y14.55 Z0.45 F3600.0
G1 X-21.07 Y14.55 Z0.45 F3600.0
G1 X-21.27 Y14.13 Z0.45 F3600.0
G1 X-21.07 Y14.13 Z0.45 F3600.0
G1 X-21.27 Y13.71 Z0.45 F3600.0
G1 X-21.07 Y13.71 Z0.45 F3600.0
G1 X-21.27 Y13.29 Z0.45 F3600.0
G1 X-21.07 Y13.29 Z0.45 F3600.0
G1 X-21.27 Y12.87 Z0.45 F3600.0
G1 X-21.07 Y12.87 Z0.45 F3600.0
G1 X-21.27 Y12.46 Z0.45 F3600.0
G1 X-21.07 Y12.46 Z0.45 F3600.0
G1 X-21.27 Y12.04 Z0.45 F3600.0
G1 X-21.07 Y12.04 Z0.45 F3600.0
G1 X-21.27 Y11.62 Z0.45 F3600.0
G1 X-21.07 Y11.62 Z0.45 F3600.0
G1 X-21.27 Y11.2 Z0.45 F3600.0
G1 X-21.07 Y11.2 Z0.45 F3600.0
G1 X-21.27 Y10.78 Z0.45 F3600.0
G1 X-21.07 Y10.78 Z0.45 F3600.0
G1 X-21.27 Y10.36 Z0.45 F3600.0
G1 X-4.77 Y10.36 Z0.45 F3600.0
G1 X-4.77 Y9.94 Z0.45 F3600.0
G1 X-21.27 Y9.94 Z0.45 F3600.0
G1 X-20.82 Y9.52 Z0.45 F3600.0
G1 X-5.23 Y9.52 Z0.45 F3600.0
M103
G1 X-5.96 Y9.11 Z0.45 F3000.0
M101
G1 X-20.09 Y9.11 Z0.45 F3600.0
M103
G1 X-19.36 Y8.69 Z0.45 F3000.0
M101
G1 X-6.68 Y8.69 Z0.45 F3600.0
M103
G1 X-7.41 Y8.27 Z0.45 F3000.0
M101
G1 X-18.64 Y8.27 Z0.45 F3600.0
M103
G1 X-17.91 Y7.85 Z0.45 F3000.0
M101
G1 X-8.13 Y7.85 Z0.45 F3600.0
M103
G1 X-8.86 Y7.43 Z0.45 F3000.0
M101
G1 X-17.19 Y7.43 Z0.45 F3600.0
M103
G1 X-16.46 Y7.01 Z0.45 F3000.0
M101
G1 X-9.58 Y7.01 Z0.45 F3600.0
M103
G1 X-10.31 Y6.59 Z0.45 F3000.0
M101
G1 X-15.74 Y6.59 Z0.45 F3600.0
M103
G1 X-15.01 Y6.17 Z0.45 F3000.0
M101
G1 X-11.03 Y6.17 Z0.45 F3600.0
M103
G1 X-11.76 Y5.75 Z0.45 F3000.0
M101
G1 X-14.29 Y5.75 Z0.45 F3600.0
G1 X-13.56 Y5.33 Z0.45 F3600.0
G1 X-13.38 Y5.33 Z0.45 F3600.0
M108 R30.0
M102
G1 X-12.48 Y5.33 Z0.45 F3600.0
M108 R6.155
M103
G1 X-12.26 Y10.4 Z0.45 F3000.0
M108 R30.0
M101
G1 X-12.22 Y11.2 Z0.45 F3000.0
M108 R6.155
G1 X-4.77 Y11.2 Z0.45 F3600.0
G1 X-4.77 Y11.62 Z0.45 F3600.0
G1 X-11.21 Y11.62 Z0.45 F3600.0
G1 X-10.67 Y12.04 Z0.45 F3600.0
G1 X-4.77 Y12.04 Z0.45 F3600.0
G1 X-4.77 Y12.46 Z0.45 F3600.0
G1 X-10.29 Y12.46 Z0.45 F3600.0
G1 X-10.02 Y12.87 Z0.45 F3600.0
G1 X-4.77 Y12.87 Z0.45 F3600.0
G1 X-4.77 Y13.29 Z0.45 F3600.0
G1 X-9.81 Y13.29 Z0.45 F3600.0
M103
G1 X-9.68 Y13.71 Z0.45 F3000.0
M101
G1 X-4.77 Y13.71 Z0.45 F3600.0
G1 X-4.77 Y14.13 Z0.45 F3600.0
G1 X-9.61 Y14.13 Z0.45 F3600.0
M103
G1 X-9.57 Y14.55 Z0.45 F3000.0
M101
G1 X-4.77 Y14.55 Z0.45 F3600.0
G1 X-4.77 Y14.97 Z0.45 F3600.0
G1 X-9.61 Y14.97 Z0.45 F3600.0
G1 X-9.68 Y15.39 Z0.45 F3600.0
G1 X-4.77 Y15.39 Z0.45 F3600.0
G1 X-4.77 Y15.81 Z0.45 F3600.0
G1 X-9.81 Y15.81 Z0.45 F3600.0
G1 X-10.02 Y16.23 Z0.45 F3600.0
G1 X-4.77 Y16.23 Z0.45 F3600.0
G1 X-4.77 Y16.64 Z0.45 F3600.0
G1 X-10.29 Y16.64 Z0.45 F3600.0
G1 X-10.67 Y17.06 Z0.45 F3600.0
G1 X-4.77 Y17.06 Z0.45 F3600.0
G1 X-4.77 Y17.48 Z0.45 F3600.0
G1 X-10.31 Y17.48 Z0.45 F3600.0
M108 R30.0
M102
G1 X-11.21 Y17.48 Z0.45 F3600.0
M108 R6.155
M103
G1 X-11.49 Y17.59 Z0.45 F3000.0
M108 R30.0
M101
G1 X-12.22 Y17.9 Z0.45 F3000.0
M108 R6.155
G1 X-4.77 Y17.9 Z0.45 F3600.0
G1 X-4.77 Y18.32 Z0.45 F3600.0
G1 X-16.47 Y18.32 Z0.45 F3600.0
G1 X-16.47 Y17.9 Z0.45 F3600.0
G1 X-14.72 Y17.9 Z0.45 F3600.0
M108 R30.0
M102
G1 X-13.82 Y17.9 Z0.45 F3600.0
M108 R6.155
M103
G1 X-14.09 Y17.79 Z0.45 F3000.0
M108 R30.0
M101
G1 X-14.83 Y17.48 Z0.45 F3000.0
M108 R6.155
G1 X-16.47 Y17.48 Z0.45 F3600.0
G1 X-16.47 Y17.06 Z0.45 F3600.0
G1 X-15.38 Y17.06 Z0.45 F3600.0
G1 X-15.75 Y16.64 Z0.45 F3600.0
G1 X-16.47 Y16.64 Z0.45 F3600.0
G1 X-16.47 Y16.23 Z0.45 F3600.0
G1 X-16.02 Y16.23 Z0.45 F3600.0
G1 X-16.24 Y15.81 Z0.45 F3600.0
G1 X-16.47 Y15.81 Z0.45 F3600.0
G1 X-16.47 Y15.72 Z0.45 F3600.0
M108 R30.0
M102
G1 X-16.47 Y15.39 Z0.45 F3600.0
G1 X-16.36 Y15.39 Z0.45 F3600.0
G1 X-16.44 Y14.97 Z0.45 F3600.0
G1 X-16.47 Y14.97 Z0.45 F3600.0
M108 R6.155
M103
G1 X-14.6 Y16.91 Z0.45 F3000.0
G1 X-7.41 Y20.09 Z0.45 F3000.0
M108 R30.0
M101
G1 X-6.68 Y20.41 Z0.45 F3000.0
M108 R6.155
G1 X-19.36 Y20.41 Z0.45 F3600.0
M103
G1 X-18.64 Y20.83 Z0.45 F3000.0
M101
G1 X-7.41 Y20.83 Z0.45 F3600.0
M103
G1 X-8.13 Y21.25 Z0.45 F3000.0
M101
G1 X-17.91 Y21.25 Z0.45 F3600.0
M103
G1 X-17.19 Y21.67 Z0.45 F3000.0
M101
G1 X-8.86 Y21.67 Z0.45 F3600.0
M103
G1 X-9.58 Y22.09 Z0.45 F3000.0
M101
G1 X-16.46 Y22.09 Z0.45 F3600.0
M103
G1 X-15.74 Y22.51 Z0.45 F3000.0
M101
G1 X-10.31 Y22.51 Z0.45 F3600.0
M103
G1 X-11.03 Y22.93 Z0.45 F3000.0
M101
G1 X-14.11 Y22.93 Z0.45 F3600.0
M108 R30.0
M102
G1 X-15.01 Y22.93 Z0.45 F3600.0
M108 R6.155
M103
G1 X-13.24 Y23.51 Z0.45 F3000.0
M108 R30.0
M101
G1 X-12.48 Y23.77 Z0.45 F3000.0
M108 R6.155
G1 X-13.56 Y23.77 Z0.45 F3600.0
G1 X-14.29 Y23.35 Z0.45 F3600.0
G1 X-12.66 Y23.35 Z0.45 F3600.0
M108 R30.0
M102
G1 X-11.76 Y23.35 Z0.45 F3600.0
M108 R6.155
M103
G1 X-19.35 Y20.29 Z0.45 F3000.0
M108 R30.0
M101
G1 X-20.09 Y20.0 Z0.45 F3000.0
M108 R6.155
G1 X-6.86 Y20.0 Z0.45 F3600.0
M108 R30.0
M102
G1 X-5.96 Y20.0 Z0.45 F3600.0
M108 R6.155
M103
(</surroundingLoop>)
(<surroundingLoop>)
(<boundaryPerimeter>)
(<boundaryPoint> X13.023 Y25.117 Z0.45 </boundaryPoint>)
(<boundaryPoint> X3.873 Y19.834 Z0.45 </boundaryPoint>)
(<boundaryPoint> X3.873 Y9.267 Z0.45 </boundaryPoint>)
(<boundaryPoint> X13.023 Y3.984 Z0.45 </boundaryPoint>)
(<boundaryPoint> X22.172 Y9.267 Z0.45 </boundaryPoint>)
(<boundaryPoint> X22.172 Y19.834 Z0.45 </boundaryPoint>)
(<loop> inner )
G1 X5.58 Y16.23 Z0.45 F3000.0
G1 X5.73 Y17.75 Z0.45 F3000.0
G1 X8.82 Y17.75 Z0.45 F3000.0
G1 X8.97 Y15.33 Z0.45 F3000.0
G1 X9.14 Y15.26 Z0.45 F3000.0
M108 R30.0
M101
G1 X9.88 Y14.95 Z0.45 F3000.0
M108 R6.155
G1 X9.9 Y15.17 Z0.45 F3600.0
G1 X10.08 Y15.76 Z0.45 F3600.0
G1 X10.38 Y16.33 Z0.45 F3600.0
G1 X10.77 Y16.8 Z0.45 F3600.0
G1 X11.26 Y17.2 Z0.45 F3600.0
G1 X11.8 Y17.49 Z0.45 F3600.0
G1 X12.4 Y17.67 Z0.45 F3600.0
G1 X13.02 Y17.73 Z0.45 F3600.0
G1 X13.64 Y17.67 Z0.45 F3600.0
G1 X14.24 Y17.49 Z0.45 F3600.0
G1 X14.79 Y17.2 Z0.45 F3600.0
G1 X15.27 Y16.8 Z0.45 F3600.0
G1 X15.67 Y16.32 Z0.45 F3600.0
G1 X15.96 Y15.77 Z0.45 F3600.0
G1 X16.14 Y15.17 Z0.45 F3600.0
G1 X16.2 Y14.55 Z0.45 F3600.0
G1 X16.14 Y13.93 Z0.45 F3600.0
G1 X15.96 Y13.33 Z0.45 F3600.0
G1 X15.67 Y12.78 Z0.45 F3600.0
G1 X15.27 Y12.3 Z0.45 F3600.0
G1 X14.79 Y11.9 Z0.45 F3600.0
G1 X14.24 Y11.61 Z0.45 F3600.0
G1 X13.64 Y11.43 Z0.45 F3600.0
G1 X13.02 Y11.37 Z0.45 F3600.0
G1 X12.4 Y11.43 Z0.45 F3600.0
G1 X11.8 Y11.61 Z0.45 F3600.0
G1 X11.26 Y11.9 Z0.45 F3600.0
G1 X10.77 Y12.3 Z0.45 F3600.0
G1 X10.38 Y12.77 Z0.45 F3600.0
G1 X10.09 Y13.33 Z0.45 F3600.0
G1 X9.9 Y13.94 Z0.45 F3600.0
G1 X9.84 Y14.55 Z0.45 F3600.0
G1 X9.88 Y14.95 Z0.45 F3600.0
M103
(</loop>)
(<loop> inner )
G1 X9.3 Y14.95 Z0.45 F3000.0
M101
G1 X9.3 Y12.78 Z0.45 F3600.0
G1 X9.3 Y10.87 Z0.45 F3600.0
G1 X5.25 Y10.87 Z0.45 F3600.0
G1 X5.25 Y18.23 Z0.45 F3600.0
G1 X9.3 Y18.23 Z0.45 F3600.0
G1 X9.3 Y15.85 Z0.45 F3600.0
M108 R30.0
M102
G1 X9.3 Y14.95 Z0.45 F3600.0
M108 R6.155
M103
(</loop>)
(<loop> outer )
G1 X8.97 Y14.95 Z0.45 F3000.0
G1 X8.82 Y17.75 Z0.45 F3000.0
G1 X5.73 Y17.75 Z0.45 F3000.0
G1 X5.58 Y14.95 Z0.45 F3000.0
G1 X5.3 Y14.95 Z0.45 F3000.0
M108 R30.0
M101
G1 X4.5 Y14.95 Z0.45 F3000.0
M108 R6.155
G1 X4.5 Y12.78 Z0.45 F3600.0
G1 X4.5 Y9.63 Z0.45 F3600.0
G1 X13.02 Y4.71 Z0.45 F3600.0
G1 X21.54 Y9.63 Z0.45 F3600.0
G1 X21.54 Y19.47 Z0.45 F3600.0
G1 X13.02 Y24.39 Z0.45 F3600.0
G1 X4.5 Y19.47 Z0.45 F3600.0
G1 X4.5 Y14.95 Z0.45 F3600.0
M103
(</loop>)
(<perimeter> outer )
G1 X4.08 Y14.95 Z0.45 F3000.0
M101
G1 X4.08 Y12.78 Z0.45 F3600.0
G1 X4.08 Y9.39 Z0.45 F3600.0
G1 X13.02 Y4.23 Z0.45 F3600.0
G1 X21.96 Y9.39 Z0.45 F3600.0
G1 X21.96 Y19.71 Z0.45 F3600.0
G1 X13.02 Y24.87 Z0.45 F3600.0
G1 X4.08 Y19.71 Z0.45 F3600.0
G1 X4.08 Y15.85 Z0.45 F3600.0
M108 R30.0
M102
G1 X4.08 Y14.95 Z0.45 F3600.0
M108 R6.155
M103
(</perimeter>)
(</boundaryPerimeter>)
(<surroundingLoop>)
(<boundaryPerimeter>)
(<boundaryPoint> X5.873 Y11.5 Z0.45 </boundaryPoint>)
(<boundaryPoint> X5.873 Y17.601 Z0.45 </boundaryPoint>)
(<boundaryPoint> X8.673 Y17.601 Z0.45 </boundaryPoint>)
(<boundaryPoint> X8.673 Y11.5 Z0.45 </boundaryPoint>)
(<perimeter> inner )
G1 X4.86 Y14.95 Z0.45 F3000.0
M108 R30.0
M101
G1 X5.66 Y14.95 Z0.45 F3000.0
M108 R6.155
G1 X5.66 Y17.81 Z0.45 F3600.0
G1 X8.88 Y17.81 Z0.45 F3600.0
G1 X8.88 Y11.29 Z0.45 F3600.0
G1 X5.66 Y11.29 Z0.45 F3600.0
G1 X5.66 Y12.78 Z0.45 F3600.0
G1 X5.66 Y14.05 Z0.45 F3600.0
M108 R30.0
M102
G1 X5.66 Y14.95 Z0.45 F3600.0
M108 R6.155
M103
(</perimeter>)
(</boundaryPerimeter>)
(</surroundingLoop>)
(<surroundingLoop>)
(<boundaryPerimeter>)
(<boundaryPoint> X15.143 Y15.967 Z0.45 </boundaryPoint>)
(<boundaryPoint> X15.379 Y15.526 Z0.45 </boundaryPoint>)
(<boundaryPoint> X15.524 Y15.047 Z0.45 </boundaryPoint>)
(<boundaryPoint> X15.573 Y14.55 Z0.45 </boundaryPoint>)
(<boundaryPoint> X15.524 Y14.053 Z0.45 </boundaryPoint>)
(<boundaryPoint> X15.379 Y13.575 Z0.45 </boundaryPoint>)
(<boundaryPoint> X15.143 Y13.133 Z0.45 </boundaryPoint>)
(<boundaryPoint> X14.826 Y12.747 Z0.45 </boundaryPoint>)
(<boundaryPoint> X14.44 Y12.43 Z0.45 </boundaryPoint>)
(<boundaryPoint> X13.998 Y12.194 Z0.45 </boundaryPoint>)
(<boundaryPoint> X13.52 Y12.05 Z0.45 </boundaryPoint>)
(<boundaryPoint> X13.023 Y12.0 Z0.45 </boundaryPoint>)
(<boundaryPoint> X12.526 Y12.05 Z0.45 </boundaryPoint>)
(<boundaryPoint> X12.047 Y12.194 Z0.45 </boundaryPoint>)
(<boundaryPoint> X11.606 Y12.43 Z0.45 </boundaryPoint>)
(<boundaryPoint> X11.22 Y12.747 Z0.45 </boundaryPoint>)
(<boundaryPoint> X10.909 Y13.125 Z0.45 </boundaryPoint>)
(<boundaryPoint> X10.669 Y13.569 Z0.45 </boundaryPoint>)
(<boundaryPoint> X10.52 Y14.061 Z0.45 </boundaryPoint>)
(<boundaryPoint> X10.473 Y14.553 Z0.45 </boundaryPoint>)
(<boundaryPoint> X10.522 Y15.045 Z0.45 </boundaryPoint>)
(<boundaryPoint> X10.663 Y15.515 Z0.45 </boundaryPoint>)
(<boundaryPoint> X10.91 Y15.977 Z0.45 </boundaryPoint>)
(<boundaryPoint> X11.22 Y16.354 Z0.45 </boundaryPoint>)
(<boundaryPoint> X11.606 Y16.671 Z0.45 </boundaryPoint>)
(<boundaryPoint> X12.047 Y16.907 Z0.45 </boundaryPoint>)
(<boundaryPoint> X12.526 Y17.052 Z0.45 </boundaryPoint>)
(<boundaryPoint> X13.023 Y17.101 Z0.45 </boundaryPoint>)
(<boundaryPoint> X13.52 Y17.052 Z0.45 </boundaryPoint>)
(<boundaryPoint> X13.998 Y16.907 Z0.45 </boundaryPoint>)
(<boundaryPoint> X14.44 Y16.671 Z0.45 </boundaryPoint>)
(<boundaryPoint> X14.826 Y16.354 Z0.45 </boundaryPoint>)
(<perimeter> inner )
G1 X5.58 Y14.93 Z0.45 F3000.0
G1 X5.73 Y17.75 Z0.45 F3000.0
G1 X8.82 Y17.75 Z0.45 F3000.0
G1 X8.97 Y14.69 Z0.45 F3000.0
G1 X9.47 Y14.64 Z0.45 F3000.0
M108 R30.0
M101
G1 X10.26 Y14.55 Z0.45 F3000.0
M108 R6.155
G1 X10.32 Y15.09 Z0.45 F3600.0
G1 X10.47 Y15.6 Z0.45 F3600.0
G1 X10.73 Y16.09 Z0.45 F3600.0
G1 X11.07 Y16.5 Z0.45 F3600.0
G1 X11.49 Y16.85 Z0.45 F3600.0
G1 X11.97 Y17.1 Z0.45 F3600.0
G1 X12.48 Y17.26 Z0.45 F3600.0
G1 X13.02 Y17.31 Z0.45 F3600.0
G1 X13.56 Y17.26 Z0.45 F3600.0
G1 X14.08 Y17.1 Z0.45 F3600.0
G1 X14.56 Y16.85 Z0.45 F3600.0
G1 X14.97 Y16.5 Z0.45 F3600.0
G1 X15.32 Y16.08 Z0.45 F3600.0
G1 X15.57 Y15.61 Z0.45 F3600.0
G1 X15.73 Y15.09 Z0.45 F3600.0
G1 X15.78 Y14.55 Z0.45 F3600.0
G1 X15.73 Y14.01 Z0.45 F3600.0
G1 X15.57 Y13.49 Z0.45 F3600.0
G1 X15.32 Y13.02 Z0.45 F3600.0
G1 X14.97 Y12.6 Z0.45 F3600.0
G1 X14.56 Y12.26 Z0.45 F3600.0
G1 X14.08 Y12.0 Z0.45 F3600.0
G1 X13.56 Y11.84 Z0.45 F3600.0
G1 X13.02 Y11.79 Z0.45 F3600.0
G1 X12.48 Y11.84 Z0.45 F3600.0
G1 X11.97 Y12.0 Z0.45 F3600.0
G1 X11.49 Y12.26 Z0.45 F3600.0
G1 X11.07 Y12.6 Z0.45 F3600.0
G1 X10.73 Y13.01 Z0.45 F3600.0
G1 X10.47 Y13.49 Z0.45 F3600.0
G1 X10.31 Y14.02 Z0.45 F3600.0
G1 X10.26 Y14.55 Z0.45 F3600.0
M103
(</perimeter>)
(</boundaryPerimeter>)
(</surroundingLoop>)
G1 X9.57 Y14.13 Z0.45 F3000.0
M101
G1 X9.61 Y14.13 Z0.45 F3600.0
G1 X9.57 Y13.71 Z0.45 F3600.0
G1 X9.68 Y13.71 Z0.45 F3600.0
G1 X9.57 Y13.29 Z0.45 F3600.0
G1 X9.81 Y13.29 Z0.45 F3600.0
G1 X10.02 Y12.87 Z0.45 F3600.0
G1 X9.57 Y12.87 Z0.45 F3600.0
G1 X9.57 Y12.46 Z0.45 F3600.0
G1 X10.29 Y12.46 Z0.45 F3600.0
G1 X10.67 Y12.04 Z0.45 F3600.0
G1 X9.57 Y12.04 Z0.45 F3600.0
G1 X9.57 Y11.62 Z0.45 F3600.0
G1 X10.31 Y11.62 Z0.45 F3600.0
M108 R30.0
M102
G1 X11.21 Y11.62 Z0.45 F3600.0
M108 R6.155
M103
G1 X11.49 Y11.51 Z0.45 F3000.0
M108 R30.0
M101
G1 X12.22 Y11.2 Z0.45 F3000.0
M108 R6.155
G1 X9.57 Y11.2 Z0.45 F3600.0
G1 X9.57 Y10.78 Z0.45 F3600.0
G1 X20.37 Y10.78 Z0.45 F3600.0
M108 R30.0
M102
G1 X21.27 Y10.78 Z0.45 F3600.0
M108 R6.155
M103
G1 X20.86 Y18.78 Z0.45 F3000.0
M108 R30.0
M101
G1 X20.82 Y19.58 Z0.45 F3000.0
M108 R6.155
G1 X5.23 Y19.58 Z0.45 F3600.0
G1 X4.77 Y19.16 Z0.45 F3600.0
G1 X21.27 Y19.16 Z0.45 F3600.0
G1 X21.27 Y18.74 Z0.45 F3600.0
G1 X4.77 Y18.74 Z0.45 F3600.0
G1 X4.77 Y18.32 Z0.45 F3600.0
G1 X4.97 Y18.32 Z0.45 F3600.0
G1 X4.77 Y17.9 Z0.45 F3600.0
G1 X4.97 Y17.9 Z0.45 F3600.0
G1 X4.77 Y17.48 Z0.45 F3600.0
G1 X4.97 Y17.48 Z0.45 F3600.0
G1 X4.77 Y17.06 Z0.45 F3600.0
G1 X4.97 Y17.06 Z0.45 F3600.0
G1 X4.77 Y16.64 Z0.45 F3600.0
G1 X4.97 Y16.64 Z0.45 F3600.0
G1 X4.77 Y16.23 Z0.45 F3600.0
G1 X4.97 Y16.23 Z0.45 F3600.0
G1 X4.77 Y15.81 Z0.45 F3600.0
G1 X4.97 Y15.81 Z0.45 F3600.0
G1 X4.77 Y15.39 Z0.45 F3600.0
G1 X4.97 Y15.39 Z0.45 F3600.0
G1 X4.77 Y14.97 Z0.45 F3600.0
G1 X4.97 Y14.97 Z0.45 F3600.0
G1 X4.77 Y14.55 Z0.45 F3600.0
G1 X4.97 Y14.55 Z0.45 F3600.0
G1 X4.77 Y14.13 Z0.45 F3600.0
G1 X4.97 Y14.13 Z0.45 F3600.0
G1 X4.77 Y13.71 Z0.45 F3600.0
G1 X4.97 Y13.71 Z0.45 F3600.0
G1 X4.77 Y13.29 Z0.45 F3600.0
G1 X4.97 Y13.29 Z0.45 F3600.0
G1 X4.77 Y12.87 Z0.45 F3600.0
G1 X4.97 Y12.87 Z0.45 F3600.0
G1 X4.77 Y12.46 Z0.45 F3600.0
G1 X4.97 Y12.46 Z0.45 F3600.0
G1 X4.77 Y12.04 Z0.45 F3600.0
G1 X4.97 Y12.04 Z0.45 F3600.0
G1 X4.77 Y11.62 Z0.45 F3600.0
G1 X4.97 Y11.62 Z0.45 F3600.0
G1 X4.77 Y11.2 Z0.45 F3600.0
G1 X4.97 Y11.2 Z0.45 F3600.0
G1 X4.77 Y10.78 Z0.45 F3600.0
G1 X4.97 Y10.78 Z0.45 F3600.0
G1 X4.77 Y10.36 Z0.45 F3600.0
G1 X21.27 Y10.36 Z0.45 F3600.0
G1 X21.27 Y9.94 Z0.45 F3600.0
G1 X4.77 Y9.94 Z0.45 F3600.0
G1 X5.23 Y9.52 Z0.45 F3600.0
G1 X20.82 Y9.52 Z0.45 F3600.0
M103
G1 X20.09 Y9.11 Z0.45 F3000.0
M101
G1 X5.96 Y9.11 Z0.45 F3600.0
M103
G1 X6.68 Y8.69 Z0.45 F3000.0
M101
G1 X19.36 Y8.69 Z0.45 F3600.0
M103
G1 X18.64 Y8.27 Z0.45 F3000.0
M101
G1 X7.41 Y8.27 Z0.45 F3600.0
M103
G1 X8.13 Y7.85 Z0.45 F3000.0
M101
G1 X17.91 Y7.85 Z0.45 F3600.0
M103
G1 X17.19 Y7.43 Z0.45 F3000.0
M101
G1 X8.86 Y7.43 Z0.45 F3600.0
M103
G1 X9.58 Y7.01 Z0.45 F3000.0
M101
G1 X16.46 Y7.01 Z0.45 F3600.0
M103
G1 X15.74 Y6.59 Z0.45 F3000.0
M101
G1 X10.31 Y6.59 Z0.45 F3600.0
M103
G1 X11.03 Y6.17 Z0.45 F3000.0
M101
G1 X15.01 Y6.17 Z0.45 F3600.0
M103
G1 X14.29 Y5.75 Z0.45 F3000.0
M101
G1 X11.76 Y5.75 Z0.45 F3600.0
G1 X12.48 Y5.33 Z0.45 F3600.0
G1 X12.66 Y5.33 Z0.45 F3600.0
M108 R30.0
M102
G1 X13.56 Y5.33 Z0.45 F3600.0
M108 R6.155
M103
G1 X13.79 Y10.4 Z0.45 F3000.0
M108 R30.0
M101
G1 X13.82 Y11.2 Z0.45 F3000.0
M108 R6.155
G1 X21.27 Y11.2 Z0.45 F3600.0
G1 X21.27 Y11.62 Z0.45 F3600.0
G1 X14.83 Y11.62 Z0.45 F3600.0
G1 X15.38 Y12.04 Z0.45 F3600.0
G1 X21.27 Y12.04 Z0.45 F3600.0
G1 X21.27 Y12.46 Z0.45 F3600.0
G1 X15.75 Y12.46 Z0.45 F3600.0
G1 X16.03 Y12.87 Z0.45 F3600.0
G1 X21.27 Y12.87 Z0.45 F3600.0
G1 X21.27 Y13.29 Z0.45 F3600.0
G1 X16.23 Y13.29 Z0.45 F3600.0
M103
G1 X16.36 Y13.71 Z0.45 F3000.0
M101
G1 X21.27 Y13.71 Z0.45 F3600.0
G1 X21.27 Y14.13 Z0.45 F3600.0
G1 X16.44 Y14.13 Z0.45 F3600.0
M103
G1 X16.48 Y14.55 Z0.45 F3000.0
M101
G1 X21.27 Y14.55 Z0.45 F3600.0
G1 X21.27 Y14.97 Z0.45 F3600.0
G1 X16.44 Y14.97 Z0.45 F3600.0
G1 X16.36 Y15.39 Z0.45 F3600.0
G1 X21.27 Y15.39 Z0.45 F3600.0
G1 X21.27 Y15.81 Z0.45 F3600.0
G1 X16.23 Y15.81 Z0.45 F3600.0
G1 X16.03 Y16.23 Z0.45 F3600.0
G1 X21.27 Y16.23 Z0.45 F3600.0
G1 X21.27 Y16.64 Z0.45 F3600.0
G1 X15.75 Y16.64 Z0.45 F3600.0
G1 X15.38 Y17.06 Z0.45 F3600.0
G1 X21.27 Y17.06 Z0.45 F3600.0
G1 X21.27 Y17.48 Z0.45 F3600.0
G1 X15.73 Y17.48 Z0.45 F3600.0
M108 R30.0
M102
G1 X14.83 Y17.48 Z0.45 F3600.0
M108 R6.155
M103
G1 X14.56 Y17.59 Z0.45 F3000.0
M108 R30.0
M101
G1 X13.82 Y17.9 Z0.45 F3000.0
M108 R6.155
G1 X21.27 Y17.9 Z0.45 F3600.0
G1 X21.27 Y18.32 Z0.45 F3600.0
G1 X9.57 Y18.32 Z0.45 F3600.0
G1 X9.57 Y17.9 Z0.45 F3600.0
G1 X11.32 Y17.9 Z0.45 F3600.0
M108 R30.0
M102
G1 X12.22 Y17.9 Z0.45 F3600.0
M108 R6.155
M103
G1 X11.95 Y17.79 Z0.45 F3000.0
M108 R30.0
M101
G1 X11.21 Y17.48 Z0.45 F3000.0
M108 R6.155
G1 X9.57 Y17.48 Z0.45 F3600.0
G1 X9.57 Y17.06 Z0.45 F3600.0
G1 X10.67 Y17.06 Z0.45 F3600.0
G1 X10.29 Y16.64 Z0.45 F3600.0
G1 X9.57 Y16.64 Z0.45 F3600.0
G1 X9.57 Y16.23 Z0.45 F3600.0
G1 X10.02 Y16.23 Z0.45 F3600.0
G1 X9.81 Y15.81 Z0.45 F3600.0
G1 X9.57 Y15.81 Z0.45 F3600.0
G1 X9.57 Y15.72 Z0.45 F3600.0
M108 R30.0
M102
G1 X9.57 Y15.39 Z0.45 F3600.0
G1 X9.68 Y15.39 Z0.45 F3600.0
G1 X9.61 Y14.97 Z0.45 F3600.0
G1 X9.57 Y14.97 Z0.45 F3600.0
M108 R6.155
M103
G1 X11.44 Y16.91 Z0.45 F3000.0
G1 X18.63 Y20.09 Z0.45 F3000.0
M108 R30.0
M101
G1 X19.36 Y20.41 Z0.45 F3000.0
M108 R6.155
G1 X6.68 Y20.41 Z0.45 F3600.0
M103
G1 X7.41 Y20.83 Z0.45 F3000.0
M101
G1 X18.64 Y20.83 Z0.45 F3600.0
M103
G1 X17.91 Y21.25 Z0.45 F3000.0
M101
G1 X8.13 Y21.25 Z0.45 F3600.0
M103
G1 X8.86 Y21.67 Z0.45 F3000.0
M101
G1 X17.19 Y21.67 Z0.45 F3600.0
M103
G1 X16.46 Y22.09 Z0.45 F3000.0
M101
G1 X9.58 Y22.09 Z0.45 F3600.0
M103
G1 X10.31 Y22.51 Z0.45 F3000.0
M101
G1 X15.74 Y22.51 Z0.45 F3600.0
M103
G1 X15.01 Y22.93 Z0.45 F3000.0
M101
G1 X11.93 Y22.93 Z0.45 F3600.0
M108 R30.0
M102
G1 X11.03 Y22.93 Z0.45 F3600.0
M108 R6.155
M103
G1 X12.8 Y23.51 Z0.45 F3000.0
M108 R30.0
M101
G1 X13.56 Y23.77 Z0.45 F3000.0
M108 R6.155
G1 X12.48 Y23.77 Z0.45 F3600.0
G1 X11.76 Y23.35 Z0.45 F3600.0
G1 X13.39 Y23.35 Z0.45 F3600.0
M108 R30.0
M102
G1 X14.29 Y23.35 Z0.45 F3600.0
M108 R6.155
M103
G1 X6.7 Y20.29 Z0.45 F3000.0
M108 R30.0
M101
G1 X5.96 Y20.0 Z0.45 F3000.0
M108 R6.155
G1 X19.19 Y20.0 Z0.45 F3600.0
M108 R30.0
M102
G1 X20.09 Y20.0 Z0.45 F3600.0
M108 R6.155
M103
(</surroundingLoop>)
(<surroundingLoop>)
(<boundaryPerimeter>)
(<boundaryPoint> X13.023 Y-3.984 Z0.45 </boundaryPoint>)
(<boundaryPoint> X3.873 Y-9.267 Z0.45 </boundaryPoint>)
(<boundaryPoint> X3.873 Y-19.834 Z0.45 </boundaryPoint>)
(<boundaryPoint> X13.023 Y-25.117 Z0.45 </boundaryPoint>)
(<boundaryPoint> X22.172 Y-19.834 Z0.45 </boundaryPoint>)
(<boundaryPoint> X22.172 Y-9.267 Z0.45 </boundaryPoint>)
(<loop> inner )
G1 X13.59 Y-10.63 Z0.45 F3000.0
M108 R30.0
M101
G1 X13.42 Y-11.41 Z0.45 F3000.0
M108 R6.155
G1 X13.64 Y-11.43 Z0.45 F3600.0
G1 X14.24 Y-11.61 Z0.45 F3600.0
G1 X14.79 Y-11.9 Z0.45 F3600.0
G1 X15.27 Y-12.3 Z0.45 F3600.0
G1 X15.67 Y-12.78 Z0.45 F3600.0
G1 X15.96 Y-13.33 Z0.45 F3600.0
G1 X16.14 Y-13.93 Z0.45 F3600.0
G1 X16.2 Y-14.55 Z0.45 F3600.0
G1 X16.14 Y-15.17 Z0.45 F3600.0
G1 X15.96 Y-15.77 Z0.45 F3600.0
G1 X15.67 Y-16.32 Z0.45 F3600.0
G1 X15.27 Y-16.8 Z0.45 F3600.0
G1 X14.79 Y-17.2 Z0.45 F3600.0
G1 X14.24 Y-17.49 Z0.45 F3600.0
G1 X13.64 Y-17.67 Z0.45 F3600.0
G1 X13.02 Y-17.73 Z0.45 F3600.0
G1 X12.4 Y-17.67 Z0.45 F3600.0
G1 X11.8 Y-17.49 Z0.45 F3600.0
G1 X11.26 Y-17.2 Z0.45 F3600.0
G1 X10.77 Y-16.8 Z0.45 F3600.0
G1 X10.38 Y-16.33 Z0.45 F3600.0
G1 X10.09 Y-15.77 Z0.45 F3600.0
G1 X9.9 Y-15.16 Z0.45 F3600.0
G1 X9.84 Y-14.55 Z0.45 F3600.0
G1 X9.9 Y-13.93 Z0.45 F3600.0
G1 X10.08 Y-13.35 Z0.45 F3600.0
G1 X10.38 Y-12.77 Z0.45 F3600.0
G1 X10.77 Y-12.3 Z0.45 F3600.0
G1 X11.26 Y-11.9 Z0.45 F3600.0
G1 X11.8 Y-11.61 Z0.45 F3600.0
G1 X12.4 Y-11.43 Z0.45 F3600.0
G1 X12.53 Y-11.42 Z0.45 F3600.0
M108 R30.0
M102
G1 X13.02 Y-11.37 Z0.45 F3600.0
G1 X13.42 Y-11.41 Z0.45 F3600.0
M108 R6.155
M103
(</loop>)
(<loop> inner )
G1 X10.1 Y-11.41 Z0.45 F3000.0
M108 R30.0
M101
G1 X9.3 Y-11.41 Z0.45 F3000.0
M108 R6.155
G1 X9.3 Y-16.32 Z0.45 F3600.0
G1 X9.3 Y-18.23 Z0.45 F3600.0
G1 X5.25 Y-18.23 Z0.45 F3600.0
G1 X5.25 Y-10.87 Z0.45 F3600.0
G1 X8.94 Y-10.87 Z0.45 F3600.0
M108 R30.0
M102
G1 X9.3 Y-10.87 Z0.45 F3600.0
G1 X9.3 Y-11.41 Z0.45 F3600.0
M108 R6.155
M103
(</loop>)
(<loop> outer )
G1 X7.73 Y-8.69 Z0.45 F3000.0
M108 R30.0
M101
G1 X7.33 Y-8.0 Z0.45 F3000.0
M108 R6.155
G1 X4.5 Y-9.63 Z0.45 F3600.0
G1 X4.5 Y-16.32 Z0.45 F3600.0
G1 X4.5 Y-19.47 Z0.45 F3600.0
G1 X13.02 Y-24.39 Z0.45 F3600.0
G1 X21.54 Y-19.47 Z0.45 F3600.0
G1 X21.54 Y-9.63 Z0.45 F3600.0
G1 X13.02 Y-4.71 Z0.45 F3600.0
G1 X7.33 Y-8.0 Z0.45 F3600.0
M103
(</loop>)
(<perimeter> outer )
G1 X7.12 Y-7.63 Z0.45 F3000.0
M101
G1 X4.08 Y-9.39 Z0.45 F3600.0
G1 X4.08 Y-16.32 Z0.45 F3600.0
G1 X4.08 Y-19.71 Z0.45 F3600.0
G1 X13.02 Y-24.87 Z0.45 F3600.0
G1 X21.96 Y-19.71 Z0.45 F3600.0
G1 X21.96 Y-9.39 Z0.45 F3600.0
G1 X13.02 Y-4.23 Z0.45 F3600.0
G1 X7.9 Y-7.18 Z0.45 F3600.0
M108 R30.0
M102
G1 X7.12 Y-7.63 Z0.45 F3600.0
M108 R6.155
M103
(</perimeter>)
(</boundaryPerimeter>)
(<surroundingLoop>)
(<boundaryPerimeter>)
(<boundaryPoint> X5.873 Y-17.601 Z0.45 </boundaryPoint>)
(<boundaryPoint> X5.873 Y-11.5 Z0.45 </boundaryPoint>)
(<boundaryPoint> X8.673 Y-11.5 Z0.45 </boundaryPoint>)
(<boundaryPoint> X8.673 Y-17.601 Z0.45 </boundaryPoint>)
(<perimeter> inner )
G1 X7.12 Y-10.49 Z0.45 F3000.0
M108 R30.0
M101
G1 X7.12 Y-11.29 Z0.45 F3000.0
M108 R6.155
G1 X8.88 Y-11.29 Z0.45 F3600.0
G1 X8.88 Y-17.81 Z0.45 F3600.0
G1 X5.66 Y-17.81 Z0.45 F3600.0
G1 X5.66 Y-16.32 Z0.45 F3600.0
G1 X5.66 Y-11.29 Z0.45 F3600.0
G1 X6.22 Y-11.29 Z0.45 F3600.0
M108 R30.0
M102
G1 X7.12 Y-11.29 Z0.45 F3600.0
M108 R6.155
M103
(</perimeter>)
(</boundaryPerimeter>)
(</surroundingLoop>)
(<surroundingLoop>)
(<boundaryPerimeter>)
(<boundaryPoint> X15.143 Y-13.133 Z0.45 </boundaryPoint>)
(<boundaryPoint> X15.379 Y-13.575 Z0.45 </boundaryPoint>)
(<boundaryPoint> X15.524 Y-14.053 Z0.45 </boundaryPoint>)
(<boundaryPoint> X15.573 Y-14.55 Z0.45 </boundaryPoint>)
(<boundaryPoint> X15.524 Y-15.047 Z0.45 </boundaryPoint>)
(<boundaryPoint> X15.379 Y-15.526 Z0.45 </boundaryPoint>)
(<boundaryPoint> X15.143 Y-15.967 Z0.45 </boundaryPoint>)
(<boundaryPoint> X14.826 Y-16.354 Z0.45 </boundaryPoint>)
(<boundaryPoint> X14.44 Y-16.671 Z0.45 </boundaryPoint>)
(<boundaryPoint> X13.998 Y-16.907 Z0.45 </boundaryPoint>)
(<boundaryPoint> X13.52 Y-17.052 Z0.45 </boundaryPoint>)
(<boundaryPoint> X13.023 Y-17.101 Z0.45 </boundaryPoint>)
(<boundaryPoint> X12.526 Y-17.052 Z0.45 </boundaryPoint>)
(<boundaryPoint> X12.047 Y-16.907 Z0.45 </boundaryPoint>)
(<boundaryPoint> X11.606 Y-16.671 Z0.45 </boundaryPoint>)
(<boundaryPoint> X11.22 Y-16.354 Z0.45 </boundaryPoint>)
(<boundaryPoint> X10.909 Y-15.976 Z0.45 </boundaryPoint>)
(<boundaryPoint> X10.669 Y-15.531 Z0.45 </boundaryPoint>)
(<boundaryPoint> X10.52 Y-15.04 Z0.45 </boundaryPoint>)
(<boundaryPoint> X10.473 Y-14.547 Z0.45 </boundaryPoint>)
(<boundaryPoint> X10.522 Y-14.056 Z0.45 </boundaryPoint>)
(<boundaryPoint> X10.663 Y-13.585 Z0.45 </boundaryPoint>)
(<boundaryPoint> X10.91 Y-13.123 Z0.45 </boundaryPoint>)
(<boundaryPoint> X11.22 Y-12.747 Z0.45 </boundaryPoint>)
(<boundaryPoint> X11.606 Y-12.43 Z0.45 </boundaryPoint>)
(<boundaryPoint> X12.047 Y-12.194 Z0.45 </boundaryPoint>)
(<boundaryPoint> X12.526 Y-12.05 Z0.45 </boundaryPoint>)
(<boundaryPoint> X13.023 Y-12.0 Z0.45 </boundaryPoint>)
(<boundaryPoint> X13.52 Y-12.05 Z0.45 </boundaryPoint>)
(<boundaryPoint> X13.998 Y-12.194 Z0.45 </boundaryPoint>)
(<boundaryPoint> X14.44 Y-12.43 Z0.45 </boundaryPoint>)
(<boundaryPoint> X14.826 Y-12.747 Z0.45 </boundaryPoint>)
(<perimeter> inner )
G1 X7.56 Y-11.21 Z0.45 F3000.0
G1 X8.82 Y-11.35 Z0.45 F3000.0
G1 X8.97 Y-12.03 Z0.45 F3000.0
G1 X10.04 Y-12.62 Z0.45 F3000.0
M108 R30.0
M101
G1 X10.73 Y-13.01 Z0.45 F3000.0
M108 R6.155
G1 X11.07 Y-12.6 Z0.45 F3600.0
G1 X11.49 Y-12.26 Z0.45 F3600.0
G1 X11.97 Y-12.0 Z0.45 F3600.0
G1 X12.48 Y-11.84 Z0.45 F3600.0
G1 X13.02 Y-11.79 Z0.45 F3600.0
G1 X13.56 Y-11.84 Z0.45 F3600.0
G1 X14.08 Y-12.0 Z0.45 F3600.0
G1 X14.56 Y-12.26 Z0.45 F3600.0
G1 X14.97 Y-12.6 Z0.45 F3600.0
G1 X15.32 Y-13.02 Z0.45 F3600.0
G1 X15.57 Y-13.49 Z0.45 F3600.0
G1 X15.73 Y-14.01 Z0.45 F3600.0
G1 X15.78 Y-14.55 Z0.45 F3600.0
G1 X15.73 Y-15.09 Z0.45 F3600.0
G1 X15.57 Y-15.61 Z0.45 F3600.0
G1 X15.32 Y-16.08 Z0.45 F3600.0
G1 X14.97 Y-16.5 Z0.45 F3600.0
G1 X14.56 Y-16.85 Z0.45 F3600.0
G1 X14.08 Y-17.1 Z0.45 F3600.0
G1 X13.56 Y-17.26 Z0.45 F3600.0
G1 X13.02 Y-17.31 Z0.45 F3600.0
G1 X12.48 Y-17.26 Z0.45 F3600.0
G1 X11.97 Y-17.1 Z0.45 F3600.0
G1 X11.49 Y-16.85 Z0.45 F3600.0
G1 X11.07 Y-16.5 Z0.45 F3600.0
G1 X10.73 Y-16.09 Z0.45 F3600.0
G1 X10.47 Y-15.61 Z0.45 F3600.0
G1 X10.31 Y-15.08 Z0.45 F3600.0
G1 X10.26 Y-14.55 Z0.45 F3600.0
G1 X10.32 Y-14.01 Z0.45 F3600.0
G1 X10.37 Y-13.82 Z0.45 F3600.0
M108 R30.0
M102
G1 X10.47 Y-13.51 Z0.45 F3600.0
G1 X10.73 Y-13.01 Z0.45 F3600.0
M108 R6.155
M103
(</perimeter>)
(</boundaryPerimeter>)
(</surroundingLoop>)
G1 X9.98 Y-14.28 Z0.45 F3000.0
M108 R30.0
M101
G1 X9.57 Y-14.97 Z0.45 F3000.0
M108 R6.155
G1 X9.61 Y-14.97 Z0.45 F3600.0
G1 X9.57 Y-15.39 Z0.45 F3600.0
G1 X9.68 Y-15.39 Z0.45 F3600.0
G1 X9.57 Y-15.81 Z0.45 F3600.0
G1 X9.81 Y-15.81 Z0.45 F3600.0
G1 X10.02 Y-16.23 Z0.45 F3600.0
G1 X9.57 Y-16.23 Z0.45 F3600.0
G1 X9.57 Y-16.64 Z0.45 F3600.0
G1 X10.29 Y-16.64 Z0.45 F3600.0
G1 X10.67 Y-17.06 Z0.45 F3600.0
G1 X9.57 Y-17.06 Z0.45 F3600.0
G1 X9.57 Y-17.48 Z0.45 F3600.0
G1 X10.31 Y-17.48 Z0.45 F3600.0
M108 R30.0
M102
G1 X11.21 Y-17.48 Z0.45 F3600.0
M108 R6.155
M103
G1 X11.49 Y-17.59 Z0.45 F3000.0
M108 R30.0
M101
G1 X12.22 Y-17.9 Z0.45 F3000.0
M108 R6.155
G1 X9.57 Y-17.9 Z0.45 F3600.0
G1 X9.57 Y-18.32 Z0.45 F3600.0
G1 X20.37 Y-18.32 Z0.45 F3600.0
M108 R30.0
M102
G1 X21.27 Y-18.32 Z0.45 F3600.0
M108 R6.155
M103
G1 X20.86 Y-10.32 Z0.45 F3000.0
M108 R30.0
M101
G1 X20.82 Y-9.52 Z0.45 F3000.0
M108 R6.155
G1 X5.23 Y-9.52 Z0.45 F3600.0
G1 X4.77 Y-9.94 Z0.45 F3600.0
G1 X21.27 Y-9.94 Z0.45 F3600.0
G1 X21.27 Y-10.36 Z0.45 F3600.0
G1 X4.77 Y-10.36 Z0.45 F3600.0
G1 X4.77 Y-10.78 Z0.45 F3600.0
G1 X4.97 Y-10.78 Z0.45 F3600.0
G1 X4.77 Y-11.2 Z0.45 F3600.0
G1 X4.97 Y-11.2 Z0.45 F3600.0
G1 X4.77 Y-11.62 Z0.45 F3600.0
G1 X4.97 Y-11.62 Z0.45 F3600.0
G1 X4.77 Y-12.04 Z0.45 F3600.0
G1 X4.97 Y-12.04 Z0.45 F3600.0
G1 X4.77 Y-12.46 Z0.45 F3600.0
G1 X4.97 Y-12.46 Z0.45 F3600.0
G1 X4.77 Y-12.87 Z0.45 F3600.0
G1 X4.97 Y-12.87 Z0.45 F3600.0
G1 X4.77 Y-13.29 Z0.45 F3600.0
G1 X4.97 Y-13.29 Z0.45 F3600.0
G1 X4.77 Y-13.71 Z0.45 F3600.0
G1 X4.97 Y-13.71 Z0.45 F3600.0
G1 X4.77 Y-14.13 Z0.45 F3600.0
G1 X4.97 Y-14.13 Z0.45 F3600.0
G1 X4.77 Y-14.55 Z0.45 F3600.0
G1 X4.97 Y-14.55 Z0.45 F3600.0
G1 X4.77 Y-14.97 Z0.45 F3600.0
G1 X4.97 Y-14.97 Z0.45 F3600.0
G1 X4.77 Y-15.39 Z0.45 F3600.0
G1 X4.97 Y-15.39 Z0.45 F3600.0
G1 X4.77 Y-15.81 Z0.45 F3600.0
G1 X4.97 Y-15.81 Z0.45 F3600.0
G1 X4.77 Y-16.23 Z0.45 F3600.0
G1 X4.97 Y-16.23 Z0.45 F3600.0
G1 X4.77 Y-16.64 Z0.45 F3600.0
G1 X4.97 Y-16.64 Z0.45 F3600.0
G1 X4.77 Y-17.06 Z0.45 F3600.0
G1 X4.97 Y-17.06 Z0.45 F3600.0
G1 X4.77 Y-17.48 Z0.45 F3600.0
G1 X4.97 Y-17.48 Z0.45 F3600.0
G1 X4.77 Y-17.9 Z0.45 F3600.0
G1 X4.97 Y-17.9 Z0.45 F3600.0
G1 X4.77 Y-18.32 Z0.45 F3600.0
G1 X4.97 Y-18.32 Z0.45 F3600.0
G1 X4.77 Y-18.74 Z0.45 F3600.0
G1 X21.27 Y-18.74 Z0.45 F3600.0
G1 X21.27 Y-19.16 Z0.45 F3600.0
G1 X4.77 Y-19.16 Z0.45 F3600.0
G1 X5.23 Y-19.58 Z0.45 F3600.0
G1 X20.82 Y-19.58 Z0.45 F3600.0
M103
G1 X20.09 Y-20.0 Z0.45 F3000.0
M101
G1 X5.96 Y-20.0 Z0.45 F3600.0
M103
G1 X6.68 Y-20.41 Z0.45 F3000.0
M101
G1 X19.36 Y-20.41 Z0.45 F3600.0
M103
G1 X18.64 Y-20.83 Z0.45 F3000.0
M101
G1 X7.41 Y-20.83 Z0.45 F3600.0
M103
G1 X8.13 Y-21.25 Z0.45 F3000.0
M101
G1 X17.91 Y-21.25 Z0.45 F3600.0
M103
G1 X17.19 Y-21.67 Z0.45 F3000.0
M101
G1 X8.86 Y-21.67 Z0.45 F3600.0
M103
G1 X9.58 Y-22.09 Z0.45 F3000.0
M101
G1 X16.46 Y-22.09 Z0.45 F3600.0
M103
G1 X15.74 Y-22.51 Z0.45 F3000.0
M101
G1 X10.31 Y-22.51 Z0.45 F3600.0
M103
G1 X11.03 Y-22.93 Z0.45 F3000.0
M101
G1 X15.01 Y-22.93 Z0.45 F3600.0
M103
G1 X14.29 Y-23.35 Z0.45 F3000.0
M101
G1 X11.76 Y-23.35 Z0.45 F3600.0
G1 X12.48 Y-23.77 Z0.45 F3600.0
G1 X12.66 Y-23.77 Z0.45 F3600.0
M108 R30.0
M102
G1 X13.56 Y-23.77 Z0.45 F3600.0
M108 R6.155
M103
G1 X13.79 Y-18.7 Z0.45 F3000.0
M108 R30.0
M101
G1 X13.82 Y-17.9 Z0.45 F3000.0
M108 R6.155
G1 X21.27 Y-17.9 Z0.45 F3600.0
G1 X21.27 Y-17.48 Z0.45 F3600.0
G1 X14.83 Y-17.48 Z0.45 F3600.0
G1 X15.38 Y-17.06 Z0.45 F3600.0
G1 X21.27 Y-17.06 Z0.45 F3600.0
G1 X21.27 Y-16.64 Z0.45 F3600.0
G1 X15.75 Y-16.64 Z0.45 F3600.0
G1 X16.03 Y-16.23 Z0.45 F3600.0
G1 X21.27 Y-16.23 Z0.45 F3600.0
G1 X21.27 Y-15.81 Z0.45 F3600.0
G1 X16.23 Y-15.81 Z0.45 F3600.0
M103
G1 X16.36 Y-15.39 Z0.45 F3000.0
M101
G1 X21.27 Y-15.39 Z0.45 F3600.0
G1 X21.27 Y-14.97 Z0.45 F3600.0
G1 X16.44 Y-14.97 Z0.45 F3600.0
M103
G1 X16.48 Y-14.55 Z0.45 F3000.0
M101
G1 X21.27 Y-14.55 Z0.45 F3600.0
G1 X21.27 Y-14.13 Z0.45 F3600.0
G1 X16.44 Y-14.13 Z0.45 F3600.0
G1 X16.36 Y-13.71 Z0.45 F3600.0
G1 X21.27 Y-13.71 Z0.45 F3600.0
G1 X21.27 Y-13.29 Z0.45 F3600.0
G1 X16.23 Y-13.29 Z0.45 F3600.0
G1 X16.03 Y-12.87 Z0.45 F3600.0
G1 X21.27 Y-12.87 Z0.45 F3600.0
G1 X21.27 Y-12.46 Z0.45 F3600.0
G1 X15.75 Y-12.46 Z0.45 F3600.0
G1 X15.38 Y-12.04 Z0.45 F3600.0
G1 X21.27 Y-12.04 Z0.45 F3600.0
G1 X21.27 Y-11.62 Z0.45 F3600.0
G1 X15.73 Y-11.62 Z0.45 F3600.0
M108 R30.0
M102
G1 X14.83 Y-11.62 Z0.45 F3600.0
M108 R6.155
M103
G1 X14.56 Y-11.51 Z0.45 F3000.0
M108 R30.0
M101
G1 X13.82 Y-11.2 Z0.45 F3000.0
M108 R6.155
G1 X21.27 Y-11.2 Z0.45 F3600.0
G1 X21.27 Y-10.78 Z0.45 F3600.0
G1 X9.57 Y-10.78 Z0.45 F3600.0
G1 X9.57 Y-11.2 Z0.45 F3600.0
G1 X11.32 Y-11.2 Z0.45 F3600.0
M108 R30.0
M102
G1 X12.22 Y-11.2 Z0.45 F3600.0
M108 R6.155
M103
G1 X11.95 Y-11.31 Z0.45 F3000.0
M108 R30.0
M101
G1 X11.21 Y-11.62 Z0.45 F3000.0
M108 R6.155
G1 X9.57 Y-11.62 Z0.45 F3600.0
G1 X9.57 Y-12.04 Z0.45 F3600.0
G1 X10.67 Y-12.04 Z0.45 F3600.0
G1 X10.29 Y-12.46 Z0.45 F3600.0
G1 X9.57 Y-12.46 Z0.45 F3600.0
G1 X9.57 Y-12.87 Z0.45 F3600.0
G1 X10.02 Y-12.87 Z0.45 F3600.0
G1 X9.81 Y-13.29 Z0.45 F3600.0
G1 X9.57 Y-13.29 Z0.45 F3600.0
G1 X9.57 Y-13.38 Z0.45 F3600.0
M108 R30.0
M102
G1 X9.57 Y-13.71 Z0.45 F3600.0
G1 X9.68 Y-13.71 Z0.45 F3600.0
G1 X9.61 Y-14.13 Z0.45 F3600.0
G1 X9.57 Y-14.13 Z0.45 F3600.0
M108 R6.155
M103
G1 X11.44 Y-12.19 Z0.45 F3000.0
G1 X18.63 Y-9.01 Z0.45 F3000.0
M108 R30.0
M101
G1 X19.36 Y-8.69 Z0.45 F3000.0
M108 R6.155
G1 X6.68 Y-8.69 Z0.45 F3600.0
M103
G1 X7.41 Y-8.27 Z0.45 F3000.0
M101
G1 X18.64 Y-8.27 Z0.45 F3600.0
M103
G1 X17.91 Y-7.85 Z0.45 F3000.0
M101
G1 X8.13 Y-7.85 Z0.45 F3600.0
M103
G1 X8.86 Y-7.43 Z0.45 F3000.0
M101
G1 X17.19 Y-7.43 Z0.45 F3600.0
M103
G1 X16.46 Y-7.01 Z0.45 F3000.0
M101
G1 X9.58 Y-7.01 Z0.45 F3600.0
M103
G1 X10.31 Y-6.59 Z0.45 F3000.0
M101
G1 X15.74 Y-6.59 Z0.45 F3600.0
M103
G1 X15.01 Y-6.17 Z0.45 F3000.0
M101
G1 X11.93 Y-6.17 Z0.45 F3600.0
M108 R30.0
M102
G1 X11.03 Y-6.17 Z0.45 F3600.0
M108 R6.155
M103
G1 X12.8 Y-5.59 Z0.45 F3000.0
M108 R30.0
M101
G1 X13.56 Y-5.33 Z0.45 F3000.0
M108 R6.155
G1 X12.48 Y-5.33 Z0.45 F3600.0
G1 X11.76 Y-5.75 Z0.45 F3600.0
G1 X13.39 Y-5.75 Z0.45 F3600.0
M108 R30.0
M102
G1 X14.29 Y-5.75 Z0.45 F3600.0
M108 R6.155
M103
G1 X6.7 Y-8.81 Z0.45 F3000.0
M108 R30.0
M101
G1 X5.96 Y-9.11 Z0.45 F3000.0
M108 R6.155
G1 X19.19 Y-9.11 Z0.45 F3600.0
M108 R30.0
M102
G1 X20.09 Y-9.11 Z0.45 F3600.0
M108 R6.155
M103
(</surroundingLoop>)
(<surroundingLoop>)
(<boundaryPerimeter>)
(<boundaryPoint> X-13.023 Y-3.984 Z0.45 </boundaryPoint>)
(<boundaryPoint> X-22.172 Y-9.267 Z0.45 </boundaryPoint>)
(<boundaryPoint> X-22.172 Y-19.834 Z0.45 </boundaryPoint>)
(<boundaryPoint> X-13.023 Y-25.117 Z0.45 </boundaryPoint>)
(<boundaryPoint> X-3.873 Y-19.834 Z0.45 </boundaryPoint>)
(<boundaryPoint> X-3.873 Y-9.267 Z0.45 </boundaryPoint>)
(<loop> inner )
G1 X-9.18 Y-13.6 Z0.45 F3000.0
M108 R30.0
M101
G1 X-9.97 Y-13.72 Z0.45 F3000.0
M108 R6.155
G1 X-9.9 Y-13.93 Z0.45 F3600.0
G1 X-9.84 Y-14.55 Z0.45 F3600.0
G1 X-9.9 Y-15.17 Z0.45 F3600.0
G1 X-10.08 Y-15.77 Z0.45 F3600.0
G1 X-10.38 Y-16.32 Z0.45 F3600.0
G1 X-10.77 Y-16.8 Z0.45 F3600.0
G1 X-11.26 Y-17.2 Z0.45 F3600.0
G1 X-11.8 Y-17.49 Z0.45 F3600.0
G1 X-12.4 Y-17.67 Z0.45 F3600.0
G1 X-13.02 Y-17.73 Z0.45 F3600.0
G1 X-13.64 Y-17.67 Z0.45 F3600.0
G1 X-14.24 Y-17.49 Z0.45 F3600.0
G1 X-14.79 Y-17.2 Z0.45 F3600.0
G1 X-15.27 Y-16.8 Z0.45 F3600.0
G1 X-15.66 Y-16.33 Z0.45 F3600.0
G1 X-15.96 Y-15.77 Z0.45 F3600.0
G1 X-16.15 Y-15.16 Z0.45 F3600.0
G1 X-16.2 Y-14.55 Z0.45 F3600.0
G1 X-16.14 Y-13.93 Z0.45 F3600.0
G1 X-15.97 Y-13.35 Z0.45 F3600.0
G1 X-15.66 Y-12.77 Z0.45 F3600.0
G1 X-15.27 Y-12.3 Z0.45 F3600.0
G1 X-14.79 Y-11.9 Z0.45 F3600.0
G1 X-14.24 Y-11.61 Z0.45 F3600.0
G1 X-13.64 Y-11.43 Z0.45 F3600.0
G1 X-13.02 Y-11.37 Z0.45 F3600.0
G1 X-12.4 Y-11.43 Z0.45 F3600.0
G1 X-11.8 Y-11.61 Z0.45 F3600.0
G1 X-11.26 Y-11.9 Z0.45 F3600.0
G1 X-10.77 Y-12.3 Z0.45 F3600.0
G1 X-10.38 Y-12.78 Z0.45 F3600.0
G1 X-10.32 Y-12.89 Z0.45 F3600.0
M108 R30.0
M102
G1 X-10.08 Y-13.33 Z0.45 F3600.0
G1 X-9.97 Y-13.72 Z0.45 F3600.0
M108 R6.155
M103
(</loop>)
(<loop> inner )
G1 X-11.44 Y-12.19 Z0.45 F3000.0
G1 X-11.94 Y-11.92 Z0.45 F3000.0
G1 X-12.47 Y-11.76 Z0.45 F3000.0
G1 X-13.02 Y-11.71 Z0.45 F3000.0
G1 X-13.58 Y-11.76 Z0.45 F3000.0
G1 X-14.11 Y-11.92 Z0.45 F3000.0
G1 X-16.08 Y-13.27 Z0.45 F3000.0
M108 R30.0
M101
G1 X-16.75 Y-13.72 Z0.45 F3000.0
M108 R6.155
G1 X-16.75 Y-16.32 Z0.45 F3600.0
G1 X-16.75 Y-18.23 Z0.45 F3600.0
G1 X-20.8 Y-18.23 Z0.45 F3600.0
G1 X-20.8 Y-10.87 Z0.45 F3600.0
G1 X-16.75 Y-10.87 Z0.45 F3600.0
G1 X-16.75 Y-12.82 Z0.45 F3600.0
M108 R30.0
M102
G1 X-16.75 Y-13.72 Z0.45 F3600.0
M108 R6.155
M103
(</loop>)
(<loop> outer )
G1 X-17.08 Y-13.72 Z0.45 F3000.0
G1 X-17.23 Y-11.35 Z0.45 F3000.0
G1 X-20.32 Y-11.35 Z0.45 F3000.0
G1 X-20.46 Y-13.72 Z0.45 F3000.0
G1 X-20.74 Y-13.72 Z0.45 F3000.0
M108 R30.0
M101
G1 X-21.54 Y-13.72 Z0.45 F3000.0
M108 R6.155
G1 X-21.54 Y-16.32 Z0.45 F3600.0
G1 X-21.54 Y-19.47 Z0.45 F3600.0
G1 X-13.02 Y-24.39 Z0.45 F3600.0
G1 X-4.5 Y-19.47 Z0.45 F3600.0
G1 X-4.5 Y-9.63 Z0.45 F3600.0
G1 X-13.02 Y-4.71 Z0.45 F3600.0
G1 X-21.54 Y-9.63 Z0.45 F3600.0
G1 X-21.54 Y-13.72 Z0.45 F3600.0
M103
(</loop>)
(<perimeter> outer )
G1 X-21.96 Y-13.72 Z0.45 F3000.0
M101
G1 X-21.96 Y-16.32 Z0.45 F3600.0
G1 X-21.96 Y-19.71 Z0.45 F3600.0
G1 X-13.02 Y-24.87 Z0.45 F3600.0
G1 X-4.08 Y-19.71 Z0.45 F3600.0
G1 X-4.08 Y-9.39 Z0.45 F3600.0
G1 X-13.02 Y-4.23 Z0.45 F3600.0
G1 X-21.96 Y-9.39 Z0.45 F3600.0
