; generated by Slic3r 0.8.2 on 2012-06-10 at 22:32:43

; layer_height = 0.25
; perimeters = 3
; solid_layers = 3
; fill_density = .2
; nozzle_diameter = .35
; filament_diameter = 1.75
; extrusion_multiplier = 1
; perimeter_speed = 100
; infill_speed = 120
; travel_speed = 150
; extrusion_width_ratio = 0
; scale = 1
; single wall width = 0.39mm

M190 S100 ; wait for bed temperature to be reached
M104 S220 ; set temperature
G28 ; home all axes
M109 S220 ; wait for temperature to be reached
G90 ; use absolute coordinates
G21 ; set units to millimeters
G92 E0 ; reset extrusion distance
M82 ; use absolute distances for extrusion
G1 Z0.250 F9000.000
G1 X80.490 Y111.020
G1 F1800.000 E1.00000
G1 X82.410 Y109.110 F4200.000 E1.10833
G1 X82.930 Y108.690 E1.13507
G1 X83.490 Y108.330 E1.16170
G1 X86.200 Y106.950 E1.28334
G1 X86.510 Y106.820 E1.29679
G1 X87.140 Y106.610 E1.32335
G1 X87.790 Y106.470 E1.34995
G1 X90.150 Y106.090 E1.44556
G1 X91.160 Y106.010 E1.48609
G1 X108.980 Y106.030 E2.19889
G1 X109.500 Y106.100 E2.21988
G1 X110.020 Y106.210 E2.24114
G1 X110.520 Y106.360 E2.26202
G1 X111.010 Y106.550 E2.28304
G1 X111.490 Y106.780 E2.30433
G1 X111.940 Y107.050 E2.32532
G1 X112.160 Y107.200 E2.33597
G1 X112.570 Y107.520 E2.35678
G1 X112.960 Y107.880 E2.37801
G1 X113.320 Y108.270 E2.39924
G1 X113.640 Y108.680 E2.42004
G1 X114.060 Y109.350 E2.45167
G1 X114.390 Y110.070 E2.48335
G1 X114.560 Y110.570 E2.50448
G1 X114.690 Y111.080 E2.52553
G1 X114.780 Y111.600 E2.54664
G1 X114.810 Y111.860 E2.55711
G1 X114.810 Y128.130 E3.20791
G1 X114.740 Y128.650 E3.22889
G1 X114.630 Y129.170 E3.25015
G1 X114.480 Y129.670 E3.27104
G1 X114.290 Y130.160 E3.29206
G1 X114.060 Y130.640 E3.31335
G1 X113.790 Y131.090 E3.33434
G1 X113.640 Y131.310 E3.34499
G1 X113.320 Y131.720 E3.36579
G1 X112.960 Y132.110 E3.38702
G1 X112.570 Y132.470 E3.40825
G1 X112.160 Y132.790 E3.42906
G1 X111.490 Y133.210 E3.46069
G1 X110.770 Y133.540 E3.49237
G1 X110.270 Y133.710 E3.51349
G1 X109.760 Y133.840 E3.53455
G1 X109.240 Y133.930 E3.55566
G1 X108.980 Y133.960 E3.56612
G1 X108.450 Y133.980 E3.58734
G1 X91.160 Y133.980 E4.27894
G1 X90.150 Y133.900 E4.31947
G1 X87.140 Y133.380 E4.44165
G1 X86.510 Y133.170 E4.46821
G1 X86.200 Y133.040 E4.48166
G1 X83.490 Y131.660 E4.60330
G1 X82.930 Y131.300 E4.62993
G1 X82.410 Y130.880 E4.65667
G1 X80.260 Y128.730 E4.77829
G1 X79.840 Y128.210 E4.80503
G1 X79.480 Y127.650 E4.83166
G1 X78.100 Y124.940 E4.95330
G1 X77.970 Y124.630 E4.96675
G1 X77.760 Y124.000 E4.99331
G1 X77.620 Y123.360 E5.01952
G1 X77.200 Y120.720 E5.12645
G1 X77.160 Y120.130 E5.15010
G1 X77.160 Y119.840 E5.16170
G1 X77.250 Y118.970 E5.19669
G1 X77.760 Y115.980 E5.31801
G1 X77.970 Y115.360 E5.34420
G1 X78.100 Y115.050 E5.35764
G1 X79.480 Y112.340 E5.47929
G1 X79.840 Y111.780 E5.50592
G1 X80.260 Y111.260 E5.53266
G1 X80.449 Y111.063 E5.54359
G1 X80.760 Y111.290 F9000.000
G1 X82.670 Y109.390 F4200.000 E5.65135
G1 X82.900 Y109.190 E5.66354
G1 X83.410 Y108.820 E5.68875
G1 X83.680 Y108.650 E5.70151
G1 X86.360 Y107.290 E5.82172
G1 X86.650 Y107.170 E5.83428
G1 X87.540 Y106.900 E5.87148
G1 X90.210 Y106.470 E5.97965
G1 X91.160 Y106.390 E6.01779
G1 X108.960 Y106.410 E6.72979
G1 X109.710 Y106.520 E6.76011
G1 X110.210 Y106.650 E6.78077
G1 X110.690 Y106.820 E6.80114
G1 X111.150 Y107.030 E6.82137
G1 X111.380 Y107.150 E6.83175
G1 X111.600 Y107.280 E6.84197
G1 X112.220 Y107.720 E6.87238
G1 X112.600 Y108.060 E6.89277
G1 X112.780 Y108.240 E6.90296
G1 X113.120 Y108.620 E6.92335
G1 X113.560 Y109.240 E6.95376
G1 X113.690 Y109.460 E6.96399
G1 X113.920 Y109.920 E6.98456
G1 X114.110 Y110.390 E7.00483
G1 X114.260 Y110.880 E7.02533
G1 X114.320 Y111.130 E7.03562
G1 X114.430 Y111.880 E7.06594
G1 X114.430 Y128.110 E7.71514
G1 X114.320 Y128.860 E7.74546
G1 X114.190 Y129.360 E7.76612
G1 X114.020 Y129.840 E7.78649
G1 X113.810 Y130.300 E7.80672
G1 X113.690 Y130.530 E7.81710
G1 X113.560 Y130.750 E7.82732
G1 X113.120 Y131.370 E7.85773
G1 X112.780 Y131.750 E7.87812
G1 X112.600 Y131.930 E7.88831
G1 X112.220 Y132.270 E7.90870
G1 X111.600 Y132.710 E7.93911
G1 X111.380 Y132.840 E7.94933
G1 X110.920 Y133.070 E7.96991
G1 X110.450 Y133.260 E7.99018
G1 X109.960 Y133.410 E8.01068
G1 X109.710 Y133.470 E8.02097
G1 X108.960 Y133.580 E8.05129
G1 X108.450 Y133.600 E8.07170
G1 X91.160 Y133.600 E8.76330
G1 X90.210 Y133.520 E8.80144
G1 X87.540 Y133.090 E8.90961
G1 X86.940 Y132.920 E8.93456
G1 X86.650 Y132.820 E8.94683
G1 X86.080 Y132.570 E8.97172
G1 X83.680 Y131.340 E9.07960
G1 X83.150 Y130.990 E9.10500
G1 X82.900 Y130.800 E9.11756
G1 X80.540 Y128.470 E9.25022
G1 X80.340 Y128.240 E9.26241
G1 X79.970 Y127.730 E9.28761
G1 X79.800 Y127.460 E9.30038
G1 X78.440 Y124.780 E9.42059
G1 X78.320 Y124.500 E9.43278
G1 X78.130 Y123.910 E9.45757
G1 X78.050 Y123.600 E9.47038
G1 X77.570 Y120.630 E9.59072
G1 X77.540 Y119.990 E9.61635
G1 X77.570 Y119.350 E9.64197
G1 X78.060 Y116.380 E9.76238
G1 X78.130 Y116.080 E9.77470
G1 X78.320 Y115.490 E9.79950
G1 X79.800 Y112.530 E9.93187
G1 X80.150 Y112.000 E9.95728
G1 X80.340 Y111.750 E9.96984
G1 X80.719 Y111.333 E9.99239
G1 F1800.000 E8.99239
G92 E0
G1 X107.699 Y126.849 F9000.000
G1 F1800.000 E1.00000
G1 X91.225 Y126.849 F4200.000 E1.65896
G1 X89.037 Y126.502 E1.74756
G1 X87.131 Y125.531 E1.83312
G1 X85.619 Y124.019 E1.91869
G1 X84.648 Y122.113 E2.00425
G1 X84.313 Y120.000 E2.08982
G1 X84.648 Y117.887 E2.17538
G1 X85.619 Y115.981 E2.26094
G1 X87.131 Y114.469 E2.34651
G1 X89.037 Y113.498 E2.43207
G1 X91.225 Y113.151 E2.52067
G1 X107.699 Y113.151 E3.17963
G1 X107.699 Y116.149 E3.29955
G1 X94.934 Y116.149 E3.81012
G1 X93.883 Y115.267 E3.86504
G1 X92.099 Y114.617 E3.94096
G1 X90.201 Y114.617 E4.01689
G1 X88.417 Y115.267 E4.09282
G1 X86.963 Y116.487 E4.16875
G1 X86.014 Y118.131 E4.24468
G1 X85.684 Y120.000 E4.32061
G1 X86.014 Y121.869 E4.39654
G1 X86.963 Y123.513 E4.47247
G1 X88.417 Y124.733 E4.54840
G1 X90.201 Y125.383 E4.62433
G1 X92.099 Y125.383 E4.70026
G1 X93.883 Y124.733 E4.77619
G1 X95.337 Y123.513 E4.85212
G1 X95.604 Y123.051 E4.87347
G1 X107.699 Y123.051 E5.35727
G1 X107.699 Y126.790 E5.50682
G1 X108.076 Y127.226 F9000.000
G1 X91.195 Y127.226 F4200.000 E6.18204
G1 X88.919 Y126.865 E6.27421
G1 X86.907 Y125.840 E6.36455
G1 X85.310 Y124.243 E6.45490
G1 X84.285 Y122.231 E6.54524
G1 X83.931 Y120.000 E6.63558
G1 X84.285 Y117.769 E6.72592
G1 X85.310 Y115.757 E6.81626
G1 X86.907 Y114.160 E6.90660
G1 X88.919 Y113.135 E6.99694
G1 X91.195 Y112.774 E7.08911
G1 X108.076 Y112.774 E7.76434
G1 X108.076 Y116.526 E7.91441
G1 X94.797 Y116.526 E8.44555
G1 X93.691 Y115.598 E8.50329
G1 X92.033 Y114.994 E8.57390
G1 X90.267 Y114.994 E8.64451
G1 X88.609 Y115.598 E8.71513
G1 X87.256 Y116.733 E8.78574
G1 X86.374 Y118.262 E8.85635
G1 X86.067 Y120.000 E8.92696
G1 X86.374 Y121.738 E8.99757
G1 X87.256 Y123.267 E9.06819
G1 X88.609 Y124.402 E9.13880
G1 X90.267 Y125.006 E9.20941
G1 X92.033 Y125.006 E9.28002
G1 X93.691 Y124.402 E9.35063
G1 X95.044 Y123.267 E9.42125
G1 X95.386 Y122.674 E9.44864
G1 X108.076 Y122.674 E9.95623
G1 X108.076 Y127.167 E10.13593
G1 X108.453 Y127.603 F9000.000
G1 X91.166 Y127.603 F4200.000 E10.82742
G1 X88.801 Y127.228 E10.92317
G1 X86.683 Y126.149 E11.01829
G1 X85.001 Y124.467 E11.11340
G1 X83.922 Y122.349 E11.20852
G1 X83.550 Y120.000 E11.30364
G1 X83.922 Y117.651 E11.39875
G1 X85.001 Y115.533 E11.49387
G1 X86.683 Y113.851 E11.58899
G1 X88.801 Y112.772 E11.68410
G1 X91.166 Y112.397 E11.77985
G1 X108.453 Y112.397 E12.47134
G1 X108.453 Y116.903 E12.65156
G1 X94.660 Y116.903 E13.20327
G1 X93.500 Y115.929 E13.26384
G1 X91.966 Y115.371 E13.32914
G1 X90.334 Y115.371 E13.39443
G1 X88.800 Y115.929 E13.45973
G1 X87.549 Y116.979 E13.52502
G1 X86.733 Y118.392 E13.59032
G1 X86.450 Y120.000 E13.65561
G1 X86.733 Y121.608 E13.72091
G1 X87.549 Y123.021 E13.78620
G1 X88.800 Y124.071 E13.85150
G1 X90.334 Y124.629 E13.91679
G1 X91.966 Y124.629 E13.98209
G1 X93.500 Y124.071 E14.04738
G1 X94.751 Y123.021 E14.11268
G1 X95.169 Y122.297 E14.14612
G1 X108.453 Y122.297 E14.67749
G1 X108.453 Y127.544 E14.88735
G1 X107.434 Y126.519 F9000.000
G1 X104.231 Y123.316 F4200.000 E15.07035
G1 X104.768 Y123.316 F9000.000
G1 X107.434 Y125.982 F4200.000 E15.22269
G1 X107.434 Y125.445 F9000.000
G1 X105.305 Y123.316 F4200.000 E15.34436
G1 X105.841 Y123.316 F9000.000
G1 X107.434 Y124.909 F4200.000 E15.43537
G1 X107.434 Y124.372 F9000.000
G1 X106.378 Y123.316 F4200.000 E15.49571
G1 X106.915 Y123.316 F9000.000
G1 X107.434 Y123.835 F4200.000 E15.52537
G1 X106.962 Y126.584 F9000.000
G1 X103.695 Y123.316 F4200.000 E15.71209
G1 X103.158 Y123.316 F9000.000
G1 X106.425 Y126.584 F4200.000 E15.89881
G1 X105.889 Y126.584 F9000.000
G1 X102.621 Y123.316 F4200.000 E16.08553
G1 X102.085 Y123.316 F9000.000
G1 X105.352 Y126.584 F4200.000 E16.27225
G1 X104.815 Y126.584 F9000.000
G1 X101.548 Y123.316 F4200.000 E16.45897
G1 X101.012 Y123.316 F9000.000
G1 X104.279 Y126.584 F4200.000 E16.64569
G1 X103.742 Y126.584 F9000.000
G1 X100.475 Y123.316 F4200.000 E16.83241
G1 X99.938 Y123.316 F9000.000
G1 X103.206 Y126.584 F4200.000 E17.01913
G1 X102.669 Y126.584 F9000.000
G1 X99.402 Y123.316 F4200.000 E17.20585
G1 X98.865 Y123.316 F9000.000
G1 X102.132 Y126.584 F4200.000 E17.39257
G1 X101.596 Y126.584 F9000.000
G1 X98.328 Y123.316 F4200.000 E17.57929
G1 X97.792 Y123.316 F9000.000
G1 X101.059 Y126.584 F4200.000 E17.76601
G1 X100.522 Y126.584 F9000.000
G1 X97.255 Y123.316 F4200.000 E17.95273
G1 X96.719 Y123.316 F9000.000
G1 X99.986 Y126.584 F4200.000 E18.13945
G1 X99.449 Y126.584 F9000.000
G1 X96.182 Y123.316 F4200.000 E18.32617
G1 X95.686 Y123.357 F9000.000
G1 X98.913 Y126.584 F4200.000 E18.51055
G1 X98.376 Y126.584 F9000.000
G1 X95.476 Y123.684 F4200.000 E18.67628
G1 X95.184 Y123.928 F9000.000
G1 X97.839 Y126.584 F4200.000 E18.82803
G1 X97.303 Y126.584 F9000.000
G1 X94.892 Y124.173 F4200.000 E18.96578
G1 X94.600 Y124.418 F9000.000
G1 X96.766 Y126.584 F4200.000 E19.08954
G1 X96.229 Y126.584 F9000.000
G1 X94.309 Y124.663 F4200.000 E19.19931
G1 X94.017 Y124.908 F9000.000
G1 X95.693 Y126.584 F4200.000 E19.29508
G1 X95.156 Y126.584 F9000.000
G1 X93.642 Y125.070 F4200.000 E19.38159
G1 X93.249 Y125.213 F9000.000
G1 X94.620 Y126.584 F4200.000 E19.45992
G1 X94.083 Y126.584 F9000.000
G1 X92.856 Y125.356 F4200.000 E19.53006
G1 X92.462 Y125.499 F9000.000
G1 X93.546 Y126.584 F4200.000 E19.59202
G1 X93.010 Y126.584 F9000.000
G1 X92.069 Y125.643 F4200.000 E19.64580
G1 X91.537 Y125.648 F9000.000
G1 X92.473 Y126.584 F4200.000 E19.69927
G1 X91.936 Y126.584 F9000.000
G1 X91.001 Y125.648 F4200.000 E19.75274
G1 X90.464 Y125.648 F9000.000
G1 X91.400 Y126.584 F4200.000 E19.80621
G1 X90.769 Y126.489 F9000.000
G1 X89.873 Y125.593 F4200.000 E19.85739
G1 X89.493 Y126.287 F9000.000
G1 X88.185 Y124.979 F4200.000 E19.93213
G1 X87.467 Y125.334 F9000.000
G1 X85.816 Y123.683 F4200.000 E20.02652
G1 X86.378 Y123.171 F9000.000
G1 X84.863 Y121.657 F4200.000 E20.11308
G1 X84.762 Y121.019 F9000.000
G1 X85.747 Y122.004 F4200.000 E20.16936
G1 X85.632 Y121.352 F9000.000
G1 X84.661 Y120.381 F4200.000 E20.22485
G1 X84.600 Y119.783 F9000.000
G1 X85.517 Y120.701 F4200.000 E20.27728
G1 X85.421 Y120.068 F9000.000
G1 X84.673 Y119.320 F4200.000 E20.32002
G1 X84.746 Y118.857 F9000.000
G1 X85.501 Y119.612 F4200.000 E20.36317
G1 X85.582 Y119.156 F9000.000
G1 X84.820 Y118.394 F4200.000 E20.40672
G1 X84.893 Y117.930 F9000.000
G1 X85.662 Y118.699 F4200.000 E20.45067
G1 X85.743 Y118.243 F9000.000
G1 X85.066 Y117.566 F4200.000 E20.48936
G1 X85.247 Y117.211 F9000.000
G1 X85.905 Y117.870 F4200.000 E20.52701
G1 X86.102 Y117.529 F9000.000
G1 X85.428 Y116.855 F4200.000 E20.56552
G1 X85.609 Y116.500 F9000.000
G1 X86.298 Y117.189 F4200.000 E20.60492
G1 X86.495 Y116.849 F9000.000
G1 X85.790 Y116.144 F4200.000 E20.64518
G1 X86.046 Y115.864 F9000.000
G1 X86.691 Y116.509 F4200.000 E20.68204
G1 X86.939 Y116.220 F9000.000
G1 X86.315 Y115.595 F4200.000 E20.71773
G1 X86.583 Y115.327 F9000.000
G1 X87.231 Y115.975 F4200.000 E20.75477
G1 X87.523 Y115.730 F9000.000
G1 X86.851 Y115.059 F4200.000 E20.79314
G1 X87.119 Y114.791 F9000.000
G1 X87.814 Y115.486 F4200.000 E20.83286
G1 X88.106 Y115.241 F9000.000
G1 X87.434 Y114.569 F4200.000 E20.87126
G1 X87.790 Y114.388 F9000.000
G1 X88.419 Y115.017 F4200.000 E20.90722
G1 X88.813 Y114.874 F9000.000
G1 X88.145 Y114.207 F4200.000 E20.94535
G1 X88.501 Y114.025 F9000.000
G1 X89.206 Y114.730 F4200.000 E20.98565
G1 X89.599 Y114.587 F9000.000
G1 X88.856 Y113.844 F4200.000 E21.02811
G1 X89.263 Y113.714 F9000.000
G1 X89.993 Y114.444 F4200.000 E21.06983
G1 X90.437 Y114.352 F9000.000
G1 X89.726 Y113.641 F4200.000 E21.11048
G1 X90.189 Y113.567 F9000.000
G1 X90.974 Y114.352 F4200.000 E21.15532
G1 X91.511 Y114.352 F9000.000
G1 X90.653 Y113.494 F4200.000 E21.20435
G1 X91.116 Y113.421 F9000.000
G1 X92.047 Y114.352 F4200.000 E21.25757
G1 X92.759 Y114.528 F9000.000
G1 X91.648 Y113.416 F4200.000 E21.32108
G1 X92.185 Y113.416 F9000.000
G1 X93.603 Y114.835 F4200.000 E21.40213
G1 X93.795 Y113.416 F9000.000
G1 X96.262 Y115.884 F4200.000 E21.54313
G1 X95.725 Y115.884 F9000.000
G1 X93.258 Y113.416 F4200.000 E21.68413
G1 X92.721 Y113.416 F9000.000
G1 X95.189 Y115.884 F4200.000 E21.82513
G1 X96.799 Y115.884 F9000.000
G1 X94.331 Y113.416 F4200.000 E21.96613
G1 X94.868 Y113.416 F9000.000
G1 X97.335 Y115.884 F4200.000 E22.10713
G1 X97.872 Y115.884 F9000.000
G1 X95.405 Y113.416 F4200.000 E22.24813
G1 X95.941 Y113.416 F9000.000
G1 X98.409 Y115.884 F4200.000 E22.38914
G1 X98.945 Y115.884 F9000.000
G1 X96.478 Y113.416 F4200.000 E22.53014
G1 X97.015 Y113.416 F9000.000
G1 X99.482 Y115.884 F4200.000 E22.67114
G1 X100.018 Y115.884 F9000.000
G1 X97.551 Y113.416 F4200.000 E22.81214
G1 X98.088 Y113.416 F9000.000
G1 X100.555 Y115.884 F4200.000 E22.95314
G1 X101.092 Y115.884 F9000.000
G1 X98.624 Y113.416 F4200.000 E23.09414
G1 X99.161 Y113.416 F9000.000
G1 X101.628 Y115.884 F4200.000 E23.23514
G1 X102.165 Y115.884 F9000.000
G1 X99.698 Y113.416 F4200.000 E23.37615
G1 X100.234 Y113.416 F9000.000
G1 X102.702 Y115.884 F4200.000 E23.51715
G1 X103.238 Y115.884 F9000.000
G1 X100.771 Y113.416 F4200.000 E23.65814
G1 X101.308 Y113.416 F9000.000
G1 X103.775 Y115.884 F4200.000 E23.79915
G1 X104.311 Y115.884 F9000.000
G1 X101.844 Y113.416 F4200.000 E23.94015
G1 X102.381 Y113.416 F9000.000
G1 X104.848 Y115.884 F4200.000 E24.08115
G1 X105.385 Y115.884 F9000.000
G1 X102.917 Y113.416 F4200.000 E24.22215
G1 X103.454 Y113.416 F9000.000
G1 X105.921 Y115.884 F4200.000 E24.36315
G1 X106.458 Y115.884 F9000.000
G1 X103.991 Y113.416 F4200.000 E24.50415
G1 X104.527 Y113.416 F9000.000
G1 X106.995 Y115.884 F4200.000 E24.64515
G1 X107.434 Y115.786 F9000.000
G1 X105.064 Y113.416 F4200.000 E24.78058
G1 X105.600 Y113.416 F9000.000
G1 X107.434 Y115.250 F4200.000 E24.88534
G1 X107.434 Y114.713 F9000.000
G1 X106.137 Y113.416 F4200.000 E24.95943
G1 X106.674 Y113.416 F9000.000
G1 X107.434 Y114.176 F4200.000 E25.00286
G1 X107.434 Y113.640 F9000.000
G1 X107.210 Y113.416 F4200.000 E25.01562
G1 F1800.000 E24.01562
G92 E0
G1 X90.131 Y126.388 F9000.000
G1 F1800.000 E1.00000
G1 X89.029 Y125.286 F4200.000 E1.06296
G1 X88.561 Y125.892 F9000.000
G1 X85.258 Y122.588 F4200.000 E1.25174
G1 F1800.000 E0.25174
G92 E0
G1 Z0.500 F9000.000
G1 X107.699 Y126.849
G1 F1800.000 E1.00000
G1 X91.225 Y126.849 F6000.000 E1.65896
G1 X89.037 Y126.502 E1.74756
G1 X87.131 Y125.531 E1.83312
G1 X85.619 Y124.019 E1.91869
G1 X84.648 Y122.113 E2.00425
G1 X84.313 Y120.000 E2.08982
G1 X84.648 Y117.887 E2.17538
G1 X85.619 Y115.981 E2.26094
G1 X87.131 Y114.469 E2.34651
G1 X89.037 Y113.498 E2.43207
G1 X91.225 Y113.151 E2.52067
G1 X107.699 Y113.151 E3.17963
G1 X107.699 Y116.149 E3.29955
G1 X94.934 Y116.149 E3.81012
G1 X93.883 Y115.267 E3.86504
G1 X92.099 Y114.617 E3.94096
G1 X90.201 Y114.617 E4.01689
G1 X88.417 Y115.267 E4.09282
G1 X86.963 Y116.487 E4.16875
G1 X86.014 Y118.131 E4.24468
G1 X85.684 Y120.000 E4.32061
G1 X86.014 Y121.869 E4.39654
G1 X86.963 Y123.513 E4.47247
G1 X88.417 Y124.733 E4.54840
G1 X90.201 Y125.383 E4.62433
G1 X92.099 Y125.383 E4.70026
G1 X93.883 Y124.733 E4.77619
G1 X95.337 Y123.513 E4.85212
G1 X95.604 Y123.051 E4.87347
G1 X107.699 Y123.051 E5.35727
G1 X107.699 Y126.790 E5.50682
