; generated by Slic3r 0.7.1 on 2012-05-12 at 11:45:58

; layer_height = 0.4
; perimeters = 3
; solid_layers = 3
; fill_density = 0.4
; nozzle_diameter = 0.5
; filament_diameter = 3
; extrusion_multiplier = 1
; perimeter_speed = 30
; infill_speed = 60
; travel_speed = 130
; extrusion_width_ratio = 0
; scale = 1
; single wall width = 0.53mm

M190 S30 ; set bed temperature
M104 S30 ; set temperature
G28 ; home all axes
M109 S30 ; wait for temperature to be reached
G90 ; use absolute coordinates
G21 ; set units to millimeters
G92 E0 ; reset extrusion distance
M82 ; use absolute distances for extrusion
G1 Z0.400 F7800.000
G1 X84.810 Y91.330
G1 F1800.000 E1.00000
G1 X86.710 Y89.440 F540.000 E1.07880
G1 X86.940 Y89.240 E1.08777
G1 X87.450 Y88.870 E1.10629
G1 X87.720 Y88.700 E1.11568
G1 X90.380 Y87.350 E1.20339
G1 X90.970 Y87.120 E1.22201
G1 X91.270 Y87.030 E1.23122
G1 X94.240 Y86.530 E1.31979
G1 X95.170 Y86.460 E1.34721
G1 X112.890 Y86.480 E1.86827
G1 X113.640 Y86.590 E1.89056
G1 X114.140 Y86.720 E1.90575
G1 X114.620 Y86.890 E1.92073
G1 X115.080 Y87.100 E1.93560
G1 X115.310 Y87.220 E1.94323
G1 X115.530 Y87.350 E1.95074
G1 X116.150 Y87.790 E1.97310
G1 X116.530 Y88.130 E1.98809
G1 X116.710 Y88.310 E1.99557
G1 X117.050 Y88.690 E2.01057
G1 X117.490 Y89.310 E2.03292
G1 X117.620 Y89.530 E2.04044
G1 X117.850 Y89.990 E2.05556
G1 X118.040 Y90.460 E2.07047
G1 X118.190 Y90.950 E2.08554
G1 X118.250 Y91.200 E2.09310
G1 X118.360 Y91.950 E2.11539
G1 X118.360 Y108.040 E2.58852
G1 X118.250 Y108.790 E2.61081
G1 X118.120 Y109.290 E2.62600
G1 X117.950 Y109.770 E2.64097
G1 X117.740 Y110.230 E2.65584
G1 X117.620 Y110.460 E2.66347
G1 X117.490 Y110.680 E2.67099
G1 X117.050 Y111.300 E2.69334
G1 X116.710 Y111.680 E2.70834
G1 X116.530 Y111.860 E2.71582
G1 X116.150 Y112.200 E2.73081
G1 X115.530 Y112.640 E2.75317
G1 X115.310 Y112.770 E2.76068
G1 X114.850 Y113.000 E2.77581
G1 X114.380 Y113.190 E2.79071
G1 X113.890 Y113.340 E2.80578
G1 X113.640 Y113.400 E2.81334
G1 X112.890 Y113.510 E2.83563
G1 X112.380 Y113.530 E2.85064
G1 X95.170 Y113.530 E3.35671
G1 X94.240 Y113.460 E3.38413
G1 X91.580 Y113.030 E3.46337
G1 X91.270 Y112.960 E3.47271
G1 X90.970 Y112.870 E3.48192
G1 X90.380 Y112.640 E3.50054
G1 X87.720 Y111.290 E3.58826
G1 X87.190 Y110.940 E3.60693
G1 X86.940 Y110.750 E3.61617
G1 X84.590 Y108.430 E3.71327
G1 X84.390 Y108.200 E3.72223
G1 X84.020 Y107.690 E3.74076
G1 X83.850 Y107.420 E3.75014
G1 X82.500 Y104.760 E3.83786
G1 X82.270 Y104.180 E3.85620
G1 X82.110 Y103.570 E3.87475
G1 X81.640 Y100.630 E3.96230
G1 X81.610 Y100.000 E3.98084
G1 X81.640 Y99.370 E3.99939
G1 X82.110 Y96.420 E4.08723
G1 X82.180 Y96.120 E4.09629
G1 X82.270 Y95.810 E4.10578
G1 X82.500 Y95.230 E4.12413
G1 X83.850 Y92.570 E4.21184
G1 X84.200 Y92.040 E4.23052
G1 X84.390 Y91.790 E4.23975
G1 X84.756 Y91.387 E4.25575
G1 F1800.000 E3.25575
G92 E0
G1 X89.899 Y96.185 F7800.000
G1 F1800.000 E1.00000
G1 X91.335 Y94.749 F540.000 E1.05972
G1 X93.144 Y93.827 E1.11943
G1 X95.252 Y93.493 E1.18218
G1 X111.357 Y93.493 E1.65577
G1 X111.357 Y95.807 E1.72382
G1 X99.059 Y95.807 E2.08545
G1 X98.056 Y94.966 E2.12393
G1 X96.159 Y94.275 E2.18329
G1 X94.141 Y94.275 E2.24266
G1 X92.244 Y94.966 E2.30202
G1 X90.697 Y96.264 E2.36138
G1 X89.688 Y98.012 E2.42075
G1 X89.337 Y100.000 E2.48011
G1 X89.688 Y101.988 E2.53947
G1 X90.697 Y103.736 E2.59883
G1 X92.244 Y105.034 E2.65820
G1 X94.141 Y105.725 E2.71756
G1 X96.159 Y105.725 E2.77692
G1 X98.056 Y105.034 E2.83628
G1 X99.603 Y103.736 E2.89565
G1 X99.801 Y103.393 E2.90731
G1 X111.357 Y103.393 E3.24712
G1 X111.357 Y106.507 E3.33869
G1 X95.252 Y106.507 E3.81228
G1 X93.144 Y106.173 E3.87502
G1 X91.335 Y105.251 E3.93474
G1 X89.899 Y103.815 E3.99446
G1 X88.977 Y102.006 E4.05417
G1 X88.659 Y100.000 E4.11389
G1 X88.977 Y97.994 E4.17361
G1 X89.863 Y96.255 E4.23101
G1 X89.477 Y95.878 F7800.000
G1 X91.028 Y94.327 F540.000 E4.29553
G1 X92.983 Y93.331 E4.36004
G1 X95.211 Y92.978 E4.42638
G1 X111.872 Y92.978 E4.91631
G1 X111.872 Y96.322 E5.01466
G1 X98.871 Y96.322 E5.39695
G1 X97.795 Y95.419 E5.43828
G1 X96.069 Y94.791 E5.49230
G1 X94.231 Y94.791 E5.54632
G1 X92.505 Y95.419 E5.60034
G1 X91.098 Y96.600 E5.65436
G1 X90.179 Y98.191 E5.70838
G1 X89.860 Y100.000 E5.76240
G1 X90.179 Y101.809 E5.81642
G1 X91.098 Y103.400 E5.87044
G1 X92.505 Y104.581 E5.92446
G1 X94.231 Y105.209 E5.97848
G1 X96.069 Y105.209 E6.03250
G1 X97.795 Y104.581 E6.08652
G1 X99.202 Y103.400 E6.14054
G1 X99.504 Y102.878 E6.15828
G1 X111.872 Y102.878 E6.52198
G1 X111.872 Y107.022 E6.64386
G1 X95.211 Y107.022 E7.13378
G1 X92.983 Y106.669 E7.20012
G1 X91.028 Y105.673 E7.26464
G1 X89.477 Y104.122 E7.32915
G1 X88.481 Y102.167 E7.39367
G1 X88.137 Y100.000 E7.45818
G1 X88.481 Y97.833 E7.52270
G1 X89.441 Y95.948 E7.58490
G1 X89.055 Y95.571 F7800.000
G1 X90.721 Y93.905 F540.000 E7.65422
G1 X92.822 Y92.835 E7.72353
G1 X95.171 Y92.463 E7.79346
G1 X112.387 Y92.463 E8.29973
G1 X112.387 Y96.838 E8.42838
G1 X98.684 Y96.838 E8.83134
G1 X97.533 Y95.872 E8.87550
G1 X95.978 Y95.306 E8.92418
G1 X94.322 Y95.306 E8.97286
G1 X92.767 Y95.872 E9.02153
G1 X91.499 Y96.936 E9.07021
G1 X90.671 Y98.370 E9.11889
G1 X90.383 Y100.000 E9.16757
G1 X90.671 Y101.630 E9.21625
G1 X91.499 Y103.064 E9.26492
G1 X92.767 Y104.128 E9.31360
G1 X94.322 Y104.694 E9.36228
G1 X95.978 Y104.694 E9.41096
G1 X97.533 Y104.128 E9.45963
G1 X98.801 Y103.064 E9.50831
G1 X99.206 Y102.362 E9.53213
G1 X112.387 Y102.362 E9.91972
G1 X112.387 Y107.538 E10.07190
G1 X95.171 Y107.538 E10.57816
G1 X92.822 Y107.165 E10.64809
G1 X90.721 Y106.095 E10.71741
G1 X89.055 Y104.429 E10.78672
G1 X87.985 Y102.328 E10.85604
G1 X87.616 Y100.000 E10.92535
G1 X87.985 Y97.672 E10.99467
G1 X89.019 Y95.642 E11.06167
G1 F1800.000 E10.06167
G92 E0
G1 X98.114 Y105.359 F7800.000
G1 F1800.000 E1.00000
G1 X98.895 Y106.140 F1080.000 E1.03253
G1 X98.166 Y106.140 E1.05398
G1 X97.579 Y105.553 E1.07841
G1 X97.045 Y105.748 E1.09515
G1 X97.437 Y106.140 E1.11149
G1 X98.524 Y105.041 F7800.000
G1 X99.624 Y106.140 F1080.000 E1.15726
G1 X100.353 Y106.140 E1.17871
G1 X98.921 Y104.708 E1.23833
G1 X99.317 Y104.375 F7800.000
G1 X101.082 Y106.140 F1080.000 E1.31178
G1 X101.811 Y106.140 E1.33324
G1 X99.714 Y104.043 E1.42053
G1 X100.159 Y103.760 F7800.000
G1 X102.540 Y106.140 F1080.000 E1.51962
G1 X103.269 Y106.140 E1.54108
G1 X100.888 Y103.760 E1.64017
G1 X101.617 Y103.760 E1.66162
G1 X103.998 Y106.140 E1.76071
G1 X104.727 Y106.140 E1.78216
G1 X102.346 Y103.760 E1.88126
G1 X103.075 Y103.760 E1.90271
G1 X105.456 Y106.140 E2.00180
G1 X106.185 Y106.140 E2.02325
G1 X103.804 Y103.760 E2.12234
G1 X104.533 Y103.760 E2.14380
G1 X106.914 Y106.140 E2.24289
G1 X107.643 Y106.140 E2.26434
G1 X105.262 Y103.760 E2.36343
G1 X105.991 Y103.760 E2.38488
G1 X108.372 Y106.140 E2.48398
G1 X109.101 Y106.140 E2.50543
G1 X106.720 Y103.760 E2.60452
G1 X107.449 Y103.760 E2.62597
G1 X109.830 Y106.140 E2.72506
G1 X110.559 Y106.140 E2.74652
G1 X108.178 Y103.760 E2.84561
G1 X108.907 Y103.760 E2.86706
G1 X110.990 Y105.843 E2.95379
G1 X110.990 Y105.114 E2.97524
G1 X109.636 Y103.760 E3.03163
G1 X110.365 Y103.760 E3.05308
G1 X110.990 Y104.385 E3.07913
G1 F1800.000 E2.07913
G92 E0
G1 X110.360 Y93.860 F7800.000
G1 F1800.000 E1.00000
G1 X110.990 Y94.490 F1080.000 E1.02648
G1 X110.990 Y95.223 E1.04826
G1 X109.627 Y93.860 E1.10553
G1 X108.894 Y93.860 E1.12731
G1 X110.475 Y95.440 E1.19372
G1 X109.741 Y95.440 E1.21550
G1 X108.160 Y93.860 E1.28191
G1 X107.427 Y93.860 E1.30369
G1 X109.008 Y95.440 E1.37010
G1 X108.275 Y95.440 E1.39188
G1 X106.694 Y93.860 E1.45828
G1 X105.960 Y93.860 E1.48006
G1 X107.541 Y95.440 E1.54647
G1 X106.808 Y95.440 E1.56825
G1 X105.227 Y93.860 E1.63466
G1 X104.494 Y93.860 E1.65644
G1 X106.075 Y95.440 E1.72284
G1 X105.341 Y95.440 E1.74462
G1 X103.760 Y93.860 E1.81103
G1 X103.027 Y93.860 E1.83281
G1 X104.608 Y95.440 E1.89922
G1 X103.875 Y95.440 E1.92100
G1 X102.294 Y93.860 E1.98741
G1 X101.561 Y93.860 E2.00919
G1 X103.142 Y95.440 E2.07559
G1 X102.408 Y95.440 E2.09737
G1 X100.827 Y93.860 E2.16378
G1 X100.094 Y93.860 E2.18556
G1 X101.675 Y95.440 E2.25197
G1 X100.942 Y95.440 E2.27375
G1 X99.361 Y93.860 E2.34016
G1 X98.627 Y93.860 E2.36194
G1 X100.208 Y95.440 E2.42834
G1 X99.475 Y95.440 E2.45012
G1 X97.894 Y93.860 E2.51653
G1 X97.161 Y93.860 E2.53831
G1 X97.674 Y94.373 E2.55988
G1 F1800.000 E1.55988
G92 E0
G1 Z0.800 F7800.000
G1 X98.056 Y94.966
G1 F1800.000 E1.00000
G1 X96.159 Y94.275 F1800.000 E1.05936
G1 X94.141 Y94.275 E1.11873
G1 X92.244 Y94.966 E1.17809
G1 X90.697 Y96.264 E1.23745
G1 X89.688 Y98.012 E1.29681
G1 X89.337 Y100.000 E1.35618
G1 X89.688 Y101.988 E1.41554
G1 X90.697 Y103.736 E1.47490
G1 X92.244 Y105.034 E1.53426
G1 X94.141 Y105.725 E1.59363
G1 X96.159 Y105.725 E1.65299
G1 X98.056 Y105.034 E1.71235
G1 X99.603 Y103.736 E1.77171
G1 X99.801 Y103.393 E1.78338
G1 X111.357 Y103.393 E2.12318
G1 X111.357 Y106.507 E2.21476
G1 X95.252 Y106.507 E2.68834
G1 X93.144 Y106.173 E2.75109
G1 X91.335 Y105.251 E2.81081
G1 X89.899 Y103.815 E2.87052
G1 X88.977 Y102.006 E2.93024
G1 X88.659 Y100.000 E2.98996
G1 X88.977 Y97.994 E3.04968
G1 X89.899 Y96.185 E3.10939
G1 X91.335 Y94.749 E3.16911
G1 X93.144 Y93.827 E3.22883
G1 X95.252 Y93.493 E3.29158
G1 X111.357 Y93.493 E3.76516
G1 X111.357 Y95.807 E3.83321
G1 X99.059 Y95.807 E4.19485
G1 X98.117 Y95.017 E4.23101
G1 X97.795 Y95.419 F7800.000
G1 X96.069 Y94.791 F1800.000 E4.28503
G1 X94.231 Y94.791 E4.33905
G1 X92.505 Y95.419 E4.39307
G1 X91.098 Y96.600 E4.44709
G1 X90.179 Y98.191 E4.50111
G1 X89.860 Y100.000 E4.55513
G1 X90.179 Y101.809 E4.60915
G1 X91.098 Y103.400 E4.66317
G1 X92.505 Y104.581 E4.71719
G1 X94.231 Y105.209 E4.77121
G1 X96.069 Y105.209 E4.82523
G1 X97.795 Y104.581 E4.87925
G1 X99.202 Y103.400 E4.93327
G1 X99.504 Y102.878 E4.95101
G1 X111.872 Y102.878 E5.31471
G1 X111.872 Y107.022 E5.43659
G1 X95.211 Y107.022 E5.92651
G1 X92.983 Y106.669 E5.99285
G1 X91.028 Y105.673 E6.05737
G1 X89.477 Y104.122 E6.12188
G1 X88.481 Y102.167 E6.18640
G1 X88.137 Y100.000 E6.25092
G1 X88.481 Y97.833 E6.31543
G1 X89.477 Y95.878 E6.37995
G1 X91.028 Y94.327 E6.44447
G1 X92.983 Y93.331 E6.50898
G1 X95.211 Y92.978 E6.57532
G1 X111.872 Y92.978 E7.06525
G1 X111.872 Y96.322 E7.16360
G1 X98.871 Y96.322 E7.54589
G1 X97.855 Y95.470 E7.58490
G1 X97.533 Y95.872 F7800.000
G1 X95.978 Y95.306 F1800.000 E7.63358
G1 X94.322 Y95.306 E7.68226
G1 X92.767 Y95.872 E7.73093
G1 X91.499 Y96.936 E7.77961
G1 X90.671 Y98.370 E7.82829
G1 X90.383 Y100.000 E7.87697
G1 X90.671 Y101.630 E7.92564
G1 X91.499 Y103.064 E7.97432
G1 X92.767 Y104.128 E8.02300
G1 X94.322 Y104.694 E8.07168
G1 X95.978 Y104.694 E8.12036
G1 X97.533 Y104.128 E8.16903
G1 X98.801 Y103.064 E8.21771
G1 X99.206 Y102.362 E8.24153
G1 X112.387 Y102.362 E8.62912
G1 X112.387 Y107.538 E8.78130
G1 X95.171 Y107.538 E9.28756
G1 X92.822 Y107.165 E9.35749
G1 X90.721 Y106.095 E9.42681
G1 X89.055 Y104.429 E9.49612
G1 X87.985 Y102.328 E9.56544
G1 X87.616 Y100.000 E9.63475
G1 X87.985 Y97.672 E9.70407
G1 X89.055 Y95.571 E9.77338
G1 X90.721 Y93.905 E9.84270
G1 X92.822 Y92.835 E9.91201
G1 X95.171 Y92.463 E9.98194
G1 X112.387 Y92.463 E10.48821
G1 X112.387 Y96.838 E10.61686
G1 X98.684 Y96.838 E11.01982
G1 X97.594 Y95.923 E11.06167
G1 F1800.000 E10.06167
G92 E0
G1 X100.272 Y103.760 F7800.000
G1 F1800.000 E1.00000
G1 X99.916 Y104.116 F3600.000 E1.01496
G1 X99.875 Y104.157 F7800.000
G1 X97.891 Y106.140 F3600.000 E1.09833
G1 X98.625 Y106.140 E1.12012
G1 X101.006 Y103.760 E1.22016
G1 X101.739 Y103.760 E1.24196
G1 X99.358 Y106.140 E1.34200
G1 X100.092 Y106.140 E1.36380
G1 X102.473 Y103.760 E1.46384
G1 X103.206 Y103.760 E1.48564
G1 X100.825 Y106.140 E1.58568
G1 X101.558 Y106.140 E1.60747
G1 X103.939 Y103.760 E1.70752
G1 X104.673 Y103.760 E1.72931
G1 X102.292 Y106.140 E1.82936
G1 X103.025 Y106.140 E1.85115
G1 X105.406 Y103.760 E1.95120
G1 X106.140 Y103.760 E1.97299
G1 X103.759 Y106.140 E2.07304
G1 X104.492 Y106.140 E2.09483
G1 X106.873 Y103.760 E2.19488
G1 X107.607 Y103.760 E2.21667
G1 X105.226 Y106.140 E2.31672
G1 X105.959 Y106.140 E2.33851
G1 X108.340 Y103.760 E2.43856
G1 X109.074 Y103.760 E2.46035
G1 X106.693 Y106.140 E2.56039
G1 X107.426 Y106.140 E2.58219
G1 X109.807 Y103.760 E2.68223
G1 X110.541 Y103.760 E2.70403
G1 X108.160 Y106.140 E2.80407
G1 X108.893 Y106.140 E2.82587
G1 X110.990 Y104.043 E2.91400
G1 X110.990 Y104.777 E2.93579
G1 X109.627 Y106.140 E2.99310
G1 X110.360 Y106.140 E3.01489
G1 X110.990 Y105.510 E3.04138
G1 F1800.000 E2.04138
G92 E0
G1 X97.670 Y105.629 F7800.000
G1 F1800.000 E1.00000
G1 X97.158 Y106.140 F3600.000 E1.02151
G1 F1800.000 E0.02151
G92 E0
G1 X99.005 Y95.362 F7800.000
G1 F1800.000 E1.00000
G1 X100.508 Y93.860 F3600.000 E1.06675
G1 X99.748 Y93.860 E1.09064
G1 X98.591 Y95.016 E1.14198
G1 X98.178 Y94.669 F7800.000
G1 X98.987 Y93.860 F3600.000 E1.17791
G1 X98.227 Y93.860 E1.20180
G1 X97.624 Y94.463 E1.22859
G1 X97.066 Y94.260 E1.24722
G1 X97.466 Y93.860 E1.26500
G1 X99.687 Y95.440 F7800.000
G1 X101.268 Y93.860 F3600.000 E1.33521
G1 X102.029 Y93.860 E1.35909
G1 X100.448 Y95.440 E1.42931
G1 X101.208 Y95.440 E1.45319
G1 X102.789 Y93.860 E1.52341
G1 X103.550 Y93.860 E1.54729
G1 X101.969 Y95.440 E1.61751
G1 X102.729 Y95.440 E1.64139
G1 X104.310 Y93.860 E1.71161
G1 X105.070 Y93.860 E1.73549
G1 X103.489 Y95.440 E1.80571
G1 X104.250 Y95.440 E1.82959
G1 X105.831 Y93.860 E1.89980
G1 X106.591 Y93.860 E1.92369
G1 X105.010 Y95.440 E1.99390
G1 X105.771 Y95.440 E2.01778
G1 X107.352 Y93.860 E2.08800
G1 X108.112 Y93.860 E2.11188
G1 X106.531 Y95.440 E2.18210
G1 X107.291 Y95.440 E2.20598
G1 X108.872 Y93.860 E2.27620
G1 X109.633 Y93.860 E2.30008
G1 X108.052 Y95.440 E2.37030
G1 X108.812 Y95.440 E2.39418
G1 X110.393 Y93.860 E2.46440
G1 X110.990 Y94.023 E2.48384
G1 X109.573 Y95.440 E2.54681
G1 X110.333 Y95.440 E2.57069
G1 X110.990 Y94.783 E2.59989
G1 F1800.000 E1.59989
G92 E0
G1 Z1.200 F7800.000
G1 X111.357 Y95.807
G1 F1800.000 E1.00000
G1 X99.059 Y95.807 F1800.000 E1.36163
G1 X98.056 Y94.966 E1.40012
G1 X96.159 Y94.275 E1.45948
G1 X94.141 Y94.275 E1.51884
G1 X92.244 Y94.966 E1.57820
G1 X90.697 Y96.264 E1.63757
G1 X89.688 Y98.012 E1.69693
G1 X89.337 Y100.000 E1.75629
G1 X89.688 Y101.988 E1.81565
G1 X90.697 Y103.736 E1.87502
G1 X92.244 Y105.034 E1.93438
G1 X94.141 Y105.725 E1.99374
G1 X96.159 Y105.725 E2.05310
G1 X98.056 Y105.034 E2.11247
G1 X99.603 Y103.736 E2.17183
G1 X99.801 Y103.393 E2.18349
G1 X111.357 Y103.393 E2.52330
G1 X111.357 Y106.507 E2.61487
G1 X95.252 Y106.507 E3.08846
G1 X93.144 Y106.173 E3.15120
G1 X91.335 Y105.251 E3.21092
G1 X89.899 Y103.815 E3.27064
G1 X88.977 Y102.006 E3.33036
G1 X88.659 Y100.000 E3.39007
G1 X88.977 Y97.994 E3.44979
G1 X89.899 Y96.185 E3.50951
G1 X91.335 Y94.749 E3.56923
G1 X93.144 Y93.827 E3.62894
G1 X95.252 Y93.493 E3.69169
G1 X111.357 Y93.493 E4.16528
G1 X111.357 Y95.728 E4.23101
G1 X111.872 Y96.322 F7800.000
G1 X98.871 Y96.322 F1800.000 E4.61331
G1 X97.795 Y95.419 E4.65463
G1 X96.069 Y94.791 E4.70865
G1 X94.231 Y94.791 E4.76267
G1 X92.505 Y95.419 E4.81669
G1 X91.098 Y96.600 E4.87071
G1 X90.179 Y98.191 E4.92473
G1 X89.860 Y100.000 E4.97875
G1 X90.179 Y101.809 E5.03277
G1 X91.098 Y103.400 E5.08679
G1 X92.505 Y104.581 E5.14081
G1 X94.231 Y105.209 E5.19483
G1 X96.069 Y105.209 E5.24885
G1 X97.795 Y104.581 E5.30287
G1 X99.202 Y103.400 E5.35689
G1 X99.504 Y102.878 E5.37463
G1 X111.872 Y102.878 E5.73833
G1 X111.872 Y107.022 E5.86021
G1 X95.211 Y107.022 E6.35013
G1 X92.983 Y106.669 E6.41647
G1 X91.028 Y105.673 E6.48099
G1 X89.477 Y104.122 E6.54551
G1 X88.481 Y102.167 E6.61002
G1 X88.137 Y100.000 E6.67454
G1 X88.481 Y97.833 E6.73905
G1 X89.477 Y95.878 E6.80357
G1 X91.028 Y94.327 E6.86809
G1 X92.983 Y93.331 E6.93260
G1 X95.211 Y92.978 E6.99894
G1 X111.872 Y92.978 E7.48887
G1 X111.872 Y96.244 E7.58490
G1 X112.387 Y96.838 F7800.000
G1 X98.684 Y96.838 F1800.000 E7.98786
G1 X97.533 Y95.872 E8.03203
G1 X95.978 Y95.306 E8.08070
G1 X94.322 Y95.306 E8.12938
G1 X92.767 Y95.872 E8.17806
G1 X91.499 Y96.936 E8.22674
G1 X90.671 Y98.370 E8.27542
G1 X90.383 Y100.000 E8.32409
G1 X90.671 Y101.630 E8.37277
G1 X91.499 Y103.064 E8.42145
G1 X92.767 Y104.128 E8.47013
G1 X94.322 Y104.694 E8.51880
G1 X95.978 Y104.694 E8.56748
G1 X97.533 Y104.128 E8.61616
G1 X98.801 Y103.064 E8.66484
