; generated by Slic3r 0.7.1 on 2012-06-04 at 22:41:04

; layer_height = .25
; perimeters = 2
; solid_layers = 3
; fill_density = .20
; nozzle_diameter = .35
; filament_diameter = 1.75
; extrusion_multiplier = 1
; perimeter_speed = 100
; infill_speed = 125
; travel_speed = 150
; extrusion_width_ratio = 0
; scale = 1.0
; single wall width = 0.39mm

M190 S100 ; set bed temperature
M104 S225 ; set temperature
G28 ; home all axes
M109 S225 ; wait for temperature to be reached
G90 ; use absolute coordinates
G21 ; set units to millimeters
G92 E0 ; reset extrusion distance
M82 ; use absolute distances for extrusion
G1 Z0.400 F9000.000
G1 X44.685 Y100.848
G1 F1800.000 E1.50000
G1 X44.865 Y100.668 F4200.000 E1.51018
G1 X45.245 Y100.328 E1.53058
G1 X45.865 Y99.888 E1.56099
G1 X46.085 Y99.758 E1.57121
G1 X46.545 Y99.528 E1.59178
G1 X47.015 Y99.338 E1.61206
G1 X47.505 Y99.188 E1.63256
G1 X47.755 Y99.128 E1.64284
G1 X48.505 Y99.018 E1.67316
G1 X49.015 Y98.998 E1.69358
G1 X151.485 Y99.018 E5.79238
G1 X152.235 Y99.128 E5.82270
G1 X152.735 Y99.258 E5.84336
G1 X153.215 Y99.428 E5.86373
G1 X153.675 Y99.638 E5.88396
G1 X153.905 Y99.758 E5.89434
G1 X154.125 Y99.888 E5.90456
G1 X154.745 Y100.328 E5.93497
G1 X155.125 Y100.668 E5.95537
G1 X155.305 Y100.848 E5.96555
G1 X155.645 Y101.228 E5.98594
G1 X156.085 Y101.848 E6.01635
G1 X156.215 Y102.068 E6.02658
G1 X156.445 Y102.528 E6.04715
G1 X156.635 Y102.998 E6.06743
G1 X156.785 Y103.488 E6.08792
G1 X156.845 Y103.738 E6.09821
G1 X156.955 Y104.488 E6.12853
G1 X156.955 Y135.498 E7.36893
G1 X156.845 Y136.248 E7.39925
G1 X156.715 Y136.748 E7.41991
G1 X156.545 Y137.228 E7.44028
G1 X156.335 Y137.688 E7.46051
G1 X156.215 Y137.918 E7.47089
G1 X156.085 Y138.138 E7.48111
G1 X155.645 Y138.758 E7.51152
G1 X155.305 Y139.138 E7.53191
G1 X155.125 Y139.318 E7.54210
G1 X154.745 Y139.658 E7.56249
G1 X154.125 Y140.098 E7.59290
G1 X153.905 Y140.228 E7.60312
G1 X153.445 Y140.458 E7.62370
G1 X152.975 Y140.648 E7.64397
G1 X152.485 Y140.798 E7.66447
G1 X152.235 Y140.858 E7.67476
G1 X151.485 Y140.968 E7.70508
G1 X150.975 Y140.988 E7.72549
G1 X48.505 Y140.968 E11.82429
G1 X47.755 Y140.858 E11.85461
G1 X47.255 Y140.728 E11.87528
G1 X46.775 Y140.558 E11.89565
G1 X46.315 Y140.348 E11.91587
G1 X46.085 Y140.228 E11.92625
G1 X45.865 Y140.098 E11.93647
G1 X45.245 Y139.658 E11.96688
G1 X44.865 Y139.318 E11.98728
G1 X44.685 Y139.138 E11.99746
G1 X44.345 Y138.758 E12.01786
G1 X43.905 Y138.138 E12.04827
G1 X43.775 Y137.918 E12.05849
G1 X43.545 Y137.458 E12.07906
G1 X43.355 Y136.988 E12.09934
G1 X43.205 Y136.498 E12.11984
G1 X43.145 Y136.248 E12.13012
G1 X43.035 Y135.498 E12.16044
G1 X43.035 Y104.488 E13.40084
G1 X43.145 Y103.738 E13.43116
G1 X43.275 Y103.238 E13.45183
G1 X43.445 Y102.758 E13.47220
G1 X43.655 Y102.298 E13.49242
G1 X43.775 Y102.068 E13.50280
G1 X43.905 Y101.848 E13.51302
G1 X44.345 Y101.228 E13.54343
G1 X44.646 Y100.892 E13.56146
G1 F1800.000 E12.06146
G92 E0
G1 X91.188 Y110.544 F9000.000
G1 F1800.000 E1.50000
G1 X91.232 Y110.368 F4200.000 E1.50725
G1 X91.293 Y110.197 E1.51450
G1 X91.371 Y110.033 E1.52176
G1 X91.464 Y109.878 E1.52901
G1 X91.572 Y109.732 E1.53626
G1 X91.694 Y109.598 E1.54351
G1 X91.828 Y109.476 E1.55076
G1 X91.974 Y109.368 E1.55802
G1 X92.129 Y109.275 E1.56527
G1 X92.293 Y109.197 E1.57252
G1 X92.464 Y109.136 E1.57977
G1 X92.640 Y109.092 E1.58702
G1 X92.819 Y109.065 E1.59427
G1 X93.000 Y109.057 E1.60153
G1 X93.181 Y109.065 E1.60878
G1 X93.360 Y109.092 E1.61603
G1 X93.536 Y109.136 E1.62328
G1 X93.707 Y109.197 E1.63053
G1 X93.871 Y109.275 E1.63779
G1 X94.026 Y109.368 E1.64504
G1 X94.172 Y109.476 E1.65229
G1 X94.306 Y109.598 E1.65954
G1 X94.428 Y109.732 E1.66679
G1 X94.536 Y109.878 E1.67405
G1 X94.629 Y110.033 E1.68130
G1 X94.707 Y110.197 E1.68855
G1 X94.768 Y110.368 E1.69580
G1 X94.812 Y110.544 E1.70305
G1 X94.839 Y110.723 E1.71030
G1 X94.847 Y110.904 E1.71756
G1 X94.839 Y111.085 E1.72481
G1 X94.812 Y111.264 E1.73206
G1 X94.768 Y111.440 E1.73931
G1 X94.707 Y111.611 E1.74656
G1 X94.629 Y111.775 E1.75382
G1 X94.536 Y111.930 E1.76107
G1 X94.428 Y112.076 E1.76832
G1 X94.306 Y112.210 E1.77557
G1 X94.172 Y112.332 E1.78282
G1 X94.026 Y112.440 E1.79008
G1 X93.871 Y112.533 E1.79733
G1 X93.707 Y112.611 E1.80458
G1 X93.536 Y112.672 E1.81183
G1 X93.360 Y112.716 E1.81908
G1 X93.181 Y112.743 E1.82634
G1 X93.000 Y112.751 E1.83359
G1 X92.819 Y112.743 E1.84084
G1 X92.640 Y112.716 E1.84809
G1 X92.464 Y112.672 E1.85534
G1 X92.293 Y112.611 E1.86259
G1 X92.129 Y112.533 E1.86985
G1 X91.974 Y112.440 E1.87710
G1 X91.828 Y112.332 E1.88435
G1 X91.694 Y112.210 E1.89160
G1 X91.572 Y112.076 E1.89885
G1 X91.464 Y111.930 E1.90611
G1 X91.371 Y111.775 E1.91336
G1 X91.293 Y111.611 E1.92061
G1 X91.232 Y111.440 E1.92786
G1 X91.188 Y111.264 E1.93511
G1 X91.161 Y111.085 E1.94237
G1 X91.153 Y110.904 E1.94962
G1 X91.161 Y110.723 E1.95687
G1 X91.179 Y110.602 E1.96175
G1 X90.818 Y110.470 F9000.000
G1 X90.871 Y110.258 F4200.000 E1.97049
G1 X90.945 Y110.053 E1.97922
G1 X91.038 Y109.855 E1.98796
G1 X91.150 Y109.668 E1.99669
G1 X91.280 Y109.493 E2.00542
G1 X91.427 Y109.331 E2.01416
G1 X91.589 Y109.184 E2.02289
G1 X91.764 Y109.054 E2.03162
G1 X91.951 Y108.942 E2.04036
G1 X92.149 Y108.849 E2.04909
G1 X92.354 Y108.775 E2.05782
G1 X92.566 Y108.722 E2.06656
G1 X92.782 Y108.690 E2.07529
G1 X93.000 Y108.679 E2.08402
G1 X93.218 Y108.690 E2.09275
G1 X93.434 Y108.722 E2.10149
G1 X93.646 Y108.775 E2.11022
G1 X93.851 Y108.849 E2.11896
G1 X94.049 Y108.942 E2.12769
G1 X94.236 Y109.054 E2.13642
G1 X94.411 Y109.184 E2.14516
G1 X94.573 Y109.331 E2.15389
G1 X94.720 Y109.493 E2.16262
G1 X94.850 Y109.668 E2.17135
G1 X94.962 Y109.855 E2.18009
G1 X95.055 Y110.053 E2.18882
G1 X95.129 Y110.258 E2.19756
G1 X95.182 Y110.470 E2.20629
G1 X95.214 Y110.686 E2.21502
G1 X95.225 Y110.904 E2.22376
G1 X95.214 Y111.122 E2.23249
G1 X95.182 Y111.338 E2.24122
G1 X95.129 Y111.550 E2.24995
G1 X95.055 Y111.755 E2.25869
G1 X94.962 Y111.953 E2.26742
G1 X94.850 Y112.140 E2.27616
G1 X94.720 Y112.315 E2.28489
G1 X94.573 Y112.477 E2.29362
G1 X94.411 Y112.624 E2.30235
G1 X94.236 Y112.754 E2.31109
G1 X94.049 Y112.866 E2.31982
G1 X93.851 Y112.959 E2.32856
G1 X93.646 Y113.033 E2.33729
G1 X93.434 Y113.086 E2.34602
G1 X93.218 Y113.118 E2.35476
G1 X93.000 Y113.129 E2.36349
G1 X92.782 Y113.118 E2.37222
G1 X92.566 Y113.086 E2.38096
G1 X92.354 Y113.033 E2.38969
G1 X92.149 Y112.959 E2.39842
G1 X91.951 Y112.866 E2.40716
G1 X91.764 Y112.754 E2.41589
G1 X91.589 Y112.624 E2.42462
G1 X91.427 Y112.477 E2.43336
G1 X91.280 Y112.315 E2.44209
G1 X91.150 Y112.140 E2.45082
G1 X91.038 Y111.953 E2.45956
G1 X90.945 Y111.755 E2.46829
G1 X90.871 Y111.550 E2.47702
G1 X90.818 Y111.338 E2.48576
G1 X90.786 Y111.122 E2.49449
G1 X90.775 Y110.904 E2.50322
G1 X90.786 Y110.686 E2.51196
G1 X90.809 Y110.528 E2.51832
G1 F1800.000 E1.01832
G92 E0
G1 X80.847 Y110.904 F9000.000
G1 F1800.000 E1.50000
G1 X80.839 Y111.085 F4200.000 E1.50725
G1 X80.812 Y111.264 E1.51450
G1 X80.768 Y111.440 E1.52176
G1 X80.707 Y111.611 E1.52901
G1 X80.629 Y111.775 E1.53626
G1 X80.536 Y111.930 E1.54351
G1 X80.428 Y112.076 E1.55076
G1 X80.306 Y112.210 E1.55802
G1 X80.172 Y112.332 E1.56527
G1 X80.026 Y112.440 E1.57252
G1 X79.871 Y112.533 E1.57977
G1 X79.707 Y112.611 E1.58702
G1 X79.536 Y112.672 E1.59427
G1 X79.360 Y112.716 E1.60153
G1 X79.181 Y112.743 E1.60878
G1 X79.000 Y112.751 E1.61603
G1 X78.819 Y112.743 E1.62328
G1 X78.640 Y112.716 E1.63053
G1 X78.464 Y112.672 E1.63779
G1 X78.293 Y112.611 E1.64504
G1 X78.129 Y112.533 E1.65229
G1 X77.974 Y112.440 E1.65954
G1 X77.828 Y112.332 E1.66679
G1 X77.694 Y112.210 E1.67405
G1 X77.572 Y112.076 E1.68130
G1 X77.464 Y111.930 E1.68855
G1 X77.371 Y111.775 E1.69580
G1 X77.293 Y111.611 E1.70305
G1 X77.232 Y111.440 E1.71031
G1 X77.188 Y111.264 E1.71756
G1 X77.161 Y111.085 E1.72481
G1 X77.153 Y110.904 E1.73206
G1 X77.161 Y110.723 E1.73931
G1 X77.188 Y110.544 E1.74656
G1 X77.232 Y110.368 E1.75382
G1 X77.293 Y110.197 E1.76107
G1 X77.371 Y110.033 E1.76832
G1 X77.464 Y109.878 E1.77557
G1 X77.572 Y109.732 E1.78282
G1 X77.694 Y109.598 E1.79008
G1 X77.828 Y109.476 E1.79733
G1 X77.974 Y109.368 E1.80458
G1 X78.129 Y109.275 E1.81183
G1 X78.293 Y109.197 E1.81908
G1 X78.464 Y109.136 E1.82634
G1 X78.640 Y109.092 E1.83359
G1 X78.819 Y109.065 E1.84084
G1 X79.000 Y109.057 E1.84809
G1 X79.181 Y109.065 E1.85534
G1 X79.360 Y109.092 E1.86259
G1 X79.536 Y109.136 E1.86985
G1 X79.707 Y109.197 E1.87710
G1 X79.871 Y109.275 E1.88435
G1 X80.026 Y109.368 E1.89160
G1 X80.172 Y109.476 E1.89885
G1 X80.306 Y109.598 E1.90611
G1 X80.428 Y109.732 E1.91336
G1 X80.536 Y109.878 E1.92061
G1 X80.629 Y110.033 E1.92786
G1 X80.707 Y110.197 E1.93511
G1 X80.768 Y110.368 E1.94237
G1 X80.812 Y110.544 E1.94962
G1 X80.839 Y110.723 E1.95687
G1 X80.845 Y110.845 E1.96175
G1 X81.225 Y110.904 F9000.000
G1 X81.214 Y111.122 F4200.000 E1.97049
G1 X81.182 Y111.338 E1.97922
G1 X81.129 Y111.550 E1.98795
G1 X81.055 Y111.755 E1.99669
G1 X80.962 Y111.953 E2.00542
G1 X80.850 Y112.140 E2.01416
G1 X80.720 Y112.315 E2.02289
G1 X80.573 Y112.477 E2.03162
G1 X80.411 Y112.624 E2.04035
G1 X80.236 Y112.754 E2.04909
G1 X80.049 Y112.866 E2.05782
G1 X79.851 Y112.959 E2.06655
G1 X79.646 Y113.033 E2.07529
G1 X79.434 Y113.086 E2.08402
G1 X79.218 Y113.118 E2.09276
G1 X79.000 Y113.129 E2.10149
G1 X78.782 Y113.118 E2.11022
G1 X78.566 Y113.086 E2.11895
G1 X78.354 Y113.033 E2.12769
G1 X78.149 Y112.959 E2.13642
G1 X77.951 Y112.866 E2.14516
G1 X77.764 Y112.754 E2.15389
G1 X77.589 Y112.624 E2.16262
G1 X77.427 Y112.477 E2.17135
G1 X77.280 Y112.315 E2.18009
G1 X77.150 Y112.140 E2.18882
G1 X77.038 Y111.953 E2.19755
G1 X76.945 Y111.755 E2.20629
G1 X76.871 Y111.550 E2.21502
G1 X76.818 Y111.338 E2.22376
G1 X76.786 Y111.122 E2.23249
G1 X76.775 Y110.904 E2.24122
G1 X76.786 Y110.686 E2.24995
G1 X76.818 Y110.470 E2.25869
G1 X76.871 Y110.258 E2.26742
G1 X76.945 Y110.053 E2.27616
G1 X77.038 Y109.855 E2.28489
G1 X77.150 Y109.668 E2.29362
G1 X77.280 Y109.493 E2.30236
G1 X77.427 Y109.331 E2.31109
G1 X77.589 Y109.184 E2.31982
G1 X77.764 Y109.054 E2.32856
G1 X77.951 Y108.942 E2.33729
G1 X78.149 Y108.849 E2.34602
G1 X78.354 Y108.775 E2.35476
G1 X78.566 Y108.722 E2.36349
G1 X78.782 Y108.690 E2.37222
G1 X79.000 Y108.679 E2.38096
G1 X79.218 Y108.690 E2.38969
G1 X79.434 Y108.722 E2.39842
G1 X79.646 Y108.775 E2.40716
G1 X79.851 Y108.849 E2.41589
G1 X80.049 Y108.942 E2.42462
G1 X80.236 Y109.054 E2.43336
G1 X80.411 Y109.184 E2.44209
G1 X80.573 Y109.331 E2.45082
G1 X80.720 Y109.493 E2.45955
G1 X80.850 Y109.668 E2.46829
G1 X80.962 Y109.855 E2.47702
G1 X81.055 Y110.053 E2.48576
G1 X81.129 Y110.258 E2.49449
G1 X81.182 Y110.470 E2.50322
G1 X81.214 Y110.686 E2.51195
G1 X81.222 Y110.845 E2.51832
G1 F1800.000 E1.01832
G92 E0
G1 X75.574 Y105.382 F9000.000
G1 F1800.000 E1.50000
G1 X96.426 Y105.382 F4200.000 E2.33407
G1 X96.426 Y116.426 E2.77582
G1 X75.574 Y116.426 E3.60989
G1 X75.574 Y105.441 E4.04927
G1 X75.197 Y105.005 F9000.000
G1 X96.803 Y105.005 F4200.000 E4.91350
G1 X96.803 Y116.803 E5.38540
G1 X75.197 Y116.803 E6.24963
G1 X75.197 Y105.064 E6.71917
G1 F1800.000 E5.21917
G92 E0
G1 X68.361 Y109.878 F9000.000
G1 F1800.000 E1.50000
G1 X68.454 Y110.033 F4200.000 E1.50725
G1 X68.532 Y110.197 E1.51450
G1 X68.593 Y110.368 E1.52176
G1 X68.637 Y110.544 E1.52901
G1 X68.664 Y110.723 E1.53626
G1 X68.673 Y110.904 E1.54351
G1 X68.664 Y111.085 E1.55076
G1 X68.637 Y111.264 E1.55802
G1 X68.593 Y111.440 E1.56527
G1 X68.532 Y111.611 E1.57252
G1 X68.454 Y111.775 E1.57977
G1 X68.361 Y111.930 E1.58702
G1 X68.253 Y112.076 E1.59427
G1 X68.131 Y112.210 E1.60153
G1 X67.997 Y112.332 E1.60878
G1 X67.852 Y112.440 E1.61603
G1 X67.696 Y112.533 E1.62328
G1 X67.532 Y112.611 E1.63053
G1 X67.361 Y112.672 E1.63779
G1 X67.186 Y112.716 E1.64504
G1 X67.006 Y112.743 E1.65229
G1 X66.825 Y112.751 E1.65954
G1 X66.644 Y112.743 E1.66679
G1 X66.465 Y112.716 E1.67405
G1 X66.289 Y112.672 E1.68130
G1 X66.118 Y112.611 E1.68855
G1 X65.954 Y112.533 E1.69580
G1 X65.799 Y112.440 E1.70305
G1 X65.653 Y112.332 E1.71030
G1 X65.519 Y112.210 E1.71756
G1 X65.397 Y112.076 E1.72481
G1 X65.289 Y111.930 E1.73206
G1 X65.196 Y111.775 E1.73931
G1 X65.118 Y111.611 E1.74656
G1 X65.057 Y111.440 E1.75382
G1 X65.013 Y111.264 E1.76107
G1 X64.987 Y111.085 E1.76832
G1 X64.978 Y110.904 E1.77557
G1 X64.987 Y110.723 E1.78282
G1 X65.013 Y110.544 E1.79008
G1 X65.057 Y110.368 E1.79733
G1 X65.118 Y110.197 E1.80458
G1 X65.196 Y110.033 E1.81183
G1 X65.289 Y109.878 E1.81908
G1 X65.397 Y109.732 E1.82634
G1 X65.519 Y109.598 E1.83359
G1 X65.653 Y109.476 E1.84084
G1 X65.799 Y109.368 E1.84809
G1 X65.954 Y109.275 E1.85534
G1 X66.118 Y109.197 E1.86259
G1 X66.289 Y109.136 E1.86985
G1 X66.465 Y109.092 E1.87710
G1 X66.644 Y109.065 E1.88435
G1 X66.825 Y109.057 E1.89160
G1 X67.006 Y109.065 E1.89885
G1 X67.186 Y109.092 E1.90611
G1 X67.361 Y109.136 E1.91336
G1 X67.532 Y109.197 E1.92061
G1 X67.696 Y109.275 E1.92786
G1 X67.852 Y109.368 E1.93511
G1 X67.997 Y109.476 E1.94237
G1 X68.131 Y109.598 E1.94962
G1 X68.253 Y109.732 E1.95687
G1 X68.326 Y109.830 E1.96175
G1 X68.675 Y109.668 F9000.000
G1 X68.787 Y109.855 F4200.000 E1.97049
G1 X68.881 Y110.053 E1.97922
G1 X68.954 Y110.258 E1.98795
G1 X69.007 Y110.470 E1.99669
G1 X69.039 Y110.686 E2.00542
G1 X69.050 Y110.904 E2.01415
G1 X69.039 Y111.122 E2.02289
G1 X69.007 Y111.338 E2.03162
G1 X68.954 Y111.550 E2.04035
G1 X68.881 Y111.755 E2.04909
G1 X68.787 Y111.953 E2.05782
G1 X68.675 Y112.140 E2.06655
G1 X68.545 Y112.315 E2.07529
G1 X68.398 Y112.477 E2.08402
G1 X68.237 Y112.624 E2.09275
G1 X68.061 Y112.754 E2.10149
G1 X67.874 Y112.866 E2.11022
G1 X67.677 Y112.959 E2.11895
G1 X67.471 Y113.033 E2.12769
G1 X67.259 Y113.086 E2.13642
G1 X67.043 Y113.118 E2.14516
G1 X66.825 Y113.129 E2.15389
G1 X66.607 Y113.118 E2.16262
G1 X66.391 Y113.086 E2.17135
G1 X66.179 Y113.033 E2.18009
G1 X65.974 Y112.959 E2.18882
G1 X65.776 Y112.866 E2.19755
G1 X65.589 Y112.754 E2.20629
G1 X65.414 Y112.624 E2.21502
G1 X65.252 Y112.477 E2.22375
G1 X65.105 Y112.315 E2.23249
G1 X64.975 Y112.140 E2.24122
G1 X64.863 Y111.953 E2.24996
G1 X64.770 Y111.755 E2.25869
G1 X64.696 Y111.550 E2.26742
G1 X64.643 Y111.338 E2.27616
G1 X64.611 Y111.122 E2.28489
G1 X64.600 Y110.904 E2.29362
G1 X64.611 Y110.686 E2.30236
G1 X64.643 Y110.470 E2.31109
G1 X64.696 Y110.258 E2.31982
G1 X64.770 Y110.053 E2.32856
G1 X64.863 Y109.855 E2.33729
G1 X64.975 Y109.668 E2.34602
G1 X65.105 Y109.493 E2.35476
G1 X65.252 Y109.331 E2.36349
G1 X65.414 Y109.184 E2.37222
G1 X65.589 Y109.054 E2.38096
G1 X65.776 Y108.942 E2.38969
G1 X65.974 Y108.849 E2.39842
G1 X66.179 Y108.775 E2.40715
G1 X66.391 Y108.722 E2.41589
G1 X66.607 Y108.690 E2.42462
G1 X66.825 Y108.679 E2.43336
G1 X67.043 Y108.690 E2.44209
G1 X67.259 Y108.722 E2.45082
G1 X67.471 Y108.775 E2.45956
G1 X67.677 Y108.849 E2.46829
G1 X67.874 Y108.942 E2.47702
G1 X68.061 Y109.054 E2.48576
G1 X68.237 Y109.184 E2.49449
G1 X68.398 Y109.331 E2.50322
G1 X68.545 Y109.493 E2.51196
G1 X68.640 Y109.620 E2.51832
G1 F1800.000 E1.01832
G92 E0
G1 X54.664 Y110.723 F9000.000
G1 F1800.000 E1.50000
G1 X54.673 Y110.904 F4200.000 E1.50725
G1 X54.664 Y111.085 E1.51450
G1 X54.637 Y111.264 E1.52176
G1 X54.593 Y111.440 E1.52901
G1 X54.532 Y111.611 E1.53626
G1 X54.454 Y111.775 E1.54351
G1 X54.361 Y111.930 E1.55076
G1 X54.253 Y112.076 E1.55802
G1 X54.131 Y112.210 E1.56527
G1 X53.997 Y112.332 E1.57252
G1 X53.852 Y112.440 E1.57977
G1 X53.696 Y112.533 E1.58702
G1 X53.532 Y112.611 E1.59427
G1 X53.361 Y112.672 E1.60153
G1 X53.186 Y112.716 E1.60878
G1 X53.006 Y112.743 E1.61603
G1 X52.825 Y112.751 E1.62328
G1 X52.644 Y112.743 E1.63053
G1 X52.465 Y112.716 E1.63779
G1 X52.289 Y112.672 E1.64504
G1 X52.118 Y112.611 E1.65229
G1 X51.954 Y112.533 E1.65954
G1 X51.799 Y112.440 E1.66679
G1 X51.653 Y112.332 E1.67405
G1 X51.519 Y112.210 E1.68130
G1 X51.397 Y112.076 E1.68855
G1 X51.289 Y111.930 E1.69580
G1 X51.196 Y111.775 E1.70305
G1 X51.118 Y111.611 E1.71030
G1 X51.057 Y111.440 E1.71756
G1 X51.013 Y111.264 E1.72481
G1 X50.987 Y111.085 E1.73206
G1 X50.978 Y110.904 E1.73931
G1 X50.987 Y110.723 E1.74656
G1 X51.013 Y110.544 E1.75382
G1 X51.057 Y110.368 E1.76107
G1 X51.118 Y110.197 E1.76832
G1 X51.196 Y110.033 E1.77557
G1 X51.289 Y109.878 E1.78282
