(** This GCode was generated by ReplicatorG 0034 **)
(*  using Skeinforge (35)  *)
(*  for a Single headed Thing-O-Matic  *)
(*  on 2012/04/12 14:31:58 (-0400) *)
(**** beginning of start.gcode ****)
(This file is for a MakerBot Thing-O-Matic)
(**** begin initialization commands ****)
G21 (set units to mm)
G90 (set positioning to absolute)
M108 R5.0 (set extruder speed)
M103 (Make sure extruder is off)
M104 S225 T0 (set extruder temperature)
M109 S100 T0 (set heated-build-platform temperature)
(**** end initialization commands ****)
(**** begin homing ****)
G162 Z F1000 (home Z axis maximum)
G92 Z10 (set Z to 0)
G1 Z0 (move z down 10)
G162 Z F150 (home Z axis maximum)
G161 X Y F2500 (home XY axes minimum)
M132 X Y Z A B (Recall stored home offsets for XYZAB axis)
(**** end homing ****)
(**** begin pre-wipe commands ****)
( Some people have had problems with the nozzle hitting )
( bolts or wipers during this pre-extrusion warmup.     )
( If this happens to you, you can change the values for )
( the X and Y positions in the following code.          )
( The goal is to have the toolhead wipe its initial     )
( extrusion near the edge of the platform, [anchor it]  )
( so as not to have it interfere with the print.        )
( This file can be found in:                            )
( replicatorg/skein_engines/skeinforge-##/skeinforge_application/ )
( prefs/<profile name [e.g. Thingomatic-ABP-Mk7]>/alterations )
G1 X25 Y-60 Z10 F3300.0 (move to waiting position)
M6 T0 (wait for toolhead parts, nozzle, HBP, etc., to reach temperature)
G0 X25 Y-57 (Position Nozzle)
G0 Z0.6     (Position Height)
M108 R4.0   (Set Extruder Speed)
M101        (Start Extruder)
G4 P1500    (Create Anchor)
(**** end pre-wipe commands ****)
(**** end of start.gcode ****)
(<creation> skeinforge </creation>)
(<version> 10.11.05 </version>)
(<extruderInitialization>)
(<craftTypeName> extrusion </craftTypeName>)
M105
(<bridgeWidthMultiplier> 1.0 </bridgeWidthMultiplier>)
(<decimalPlacesCarried> 3 </decimalPlacesCarried>)
(<layerThickness> 0.3 </layerThickness>)
(<threadSequenceString> loops perimeter infill </threadSequenceString>)
(<operatingFeedRatePerSecond> 60.0 </operatingFeedRatePerSecond>)
(<operatingFlowRate> 6.15496009173 </operatingFlowRate>)
(<orbitalFeedRatePerSecond> 30.0 </orbitalFeedRatePerSecond>)
(<travelFeedRatePerSecond> 50.0 </travelFeedRatePerSecond>)
(<perimeterWidth> 0.419 </perimeterWidth>)
(<profileName> ABS </profileName>)
(<procedureDone> carve </procedureDone>)
(<procedureDone> preface </procedureDone>)
(<procedureDone> inset </procedureDone>)
(<procedureDone> fill </procedureDone>)
(<procedureDone> speed </procedureDone>)
(<procedureDone> raft </procedureDone>)
(<procedureDone> jitter </procedureDone>)
(<procedureDone> comb </procedureDone>)
(<procedureDone> cool </procedureDone>)
(<procedureDone> outline </procedureDone>)
(<procedureDone> reversal </procedureDone>)
(<procedureDone> export </procedureDone>)
(</extruderInitialization>)
(<extrusion>)
;M113 S1.0
M108 R6.155
(<layer> 0.15 )
(<surroundingLoop>)
(<boundaryPerimeter>)
(<boundaryPoint> X4.05 Y-1.475 Z0.15 </boundaryPoint>)
(<boundaryPoint> X4.05 Y-18.525 Z0.15 </boundaryPoint>)
(<boundaryPoint> X24.925 Y-18.525 Z0.15 </boundaryPoint>)
(<boundaryPoint> X24.925 Y18.525 Z0.15 </boundaryPoint>)
(<boundaryPoint> X-24.925 Y18.525 Z0.15 </boundaryPoint>)
(<boundaryPoint> X-24.925 Y-1.475 Z0.15 </boundaryPoint>)
(<loop> inner )
M108 R3.693
G1 X-26.72 Y-20.32 Z0.15 F2160.0
M101
G1 X-26.72 Y20.32 Z0.15 F2160.0
G1 X26.72 Y20.32 Z0.15 F2160.0
G1 X26.72 Y-20.32 Z0.15 F2160.0
G1 X-26.18 Y-20.32 Z0.15 F2160.0
M108 R30.0
M102
G1 X-26.72 Y-20.32 Z0.15 F2160.0
M108 R3.693
M103
G1 X-11.13 Y8.0 Z0.15 F3000.0
M108 R30.0
M101
G1 X-10.74 Y8.7 Z0.15 F3000.0
M108 R3.693
G1 X-10.96 Y8.43 Z0.15 F2160.0
G1 X-11.51 Y7.98 Z0.15 F2160.0
G1 X-12.14 Y7.65 Z0.15 F2160.0
G1 X-12.82 Y7.44 Z0.15 F2160.0
G1 X-13.53 Y7.37 Z0.15 F2160.0
G1 X-14.24 Y7.44 Z0.15 F2160.0
G1 X-14.92 Y7.65 Z0.15 F2160.0
G1 X-15.55 Y7.98 Z0.15 F2160.0
G1 X-16.1 Y8.43 Z0.15 F2160.0
G1 X-16.55 Y8.98 Z0.15 F2160.0
G1 X-16.88 Y9.61 Z0.15 F2160.0
G1 X-17.09 Y10.29 Z0.15 F2160.0
G1 X-17.16 Y11.0 Z0.15 F2160.0
G1 X-17.09 Y11.71 Z0.15 F2160.0
G1 X-16.88 Y12.39 Z0.15 F2160.0
G1 X-16.55 Y13.02 Z0.15 F2160.0
G1 X-16.1 Y13.57 Z0.15 F2160.0
G1 X-15.55 Y14.02 Z0.15 F2160.0
G1 X-14.92 Y14.36 Z0.15 F2160.0
G1 X-14.24 Y14.56 Z0.15 F2160.0
G1 X-13.53 Y14.63 Z0.15 F2160.0
G1 X-12.82 Y14.56 Z0.15 F2160.0
G1 X-12.14 Y14.36 Z0.15 F2160.0
G1 X-11.51 Y14.02 Z0.15 F2160.0
G1 X-10.96 Y13.57 Z0.15 F2160.0
G1 X-10.51 Y13.02 Z0.15 F2160.0
G1 X-10.18 Y12.39 Z0.15 F2160.0
G1 X-9.97 Y11.71 Z0.15 F2160.0
G1 X-9.9 Y11.0 Z0.15 F2160.0
G1 X-9.97 Y10.29 Z0.15 F2160.0
G1 X-10.18 Y9.61 Z0.15 F2160.0
G1 X-10.43 Y9.13 Z0.15 F2160.0
M108 R30.0
M102
G1 X-10.51 Y8.98 Z0.15 F2160.0
G1 X-10.68 Y8.78 Z0.15 F2160.0
G1 X-10.74 Y8.7 Z0.15 F2160.0
M108 R3.693
M103
(</loop>)
(<loop> inner )
G1 X1.7 Y-1.18 Z0.15 F3000.0
G1 X4.2 Y-1.33 Z0.15 F3000.0
G1 X4.34 Y-3.4 Z0.15 F3000.0
G1 X13.36 Y-10.99 Z0.15 F3000.0
M108 R30.0
M101
G1 X13.97 Y-11.51 Z0.15 F3000.0
M108 R3.693
G1 X14.42 Y-10.96 Z0.15 F2160.0
G1 X14.97 Y-10.51 Z0.15 F2160.0
G1 X15.6 Y-10.17 Z0.15 F2160.0
G1 X16.28 Y-9.96 Z0.15 F2160.0
G1 X16.99 Y-9.89 Z0.15 F2160.0
G1 X17.7 Y-9.96 Z0.15 F2160.0
G1 X18.38 Y-10.17 Z0.15 F2160.0
G1 X19.0 Y-10.51 Z0.15 F2160.0
G1 X19.55 Y-10.96 Z0.15 F2160.0
G1 X20.01 Y-11.51 Z0.15 F2160.0
G1 X20.34 Y-12.13 Z0.15 F2160.0
G1 X20.55 Y-12.82 Z0.15 F2160.0
G1 X20.62 Y-13.53 Z0.15 F2160.0
G1 X20.55 Y-14.23 Z0.15 F2160.0
G1 X20.34 Y-14.91 Z0.15 F2160.0
G1 X20.01 Y-15.54 Z0.15 F2160.0
G1 X19.55 Y-16.09 Z0.15 F2160.0
G1 X19.0 Y-16.54 Z0.15 F2160.0
G1 X18.38 Y-16.88 Z0.15 F2160.0
G1 X17.7 Y-17.09 Z0.15 F2160.0
G1 X16.99 Y-17.16 Z0.15 F2160.0
G1 X16.28 Y-17.09 Z0.15 F2160.0
G1 X15.6 Y-16.88 Z0.15 F2160.0
G1 X14.97 Y-16.54 Z0.15 F2160.0
G1 X14.42 Y-16.09 Z0.15 F2160.0
G1 X13.97 Y-15.54 Z0.15 F2160.0
G1 X13.63 Y-14.91 Z0.15 F2160.0
G1 X13.43 Y-14.23 Z0.15 F2160.0
G1 X13.36 Y-13.53 Z0.15 F2160.0
G1 X13.43 Y-12.82 Z0.15 F2160.0
G1 X13.63 Y-12.14 Z0.15 F2160.0
G1 X13.71 Y-11.98 Z0.15 F2160.0
M108 R30.0
M102
G1 X13.97 Y-11.51 Z0.15 F2160.0
M108 R3.693
M103
(</loop>)
(<loop> inner )
G1 X15.33 Y-7.63 Z0.15 F3000.0
M108 R30.0
M101
G1 X15.6 Y-6.88 Z0.15 F3000.0
M108 R3.693
G1 X14.97 Y-6.54 Z0.15 F2160.0
G1 X14.42 Y-6.09 Z0.15 F2160.0
G1 X13.97 Y-5.54 Z0.15 F2160.0
G1 X13.63 Y-4.91 Z0.15 F2160.0
G1 X13.43 Y-4.23 Z0.15 F2160.0
G1 X13.36 Y-3.52 Z0.15 F2160.0
G1 X13.43 Y-2.82 Z0.15 F2160.0
G1 X13.63 Y-2.14 Z0.15 F2160.0
G1 X13.97 Y-1.51 Z0.15 F2160.0
G1 X14.42 Y-0.96 Z0.15 F2160.0
G1 X14.97 Y-0.51 Z0.15 F2160.0
G1 X15.6 Y-0.17 Z0.15 F2160.0
G1 X16.28 Y0.04 Z0.15 F2160.0
G1 X16.99 Y0.11 Z0.15 F2160.0
G1 X17.7 Y0.04 Z0.15 F2160.0
G1 X18.38 Y-0.17 Z0.15 F2160.0
G1 X19.0 Y-0.51 Z0.15 F2160.0
G1 X19.55 Y-0.96 Z0.15 F2160.0
G1 X20.01 Y-1.51 Z0.15 F2160.0
G1 X20.34 Y-2.13 Z0.15 F2160.0
G1 X20.55 Y-2.82 Z0.15 F2160.0
G1 X20.62 Y-3.52 Z0.15 F2160.0
G1 X20.55 Y-4.23 Z0.15 F2160.0
G1 X20.34 Y-4.92 Z0.15 F2160.0
G1 X20.01 Y-5.54 Z0.15 F2160.0
G1 X19.55 Y-6.09 Z0.15 F2160.0
G1 X19.0 Y-6.54 Z0.15 F2160.0
G1 X18.38 Y-6.88 Z0.15 F2160.0
G1 X17.7 Y-7.08 Z0.15 F2160.0
G1 X16.99 Y-7.16 Z0.15 F2160.0
G1 X16.28 Y-7.08 Z0.15 F2160.0
G1 X16.11 Y-7.04 Z0.15 F2160.0
M108 R30.0
M102
G1 X15.6 Y-6.88 Z0.15 F2160.0
M108 R3.693
M103
(</loop>)
(<loop> outer )
G1 X23.5 Y-6.88 Z0.15 F3000.0
M108 R30.0
M101
G1 X24.3 Y-6.88 Z0.15 F3000.0
M108 R3.693
G1 X24.3 Y17.9 Z0.15 F2160.0
G1 X-24.3 Y17.9 Z0.15 F2160.0
G1 X-24.3 Y-0.85 Z0.15 F2160.0
G1 X4.68 Y-0.85 Z0.15 F2160.0
G1 X4.68 Y-17.9 Z0.15 F2160.0
G1 X24.3 Y-17.9 Z0.15 F2160.0
G1 X24.3 Y-6.88 Z0.15 F2160.0
M103
(</loop>)
(<perimeter> outer )
G1 X24.72 Y-6.88 Z0.15 F3000.0
M101
G1 X24.72 Y18.32 Z0.15 F2160.0
G1 X-24.72 Y18.32 Z0.15 F2160.0
G1 X-24.72 Y-1.27 Z0.15 F2160.0
G1 X4.26 Y-1.27 Z0.15 F2160.0
G1 X4.26 Y-18.32 Z0.15 F2160.0
G1 X24.72 Y-18.32 Z0.15 F2160.0
G1 X24.72 Y-7.42 Z0.15 F2160.0
M108 R30.0
M102
G1 X24.72 Y-6.88 Z0.15 F2160.0
M108 R3.693
M103
(</perimeter>)
(</boundaryPerimeter>)
(<surroundingLoop>)
(<boundaryPerimeter>)
(<boundaryPoint> X19.929 Y-4.11 Z0.15 </boundaryPoint>)
(<boundaryPoint> X19.758 Y-4.673 Z0.15 </boundaryPoint>)
(<boundaryPoint> X19.481 Y-5.192 Z0.15 </boundaryPoint>)
(<boundaryPoint> X19.109 Y-5.645 Z0.15 </boundaryPoint>)
(<boundaryPoint> X18.654 Y-6.018 Z0.15 </boundaryPoint>)
(<boundaryPoint> X18.135 Y-6.296 Z0.15 </boundaryPoint>)
(<boundaryPoint> X17.573 Y-6.466 Z0.15 </boundaryPoint>)
(<boundaryPoint> X16.987 Y-6.524 Z0.15 </boundaryPoint>)
(<boundaryPoint> X16.402 Y-6.466 Z0.15 </boundaryPoint>)
(<boundaryPoint> X15.839 Y-6.296 Z0.15 </boundaryPoint>)
(<boundaryPoint> X15.321 Y-6.018 Z0.15 </boundaryPoint>)
(<boundaryPoint> X14.866 Y-5.645 Z0.15 </boundaryPoint>)
(<boundaryPoint> X14.494 Y-5.192 Z0.15 </boundaryPoint>)
(<boundaryPoint> X14.217 Y-4.673 Z0.15 </boundaryPoint>)
(<boundaryPoint> X14.046 Y-4.109 Z0.15 </boundaryPoint>)
(<boundaryPoint> X13.988 Y-3.525 Z0.15 </boundaryPoint>)
(<boundaryPoint> X14.046 Y-2.941 Z0.15 </boundaryPoint>)
(<boundaryPoint> X14.217 Y-2.377 Z0.15 </boundaryPoint>)
(<boundaryPoint> X14.494 Y-1.858 Z0.15 </boundaryPoint>)
(<boundaryPoint> X14.866 Y-1.405 Z0.15 </boundaryPoint>)
(<boundaryPoint> X15.321 Y-1.032 Z0.15 </boundaryPoint>)
(<boundaryPoint> X15.839 Y-0.754 Z0.15 </boundaryPoint>)
(<boundaryPoint> X16.402 Y-0.584 Z0.15 </boundaryPoint>)
(<boundaryPoint> X16.987 Y-0.526 Z0.15 </boundaryPoint>)
(<boundaryPoint> X17.573 Y-0.584 Z0.15 </boundaryPoint>)
(<boundaryPoint> X18.135 Y-0.754 Z0.15 </boundaryPoint>)
(<boundaryPoint> X18.654 Y-1.032 Z0.15 </boundaryPoint>)
(<boundaryPoint> X19.109 Y-1.405 Z0.15 </boundaryPoint>)
(<boundaryPoint> X19.481 Y-1.858 Z0.15 </boundaryPoint>)
(<boundaryPoint> X19.758 Y-2.377 Z0.15 </boundaryPoint>)
(<boundaryPoint> X19.929 Y-2.94 Z0.15 </boundaryPoint>)
(<boundaryPoint> X19.986 Y-3.525 Z0.15 </boundaryPoint>)
(<perimeter> inner )
G1 X20.68 Y-5.08 Z0.15 F3000.0
M108 R30.0
M101
G1 X19.95 Y-4.75 Z0.15 F3000.0
M108 R3.693
G1 X19.66 Y-5.31 Z0.15 F2160.0
G1 X19.26 Y-5.79 Z0.15 F2160.0
G1 X18.77 Y-6.19 Z0.15 F2160.0
G1 X18.21 Y-6.49 Z0.15 F2160.0
G1 X17.61 Y-6.67 Z0.15 F2160.0
G1 X16.99 Y-6.74 Z0.15 F2160.0
G1 X16.36 Y-6.67 Z0.15 F2160.0
G1 X15.76 Y-6.49 Z0.15 F2160.0
G1 X15.2 Y-6.19 Z0.15 F2160.0
G1 X14.72 Y-5.79 Z0.15 F2160.0
G1 X14.32 Y-5.31 Z0.15 F2160.0
G1 X14.02 Y-4.75 Z0.15 F2160.0
G1 X13.84 Y-4.15 Z0.15 F2160.0
G1 X13.78 Y-3.52 Z0.15 F2160.0
G1 X13.84 Y-2.9 Z0.15 F2160.0
G1 X14.02 Y-2.3 Z0.15 F2160.0
G1 X14.32 Y-1.74 Z0.15 F2160.0
G1 X14.72 Y-1.26 Z0.15 F2160.0
G1 X15.2 Y-0.86 Z0.15 F2160.0
G1 X15.76 Y-0.56 Z0.15 F2160.0
G1 X16.36 Y-0.38 Z0.15 F2160.0
G1 X16.99 Y-0.32 Z0.15 F2160.0
G1 X17.61 Y-0.38 Z0.15 F2160.0
G1 X18.21 Y-0.56 Z0.15 F2160.0
G1 X18.77 Y-0.86 Z0.15 F2160.0
G1 X19.26 Y-1.26 Z0.15 F2160.0
G1 X19.66 Y-1.74 Z0.15 F2160.0
G1 X19.95 Y-2.3 Z0.15 F2160.0
G1 X20.14 Y-2.9 Z0.15 F2160.0
G1 X20.2 Y-3.52 Z0.15 F2160.0
G1 X20.14 Y-4.15 Z0.15 F2160.0
G1 X20.11 Y-4.24 Z0.15 F2160.0
M108 R30.0
M102
G1 X19.95 Y-4.75 Z0.15 F2160.0
M108 R3.693
M103
(</perimeter>)
(</boundaryPerimeter>)
(</surroundingLoop>)
(<surroundingLoop>)
(<boundaryPerimeter>)
(<boundaryPoint> X19.929 Y-14.11 Z0.15 </boundaryPoint>)
(<boundaryPoint> X19.758 Y-14.673 Z0.15 </boundaryPoint>)
(<boundaryPoint> X19.481 Y-15.192 Z0.15 </boundaryPoint>)
(<boundaryPoint> X19.108 Y-15.645 Z0.15 </boundaryPoint>)
(<boundaryPoint> X18.654 Y-16.019 Z0.15 </boundaryPoint>)
(<boundaryPoint> X18.135 Y-16.296 Z0.15 </boundaryPoint>)
(<boundaryPoint> X17.573 Y-16.466 Z0.15 </boundaryPoint>)
(<boundaryPoint> X16.987 Y-16.524 Z0.15 </boundaryPoint>)
(<boundaryPoint> X16.402 Y-16.466 Z0.15 </boundaryPoint>)
(<boundaryPoint> X15.839 Y-16.296 Z0.15 </boundaryPoint>)
(<boundaryPoint> X15.321 Y-16.019 Z0.15 </boundaryPoint>)
(<boundaryPoint> X14.867 Y-15.645 Z0.15 </boundaryPoint>)
(<boundaryPoint> X14.494 Y-15.192 Z0.15 </boundaryPoint>)
(<boundaryPoint> X14.217 Y-14.673 Z0.15 </boundaryPoint>)
(<boundaryPoint> X14.046 Y-14.109 Z0.15 </boundaryPoint>)
(<boundaryPoint> X13.988 Y-13.525 Z0.15 </boundaryPoint>)
(<boundaryPoint> X14.046 Y-12.941 Z0.15 </boundaryPoint>)
(<boundaryPoint> X14.217 Y-12.377 Z0.15 </boundaryPoint>)
(<boundaryPoint> X14.494 Y-11.858 Z0.15 </boundaryPoint>)
(<boundaryPoint> X14.866 Y-11.405 Z0.15 </boundaryPoint>)
(<boundaryPoint> X15.321 Y-11.032 Z0.15 </boundaryPoint>)
(<boundaryPoint> X15.839 Y-10.754 Z0.15 </boundaryPoint>)
(<boundaryPoint> X16.402 Y-10.584 Z0.15 </boundaryPoint>)
(<boundaryPoint> X16.987 Y-10.526 Z0.15 </boundaryPoint>)
(<boundaryPoint> X17.573 Y-10.584 Z0.15 </boundaryPoint>)
(<boundaryPoint> X18.135 Y-10.754 Z0.15 </boundaryPoint>)
(<boundaryPoint> X18.654 Y-11.032 Z0.15 </boundaryPoint>)
(<boundaryPoint> X19.109 Y-11.405 Z0.15 </boundaryPoint>)
(<boundaryPoint> X19.481 Y-11.858 Z0.15 </boundaryPoint>)
(<boundaryPoint> X19.758 Y-12.377 Z0.15 </boundaryPoint>)
(<boundaryPoint> X19.929 Y-12.94 Z0.15 </boundaryPoint>)
(<boundaryPoint> X19.986 Y-13.525 Z0.15 </boundaryPoint>)
(<perimeter> inner )
G1 X18.44 Y-9.79 Z0.15 F3000.0
M108 R30.0
M101
G1 X18.21 Y-10.56 Z0.15 F3000.0
M108 R3.693
G1 X18.77 Y-10.86 Z0.15 F2160.0
G1 X19.26 Y-11.26 Z0.15 F2160.0
G1 X19.66 Y-11.74 Z0.15 F2160.0
G1 X19.95 Y-12.3 Z0.15 F2160.0
G1 X20.14 Y-12.9 Z0.15 F2160.0
G1 X20.2 Y-13.53 Z0.15 F2160.0
G1 X20.14 Y-14.15 Z0.15 F2160.0
G1 X19.95 Y-14.75 Z0.15 F2160.0
G1 X19.66 Y-15.31 Z0.15 F2160.0
G1 X19.26 Y-15.79 Z0.15 F2160.0
G1 X18.77 Y-16.19 Z0.15 F2160.0
G1 X18.21 Y-16.49 Z0.15 F2160.0
G1 X17.61 Y-16.67 Z0.15 F2160.0
G1 X16.99 Y-16.73 Z0.15 F2160.0
G1 X16.36 Y-16.67 Z0.15 F2160.0
G1 X15.76 Y-16.49 Z0.15 F2160.0
G1 X15.2 Y-16.19 Z0.15 F2160.0
G1 X14.72 Y-15.79 Z0.15 F2160.0
G1 X14.32 Y-15.31 Z0.15 F2160.0
G1 X14.02 Y-14.75 Z0.15 F2160.0
G1 X13.84 Y-14.15 Z0.15 F2160.0
G1 X13.78 Y-13.53 Z0.15 F2160.0
G1 X13.84 Y-12.9 Z0.15 F2160.0
G1 X14.02 Y-12.3 Z0.15 F2160.0
G1 X14.32 Y-11.74 Z0.15 F2160.0
G1 X14.72 Y-11.26 Z0.15 F2160.0
G1 X15.2 Y-10.86 Z0.15 F2160.0
G1 X15.76 Y-10.56 Z0.15 F2160.0
G1 X16.36 Y-10.38 Z0.15 F2160.0
G1 X16.99 Y-10.31 Z0.15 F2160.0
G1 X17.61 Y-10.38 Z0.15 F2160.0
G1 X17.7 Y-10.4 Z0.15 F2160.0
M108 R30.0
M102
G1 X18.21 Y-10.56 Z0.15 F2160.0
M108 R3.693
M103
(</perimeter>)
(</boundaryPerimeter>)
(</surroundingLoop>)
(<surroundingLoop>)
(<boundaryPerimeter>)
(<boundaryPoint> X-10.588 Y10.417 Z0.15 </boundaryPoint>)
(<boundaryPoint> X-10.759 Y9.854 Z0.15 </boundaryPoint>)
(<boundaryPoint> X-11.036 Y9.335 Z0.15 </boundaryPoint>)
(<boundaryPoint> X-11.409 Y8.881 Z0.15 </boundaryPoint>)
(<boundaryPoint> X-11.863 Y8.508 Z0.15 </boundaryPoint>)
(<boundaryPoint> X-12.381 Y8.231 Z0.15 </boundaryPoint>)
(<boundaryPoint> X-12.944 Y8.06 Z0.15 </boundaryPoint>)
(<boundaryPoint> X-13.529 Y8.003 Z0.15 </boundaryPoint>)
(<boundaryPoint> X-14.115 Y8.06 Z0.15 </boundaryPoint>)
(<boundaryPoint> X-14.677 Y8.231 Z0.15 </boundaryPoint>)
(<boundaryPoint> X-15.196 Y8.508 Z0.15 </boundaryPoint>)
(<boundaryPoint> X-15.65 Y8.881 Z0.15 </boundaryPoint>)
(<boundaryPoint> X-16.023 Y9.335 Z0.15 </boundaryPoint>)
(<boundaryPoint> X-16.3 Y9.854 Z0.15 </boundaryPoint>)
(<boundaryPoint> X-16.471 Y10.416 Z0.15 </boundaryPoint>)
(<boundaryPoint> X-16.528 Y11.002 Z0.15 </boundaryPoint>)
(<boundaryPoint> X-16.471 Y11.587 Z0.15 </boundaryPoint>)
(<boundaryPoint> X-16.3 Y12.15 Z0.15 </boundaryPoint>)
(<boundaryPoint> X-16.023 Y12.668 Z0.15 </boundaryPoint>)
(<boundaryPoint> X-15.65 Y13.122 Z0.15 </boundaryPoint>)
(<boundaryPoint> X-15.196 Y13.495 Z0.15 </boundaryPoint>)
(<boundaryPoint> X-14.677 Y13.772 Z0.15 </boundaryPoint>)
(<boundaryPoint> X-14.114 Y13.943 Z0.15 </boundaryPoint>)
(<boundaryPoint> X-13.529 Y14.001 Z0.15 </boundaryPoint>)
(<boundaryPoint> X-12.945 Y13.943 Z0.15 </boundaryPoint>)
(<boundaryPoint> X-12.381 Y13.772 Z0.15 </boundaryPoint>)
(<boundaryPoint> X-11.864 Y13.495 Z0.15 </boundaryPoint>)
(<boundaryPoint> X-11.409 Y13.122 Z0.15 </boundaryPoint>)
(<boundaryPoint> X-11.036 Y12.668 Z0.15 </boundaryPoint>)
(<boundaryPoint> X-10.759 Y12.15 Z0.15 </boundaryPoint>)
(<boundaryPoint> X-10.588 Y11.586 Z0.15 </boundaryPoint>)
(<boundaryPoint> X-10.53 Y11.002 Z0.15 </boundaryPoint>)
(<perimeter> inner )
G1 X-10.2 Y8.77 Z0.15 F3000.0
M108 R30.0
M101
G1 X-10.86 Y9.22 Z0.15 F3000.0
M108 R3.693
G1 X-11.26 Y8.73 Z0.15 F2160.0
G1 X-11.75 Y8.33 Z0.15 F2160.0
G1 X-12.3 Y8.04 Z0.15 F2160.0
G1 X-12.9 Y7.85 Z0.15 F2160.0
G1 X-13.53 Y7.79 Z0.15 F2160.0
G1 X-14.16 Y7.85 Z0.15 F2160.0
G1 X-14.76 Y8.04 Z0.15 F2160.0
G1 X-15.31 Y8.33 Z0.15 F2160.0
G1 X-15.8 Y8.73 Z0.15 F2160.0
G1 X-16.2 Y9.22 Z0.15 F2160.0
G1 X-16.5 Y9.77 Z0.15 F2160.0
G1 X-16.68 Y10.38 Z0.15 F2160.0
G1 X-16.74 Y11.0 Z0.15 F2160.0
G1 X-16.68 Y11.63 Z0.15 F2160.0
G1 X-16.5 Y12.23 Z0.15 F2160.0
G1 X-16.2 Y12.79 Z0.15 F2160.0
G1 X-15.8 Y13.27 Z0.15 F2160.0
G1 X-15.31 Y13.67 Z0.15 F2160.0
G1 X-14.76 Y13.97 Z0.15 F2160.0
G1 X-14.16 Y14.15 Z0.15 F2160.0
G1 X-13.53 Y14.21 Z0.15 F2160.0
G1 X-12.9 Y14.15 Z0.15 F2160.0
G1 X-12.3 Y13.97 Z0.15 F2160.0
G1 X-11.75 Y13.67 Z0.15 F2160.0
G1 X-11.26 Y13.27 Z0.15 F2160.0
G1 X-10.86 Y12.79 Z0.15 F2160.0
G1 X-10.56 Y12.23 Z0.15 F2160.0
G1 X-10.38 Y11.63 Z0.15 F2160.0
G1 X-10.32 Y11.0 Z0.15 F2160.0
G1 X-10.38 Y10.38 Z0.15 F2160.0
G1 X-10.56 Y9.77 Z0.15 F2160.0
G1 X-10.61 Y9.69 Z0.15 F2160.0
M108 R30.0
M102
G1 X-10.86 Y9.22 Z0.15 F2160.0
M108 R3.693
M103
(</perimeter>)
(</boundaryPerimeter>)
(</surroundingLoop>)
G1 X-12.64 Y7.49 Z0.15 F1800.0
M108 R30.0
M101
G1 X-12.98 Y7.15 Z0.15 F1800.0
M108 R3.693
G1 X-12.98 Y-0.57 Z0.15 F2160.0
G1 X-12.57 Y-0.57 Z0.15 F2160.0
G1 X-12.57 Y7.23 Z0.15 F2160.0
G1 X-12.15 Y7.36 Z0.15 F2160.0
G1 X-12.15 Y-0.57 Z0.15 F2160.0
G1 X-11.73 Y-0.57 Z0.15 F2160.0
G1 X-11.73 Y7.56 Z0.15 F2160.0
G1 X-11.31 Y7.8 Z0.15 F2160.0
G1 X-11.31 Y-0.57 Z0.15 F2160.0
G1 X-10.89 Y-0.57 Z0.15 F2160.0
G1 X-10.89 Y8.14 Z0.15 F2160.0
G1 X-10.47 Y8.6 Z0.15 F2160.0
G1 X-10.47 Y-0.57 Z0.15 F2160.0
G1 X-10.05 Y-0.57 Z0.15 F2160.0
G1 X-10.05 Y8.72 Z0.15 F2160.0
M108 R30.0
M102
G1 X-10.05 Y9.26 Z0.15 F2160.0
M108 R3.693
M103
G1 X-13.4 Y7.36 Z0.15 F1800.0
M108 R30.0
M101
G1 X-13.82 Y7.13 Z0.15 F1800.0
M108 R3.693
G1 X-13.82 Y-0.57 Z0.15 F2160.0
G1 X-13.4 Y-0.57 Z0.15 F2160.0
G1 X-13.4 Y6.57 Z0.15 F2160.0
M108 R30.0
M102
G1 X-13.4 Y7.11 Z0.15 F2160.0
M108 R3.693
M103
G1 X-14.19 Y7.22 Z0.15 F1800.0
M108 R30.0
M101
G1 X-14.66 Y7.29 Z0.15 F1800.0
M108 R3.693
G1 X-14.66 Y-0.57 Z0.15 F2160.0
G1 X-14.24 Y-0.57 Z0.15 F2160.0
G1 X-14.24 Y6.63 Z0.15 F2160.0
M108 R30.0
M102
G1 X-14.24 Y7.17 Z0.15 F2160.0
M108 R3.693
M103
G1 X-16.81 Y9.32 Z0.15 F1800.0
M108 R30.0
M101
G1 X-17.17 Y9.63 Z0.15 F1800.0
M108 R3.693
G1 X-17.17 Y-0.57 Z0.15 F2160.0
G1 X-16.75 Y-0.57 Z0.15 F2160.0
G1 X-16.75 Y8.81 Z0.15 F2160.0
G1 X-16.34 Y8.3 Z0.15 F2160.0
G1 X-16.34 Y-0.57 Z0.15 F2160.0
G1 X-15.92 Y-0.57 Z0.15 F2160.0
G1 X-15.92 Y7.93 Z0.15 F2160.0
G1 X-15.5 Y7.65 Z0.15 F2160.0
G1 X-15.5 Y-0.57 Z0.15 F2160.0
G1 X-15.08 Y-0.57 Z0.15 F2160.0
G1 X-15.08 Y6.88 Z0.15 F2160.0
M108 R30.0
M102
G1 X-15.08 Y7.42 Z0.15 F2160.0
M108 R3.693
M103
G1 X-16.57 Y9.74 Z0.15 F3000.0
G1 X-16.76 Y10.36 Z0.15 F3000.0
G1 X-16.82 Y11.0 Z0.15 F3000.0
G1 X-16.76 Y11.64 Z0.15 F3000.0
G1 X-16.57 Y12.26 Z0.15 F3000.0
G1 X-14.96 Y14.34 Z0.15 F1800.0
M108 R30.0
M101
G1 X-14.66 Y14.72 Z0.15 F1800.0
M108 R3.693
G1 X-14.66 Y17.62 Z0.15 F2160.0
M103
G1 X-15.08 Y17.62 Z0.15 F1800.0
M101
G1 X-15.08 Y14.58 Z0.15 F2160.0
G1 X-15.5 Y14.36 Z0.15 F2160.0
G1 X-15.5 Y17.62 Z0.15 F2160.0
M103
G1 X-15.92 Y17.62 Z0.15 F1800.0
M101
G1 X-15.92 Y14.07 Z0.15 F2160.0
G1 X-16.34 Y13.71 Z0.15 F2160.0
G1 X-16.34 Y17.62 Z0.15 F2160.0
M103
G1 X-16.75 Y17.62 Z0.15 F1800.0
M101
G1 X-16.75 Y13.2 Z0.15 F2160.0
G1 X-17.17 Y12.37 Z0.15 F2160.0
G1 X-17.17 Y17.62 Z0.15 F2160.0
M103
G1 X-17.59 Y17.62 Z0.15 F1800.0
M101
G1 X-17.59 Y-0.57 Z0.15 F2160.0
G1 X-18.01 Y-0.57 Z0.15 F2160.0
G1 X-18.01 Y17.62 Z0.15 F2160.0
M103
G1 X-18.43 Y17.62 Z0.15 F1800.0
M101
G1 X-18.43 Y-0.57 Z0.15 F2160.0
G1 X-18.85 Y-0.57 Z0.15 F2160.0
G1 X-18.85 Y17.62 Z0.15 F2160.0
M103
G1 X-19.27 Y17.62 Z0.15 F1800.0
M101
G1 X-19.27 Y-0.57 Z0.15 F2160.0
G1 X-19.69 Y-0.57 Z0.15 F2160.0
G1 X-19.69 Y17.62 Z0.15 F2160.0
M103
G1 X-20.11 Y17.62 Z0.15 F1800.0
M101
G1 X-20.11 Y-0.57 Z0.15 F2160.0
G1 X-20.52 Y-0.57 Z0.15 F2160.0
G1 X-20.52 Y17.62 Z0.15 F2160.0
M103
G1 X-20.94 Y17.62 Z0.15 F1800.0
M101
G1 X-20.94 Y-0.57 Z0.15 F2160.0
G1 X-21.36 Y-0.57 Z0.15 F2160.0
G1 X-21.36 Y17.62 Z0.15 F2160.0
M103
G1 X-21.78 Y17.62 Z0.15 F1800.0
M101
G1 X-21.78 Y-0.57 Z0.15 F2160.0
G1 X-22.2 Y-0.57 Z0.15 F2160.0
G1 X-22.2 Y17.62 Z0.15 F2160.0
M103
G1 X-22.62 Y17.62 Z0.15 F1800.0
M101
G1 X-22.62 Y-0.57 Z0.15 F2160.0
G1 X-23.04 Y-0.57 Z0.15 F2160.0
G1 X-23.04 Y17.62 Z0.15 F2160.0
M103
G1 X-23.46 Y17.62 Z0.15 F1800.0
M101
G1 X-23.46 Y-0.57 Z0.15 F2160.0
G1 X-23.88 Y-0.57 Z0.15 F2160.0
G1 X-23.88 Y17.08 Z0.15 F2160.0
M108 R30.0
M102
G1 X-23.88 Y17.62 Z0.15 F2160.0
M108 R3.693
M103
G1 X-14.72 Y17.62 Z0.15 F1800.0
M108 R30.0
M101
G1 X-14.24 Y17.62 Z0.15 F1800.0
M108 R3.693
G1 X-14.24 Y15.38 Z0.15 F2160.0
M108 R30.0
M102
G1 X-14.24 Y14.84 Z0.15 F2160.0
M108 R3.693
M103
G1 X-13.46 Y14.85 Z0.15 F1800.0
M108 R30.0
M101
G1 X-12.98 Y14.85 Z0.15 F1800.0
M108 R3.693
G1 X-12.98 Y17.62 Z0.15 F2160.0
M103
G1 X-13.4 Y17.62 Z0.15 F1800.0
M101
G1 X-13.4 Y14.89 Z0.15 F2160.0
G1 X-13.82 Y14.88 Z0.15 F2160.0
G1 X-13.82 Y17.08 Z0.15 F2160.0
M108 R30.0
M102
G1 X-13.82 Y17.62 Z0.15 F2160.0
M108 R3.693
M103
G1 X-13.05 Y17.62 Z0.15 F1800.0
M108 R30.0
M101
G1 X-12.57 Y17.62 Z0.15 F1800.0
M108 R3.693
G1 X-12.57 Y14.77 Z0.15 F2160.0
M103
G1 X-12.15 Y14.64 Z0.15 F1800.0
M101
G1 X-12.15 Y17.62 Z0.15 F2160.0
M103
G1 X-11.73 Y17.62 Z0.15 F1800.0
M101
G1 X-11.73 Y14.98 Z0.15 F2160.0
M108 R30.0
M102
G1 X-11.73 Y14.44 Z0.15 F2160.0
M108 R3.693
M103
G1 X-11.01 Y17.16 Z0.15 F1800.0
M108 R30.0
M101
G1 X-10.89 Y17.62 Z0.15 F1800.0
M108 R3.693
G1 X-10.89 Y13.86 Z0.15 F2160.0
G1 X-11.31 Y14.21 Z0.15 F2160.0
G1 X-11.31 Y17.08 Z0.15 F2160.0
M108 R30.0
M102
G1 X-11.31 Y17.62 Z0.15 F2160.0
M108 R3.693
M103
G1 X-10.53 Y17.62 Z0.15 F1800.0
M108 R30.0
M101
G1 X-10.05 Y17.62 Z0.15 F1800.0
M108 R3.693
G1 X-10.05 Y12.74 Z0.15 F2160.0
G1 X-10.47 Y13.4 Z0.15 F2160.0
G1 X-10.47 Y17.08 Z0.15 F2160.0
M108 R30.0
M102
G1 X-10.47 Y17.62 Z0.15 F2160.0
M108 R3.693
M103
G1 X-9.7 Y17.62 Z0.15 F1800.0
M108 R30.0
M101
G1 X-9.21 Y17.62 Z0.15 F1800.0
M108 R3.693
G1 X-9.21 Y-0.57 Z0.15 F2160.0
G1 X-9.63 Y-0.57 Z0.15 F2160.0
G1 X-9.63 Y17.08 Z0.15 F2160.0
M108 R30.0
M102
G1 X-9.63 Y17.62 Z0.15 F2160.0
M108 R3.693
M103
G1 X-8.86 Y17.62 Z0.15 F1800.0
M108 R30.0
M101
G1 X-8.38 Y17.62 Z0.15 F1800.0
M108 R3.693
G1 X-8.38 Y-0.57 Z0.15 F2160.0
G1 X-8.8 Y-0.57 Z0.15 F2160.0
G1 X-8.8 Y17.08 Z0.15 F2160.0
M108 R30.0
M102
G1 X-8.8 Y17.62 Z0.15 F2160.0
M108 R3.693
M103
G1 X-8.02 Y17.62 Z0.15 F1800.0
M108 R30.0
M101
G1 X-7.54 Y17.62 Z0.15 F1800.0
M108 R3.693
G1 X-7.54 Y-0.57 Z0.15 F2160.0
G1 X-7.96 Y-0.57 Z0.15 F2160.0
G1 X-7.96 Y17.08 Z0.15 F2160.0
M108 R30.0
M102
G1 X-7.96 Y17.62 Z0.15 F2160.0
M108 R3.693
M103
G1 X-7.18 Y17.62 Z0.15 F1800.0
M108 R30.0
M101
G1 X-6.7 Y17.62 Z0.15 F1800.0
M108 R3.693
G1 X-6.7 Y-0.57 Z0.15 F2160.0
G1 X-7.12 Y-0.57 Z0.15 F2160.0
G1 X-7.12 Y17.08 Z0.15 F2160.0
M108 R30.0
M102
G1 X-7.12 Y17.62 Z0.15 F2160.0
M108 R3.693
M103
G1 X-6.34 Y17.62 Z0.15 F1800.0
M108 R30.0
M101
G1 X-5.86 Y17.62 Z0.15 F1800.0
M108 R3.693
G1 X-5.86 Y-0.57 Z0.15 F2160.0
G1 X-6.28 Y-0.57 Z0.15 F2160.0
G1 X-6.28 Y17.08 Z0.15 F2160.0
M108 R30.0
M102
G1 X-6.28 Y17.62 Z0.15 F2160.0
M108 R3.693
M103
G1 X-5.51 Y17.62 Z0.15 F1800.0
M108 R30.0
M101
G1 X-5.03 Y17.62 Z0.15 F1800.0
M108 R3.693
G1 X-5.03 Y-0.57 Z0.15 F2160.0
G1 X-5.45 Y-0.57 Z0.15 F2160.0
G1 X-5.45 Y17.08 Z0.15 F2160.0
M108 R30.0
M102
G1 X-5.45 Y17.62 Z0.15 F2160.0
M108 R3.693
M103
G1 X-4.67 Y17.62 Z0.15 F1800.0
M108 R30.0
M101
G1 X-4.19 Y17.62 Z0.15 F1800.0
M108 R3.693
G1 X-4.19 Y-0.57 Z0.15 F2160.0
G1 X-4.61 Y-0.57 Z0.15 F2160.0
G1 X-4.61 Y17.08 Z0.15 F2160.0
M108 R30.0
M102
G1 X-4.61 Y17.62 Z0.15 F2160.0
M108 R3.693
M103
G1 X-3.83 Y17.62 Z0.15 F1800.0
M108 R30.0
M101
G1 X-3.35 Y17.62 Z0.15 F1800.0
M108 R3.693
G1 X-3.35 Y-0.57 Z0.15 F2160.0
G1 X-3.77 Y-0.57 Z0.15 F2160.0
G1 X-3.77 Y17.08 Z0.15 F2160.0
M108 R30.0
M102
G1 X-3.77 Y17.62 Z0.15 F2160.0
M108 R3.693
M103
G1 X-2.99 Y17.62 Z0.15 F1800.0
M108 R30.0
M101
G1 X-2.51 Y17.62 Z0.15 F1800.0
M108 R3.693
G1 X-2.51 Y-0.57 Z0.15 F2160.0
G1 X-2.93 Y-0.57 Z0.15 F2160.0
G1 X-2.93 Y17.08 Z0.15 F2160.0
M108 R30.0
M102
G1 X-2.93 Y17.62 Z0.15 F2160.0
M108 R3.693
M103
G1 X-2.16 Y17.62 Z0.15 F1800.0
M108 R30.0
M101
G1 X-1.68 Y17.62 Z0.15 F1800.0
M108 R3.693
G1 X-1.68 Y-0.57 Z0.15 F2160.0
G1 X-2.09 Y-0.57 Z0.15 F2160.0
G1 X-2.09 Y17.08 Z0.15 F2160.0
M108 R30.0
M102
G1 X-2.09 Y17.62 Z0.15 F2160.0
M108 R3.693
M103
G1 X-1.32 Y17.62 Z0.15 F1800.0
M108 R30.0
M101
G1 X-0.84 Y17.62 Z0.15 F1800.0
M108 R3.693
G1 X-0.84 Y-0.57 Z0.15 F2160.0
G1 X-1.26 Y-0.57 Z0.15 F2160.0
G1 X-1.26 Y17.08 Z0.15 F2160.0
M108 R30.0
M102
G1 X-1.26 Y17.62 Z0.15 F2160.0
M108 R3.693
M103
G1 X-0.48 Y17.62 Z0.15 F1800.0
M108 R30.0
M101
G1 X0.0 Y17.62 Z0.15 F1800.0
M108 R3.693
G1 X-0.0 Y-0.57 Z0.15 F2160.0
G1 X-0.42 Y-0.57 Z0.15 F2160.0
G1 X-0.42 Y17.08 Z0.15 F2160.0
M108 R30.0
M102
G1 X-0.42 Y17.62 Z0.15 F2160.0
M108 R3.693
M103
G1 X0.36 Y17.62 Z0.15 F1800.0
M108 R30.0
M101
G1 X0.84 Y17.62 Z0.15 F1800.0
M108 R3.693
G1 X0.84 Y-0.57 Z0.15 F2160.0
G1 X0.42 Y-0.57 Z0.15 F2160.0
G1 X0.42 Y17.08 Z0.15 F2160.0
M108 R30.0
M102
G1 X0.42 Y17.62 Z0.15 F2160.0
M108 R3.693
M103
G1 X1.2 Y17.62 Z0.15 F1800.0
M108 R30.0
M101
G1 X1.68 Y17.62 Z0.15 F1800.0
M108 R3.693
G1 X1.68 Y-0.57 Z0.15 F2160.0
G1 X1.26 Y-0.57 Z0.15 F2160.0
G1 X1.26 Y17.08 Z0.15 F2160.0
M108 R30.0
M102
G1 X1.26 Y17.62 Z0.15 F2160.0
M108 R3.693
M103
G1 X2.03 Y17.62 Z0.15 F1800.0
M108 R30.0
M101
G1 X2.51 Y17.62 Z0.15 F1800.0
M108 R3.693
G1 X2.51 Y-0.57 Z0.15 F2160.0
G1 X2.09 Y-0.57 Z0.15 F2160.0
G1 X2.09 Y17.08 Z0.15 F2160.0
M108 R30.0
M102
G1 X2.09 Y17.62 Z0.15 F2160.0
M108 R3.693
M103
G1 X2.87 Y17.62 Z0.15 F1800.0
M108 R30.0
M101
G1 X3.35 Y17.62 Z0.15 F1800.0
M108 R3.693
G1 X3.35 Y-0.57 Z0.15 F2160.0
G1 X2.93 Y-0.57 Z0.15 F2160.0
G1 X2.93 Y17.08 Z0.15 F2160.0
M108 R30.0
M102
G1 X2.93 Y17.62 Z0.15 F2160.0
M108 R3.693
M103
G1 X3.71 Y17.62 Z0.15 F1800.0
M108 R30.0
M101
G1 X4.19 Y17.62 Z0.15 F1800.0
M108 R3.693
G1 X4.19 Y-0.57 Z0.15 F2160.0
G1 X3.77 Y-0.57 Z0.15 F2160.0
G1 X3.77 Y17.08 Z0.15 F2160.0
M108 R30.0
M102
G1 X3.77 Y17.62 Z0.15 F2160.0
M108 R3.693
M103
G1 X4.59 Y-0.1 Z0.15 F1800.0
M108 R30.0
M101
G1 X4.61 Y-0.57 Z0.15 F1800.0
M108 R3.693
G1 X4.61 Y17.62 Z0.15 F2160.0
M103
G1 X5.03 Y17.62 Z0.15 F1800.0
M101
G1 X5.03 Y-17.62 Z0.15 F2160.0
M103
G1 X5.45 Y-17.62 Z0.15 F1800.0
M101
G1 X5.45 Y17.62 Z0.15 F2160.0
M103
G1 X5.86 Y17.62 Z0.15 F1800.0
M101
G1 X5.86 Y-17.62 Z0.15 F2160.0
M103
G1 X6.28 Y-17.62 Z0.15 F1800.0
M101
G1 X6.28 Y17.62 Z0.15 F2160.0
M103
G1 X6.7 Y17.62 Z0.15 F1800.0
M101
G1 X6.7 Y-17.62 Z0.15 F2160.0
M103
G1 X7.12 Y-17.62 Z0.15 F1800.0
M101
G1 X7.12 Y17.62 Z0.15 F2160.0
M103
G1 X7.54 Y17.62 Z0.15 F1800.0
M101
G1 X7.54 Y-17.62 Z0.15 F2160.0
M103
G1 X7.96 Y-17.62 Z0.15 F1800.0
M101
G1 X7.96 Y17.62 Z0.15 F2160.0
M103
G1 X8.38 Y17.62 Z0.15 F1800.0
M101
G1 X8.38 Y-17.62 Z0.15 F2160.0
M103
G1 X8.8 Y-17.62 Z0.15 F1800.0
M101
G1 X8.8 Y17.62 Z0.15 F2160.0
M103
G1 X9.21 Y17.62 Z0.15 F1800.0
M101
G1 X9.21 Y-17.62 Z0.15 F2160.0
M103
G1 X9.63 Y-17.62 Z0.15 F1800.0
M101
G1 X9.63 Y17.62 Z0.15 F2160.0
M103
G1 X10.05 Y17.62 Z0.15 F1800.0
M101
G1 X10.05 Y-17.62 Z0.15 F2160.0
M103
G1 X10.47 Y-17.62 Z0.15 F1800.0
M101
G1 X10.47 Y17.62 Z0.15 F2160.0
M103
G1 X10.89 Y17.62 Z0.15 F1800.0
M101
G1 X10.89 Y-17.62 Z0.15 F2160.0
M103
G1 X11.31 Y-17.62 Z0.15 F1800.0
M101
G1 X11.31 Y17.62 Z0.15 F2160.0
M103
G1 X11.73 Y17.62 Z0.15 F1800.0
M101
G1 X11.73 Y-17.62 Z0.15 F2160.0
M103
G1 X12.15 Y-17.62 Z0.15 F1800.0
M101
G1 X12.15 Y17.62 Z0.15 F2160.0
M103
G1 X12.57 Y17.62 Z0.15 F1800.0
M101
G1 X12.57 Y-17.62 Z0.15 F2160.0
M103
G1 X12.98 Y-17.62 Z0.15 F1800.0
M101
G1 X12.98 Y17.62 Z0.15 F2160.0
M103
G1 X13.4 Y17.62 Z0.15 F1800.0
M101
G1 X13.4 Y-1.99 Z0.15 F2160.0
M103
G1 X13.82 Y-1.26 Z0.15 F1800.0
M101
G1 X13.82 Y17.62 Z0.15 F2160.0
M103
G1 X14.24 Y17.62 Z0.15 F1800.0
M101
G1 X14.24 Y-0.75 Z0.15 F2160.0
G1 X14.66 Y-0.41 Z0.15 F2160.0
G1 X14.66 Y17.62 Z0.15 F2160.0
M103
G1 X15.08 Y17.62 Z0.15 F1800.0
M101
G1 X15.08 Y-0.14 Z0.15 F2160.0
G1 X15.5 Y0.08 Z0.15 F2160.0
G1 X15.5 Y17.62 Z0.15 F2160.0
M103
G1 X15.92 Y17.62 Z0.15 F1800.0
M101
G1 X15.92 Y0.21 Z0.15 F2160.0
G1 X16.34 Y0.32 Z0.15 F2160.0
G1 X16.34 Y17.62 Z0.15 F2160.0
M103
G1 X16.75 Y17.62 Z0.15 F1800.0
M101
G1 X16.75 Y0.36 Z0.15 F2160.0
G1 X17.17 Y0.36 Z0.15 F2160.0
G1 X17.17 Y17.62 Z0.15 F2160.0
M103
G1 X17.59 Y17.62 Z0.15 F1800.0
M101
G1 X17.59 Y0.32 Z0.15 F2160.0
M103
G1 X18.01 Y0.22 Z0.15 F1800.0
M101
G1 X18.01 Y17.62 Z0.15 F2160.0
M103
G1 X18.43 Y17.62 Z0.15 F1800.0
M101
G1 X18.43 Y0.1 Z0.15 F2160.0
M103
G1 X18.85 Y-0.12 Z0.15 F1800.0
M101
G1 X18.85 Y17.62 Z0.15 F2160.0
M103
G1 X19.27 Y17.62 Z0.15 F1800.0
M101
G1 X19.27 Y-0.37 Z0.15 F2160.0
G1 X19.69 Y-0.71 Z0.15 F2160.0
G1 X19.69 Y17.62 Z0.15 F2160.0
M103
G1 X20.11 Y17.62 Z0.15 F1800.0
M101
G1 X20.11 Y-1.2 Z0.15 F2160.0
M103
G1 X20.52 Y-1.9 Z0.15 F1800.0
M101
G1 X20.52 Y17.62 Z0.15 F2160.0
M103
G1 X20.94 Y17.62 Z0.15 F1800.0
M101
G1 X20.94 Y-17.62 Z0.15 F2160.0
M103
G1 X21.36 Y-17.62 Z0.15 F1800.0
M101
G1 X21.36 Y17.62 Z0.15 F2160.0
M103
G1 X21.78 Y17.62 Z0.15 F1800.0
M101
G1 X21.78 Y-17.62 Z0.15 F2160.0
M103
G1 X22.2 Y-17.62 Z0.15 F1800.0
M101
G1 X22.2 Y17.62 Z0.15 F2160.0
M103
G1 X22.62 Y17.62 Z0.15 F1800.0
M101
G1 X22.62 Y-17.62 Z0.15 F2160.0
M103
G1 X23.04 Y-17.62 Z0.15 F1800.0
M101
G1 X23.04 Y17.62 Z0.15 F2160.0
M103
G1 X23.46 Y17.62 Z0.15 F1800.0
M101
G1 X23.46 Y-17.62 Z0.15 F2160.0
M103
G1 X23.88 Y-17.62 Z0.15 F1800.0
M101
G1 X23.88 Y17.08 Z0.15 F2160.0
M108 R30.0
M102
G1 X23.88 Y17.62 Z0.15 F2160.0
M108 R3.693
M103
G1 X20.59 Y-4.67 Z0.15 F1800.0
M108 R30.0
M101
G1 X20.52 Y-5.15 Z0.15 F1800.0
M108 R3.693
G1 X20.52 Y-11.36 Z0.15 F2160.0
M108 R30.0
M102
G1 X20.52 Y-11.9 Z0.15 F2160.0
M108 R3.693
M103
G1 X19.57 Y-10.74 Z0.15 F1800.0
M108 R30.0
M101
G1 X19.27 Y-10.37 Z0.15 F1800.0
M108 R3.693
G1 X19.27 Y-6.68 Z0.15 F2160.0
G1 X19.69 Y-6.34 Z0.15 F2160.0
G1 X19.69 Y-10.71 Z0.15 F2160.0
G1 X20.11 Y-11.2 Z0.15 F2160.0
G1 X20.11 Y-6.39 Z0.15 F2160.0
M108 R30.0
M102
G1 X20.11 Y-5.85 Z0.15 F2160.0
M108 R3.693
M103
G1 X19.21 Y-6.62 Z0.15 F1800.0
M108 R30.0
M101
G1 X18.85 Y-6.93 Z0.15 F1800.0
M108 R3.693
G1 X18.85 Y-10.12 Z0.15 F2160.0
M103
G1 X18.43 Y-9.9 Z0.15 F1800.0
M101
G1 X18.43 Y-7.15 Z0.15 F2160.0
M103
G1 X18.01 Y-7.27 Z0.15 F1800.0
M101
G1 X18.01 Y-9.78 Z0.15 F2160.0
M103
G1 X17.59 Y-9.68 Z0.15 F1800.0
M101
G1 X17.59 Y-7.37 Z0.15 F2160.0
M103
G1 X17.17 Y-7.41 Z0.15 F1800.0
M101
G1 X17.17 Y-9.64 Z0.15 F2160.0
M103
G1 X16.75 Y-9.64 Z0.15 F1800.0
M101
G1 X16.75 Y-7.41 Z0.15 F2160.0
M103
G1 X16.34 Y-7.37 Z0.15 F1800.0
M101
G1 X16.34 Y-9.69 Z0.15 F2160.0
M103
G1 X15.92 Y-9.79 Z0.15 F1800.0
M101
G1 X15.92 Y-7.8 Z0.15 F2160.0
M108 R30.0
M102
G1 X15.92 Y-7.26 Z0.15 F2160.0
M108 R3.693
M103
G1 X14.22 Y-6.07 Z0.15 F1800.0
M108 R30.0
M101
G1 X13.82 Y-5.79 Z0.15 F1800.0
M108 R3.693
G1 X13.82 Y-11.26 Z0.15 F2160.0
G1 X14.24 Y-10.75 Z0.15 F2160.0
G1 X14.24 Y-6.3 Z0.15 F2160.0
G1 X14.66 Y-6.64 Z0.15 F2160.0
G1 X14.66 Y-10.41 Z0.15 F2160.0
G1 X15.08 Y-10.14 Z0.15 F2160.0
G1 X15.08 Y-6.91 Z0.15 F2160.0
G1 X15.5 Y-7.13 Z0.15 F2160.0
G1 X15.5 Y-9.38 Z0.15 F2160.0
M108 R30.0
M102
G1 X15.5 Y-9.92 Z0.15 F2160.0
M108 R3.693
M103
G1 X13.74 Y-11.65 Z0.15 F1800.0
M108 R30.0
M101
G1 X13.4 Y-11.99 Z0.15 F1800.0
M108 R3.693
G1 X13.4 Y-5.6 Z0.15 F2160.0
M108 R30.0
M102
G1 X13.4 Y-5.06 Z0.15 F2160.0
M108 R3.693
M103
G1 X13.4 Y-14.58 Z0.15 F1800.0
M108 R30.0
M101
G1 X13.4 Y-15.06 Z0.15 F1800.0
M108 R3.693
G1 X13.4 Y-17.62 Z0.15 F2160.0
M103
G1 X13.82 Y-17.62 Z0.15 F1800.0
M101
G1 X13.82 Y-16.33 Z0.15 F2160.0
M108 R30.0
M102
G1 X13.82 Y-15.79 Z0.15 F2160.0
M108 R3.693
M103
G1 X14.46 Y-17.19 Z0.15 F1800.0
M108 R30.0
M101
G1 X14.66 Y-17.62 Z0.15 F1800.0
M108 R3.693
G1 X14.66 Y-16.64 Z0.15 F2160.0
G1 X14.24 Y-16.3 Z0.15 F2160.0
G1 X14.24 Y-17.08 Z0.15 F2160.0
M108 R30.0
M102
G1 X14.24 Y-17.62 Z0.15 F2160.0
M108 R3.693
M103
G1 X19.21 Y-17.62 Z0.15 F1800.0
M108 R30.0
M101
G1 X19.69 Y-17.62 Z0.15 F1800.0
M108 R3.693
G1 X19.69 Y-16.34 Z0.15 F2160.0
G1 X19.27 Y-16.68 Z0.15 F2160.0
G1 X19.27 Y-17.62 Z0.15 F2160.0
G1 X18.85 Y-16.94 Z0.15 F2160.0
G1 X18.85 Y-17.62 Z0.15 F2160.0
G1 X18.43 Y-17.15 Z0.15 F2160.0
G1 X18.43 Y-17.62 Z0.15 F2160.0
G1 X18.01 Y-17.27 Z0.15 F2160.0
G1 X18.01 Y-17.62 Z0.15 F2160.0
G1 X17.59 Y-17.37 Z0.15 F2160.0
G1 X17.59 Y-17.62 Z0.15 F2160.0
G1 X17.17 Y-17.41 Z0.15 F2160.0
G1 X17.17 Y-17.62 Z0.15 F2160.0
G1 X16.75 Y-17.41 Z0.15 F2160.0
G1 X16.75 Y-17.62 Z0.15 F2160.0
G1 X16.34 Y-17.36 Z0.15 F2160.0
G1 X16.34 Y-17.62 Z0.15 F2160.0
G1 X15.92 Y-17.26 Z0.15 F2160.0
G1 X15.92 Y-17.62 Z0.15 F2160.0
G1 X15.5 Y-17.13 Z0.15 F2160.0
G1 X15.5 Y-17.62 Z0.15 F2160.0
G1 X15.08 Y-16.91 Z0.15 F2160.0
G1 X15.08 Y-17.08 Z0.15 F2160.0
M108 R30.0
M102
G1 X15.08 Y-17.62 Z0.15 F2160.0
M108 R3.693
M103
G1 X19.65 Y-16.01 Z0.15 F1800.0
M108 R30.0
M101
G1 X20.11 Y-15.85 Z0.15 F1800.0
M108 R3.693
G1 X20.11 Y-17.62 Z0.15 F2160.0
M103
G1 X20.52 Y-17.62 Z0.15 F1800.0
M101
G1 X20.52 Y-15.15 Z0.15 F2160.0
M103
(</surroundingLoop>)
(</layer>)
(<layer> 0.45 )
(<surroundingLoop>)
(<boundaryPerimeter>)
(<boundaryPoint> X4.05 Y-1.475 Z0.45 </boundaryPoint>)
(<boundaryPoint> X4.05 Y-18.525 Z0.45 </boundaryPoint>)
(<boundaryPoint> X24.925 Y-18.525 Z0.45 </boundaryPoint>)
(<boundaryPoint> X24.925 Y18.525 Z0.45 </boundaryPoint>)
(<boundaryPoint> X-24.925 Y18.525 Z0.45 </boundaryPoint>)
(<boundaryPoint> X-24.925 Y-1.475 Z0.45 </boundaryPoint>)
(<loop> inner )
M108 R6.155
G1 X20.41 Y-14.7 Z0.45 F3000.0
M101
G1 X20.34 Y-14.91 Z0.45 F3600.0
G1 X20.01 Y-15.54 Z0.45 F3600.0
G1 X19.55 Y-16.09 Z0.45 F3600.0
G1 X19.0 Y-16.54 Z0.45 F3600.0
G1 X18.38 Y-16.88 Z0.45 F3600.0
G1 X17.7 Y-17.09 Z0.45 F3600.0
G1 X16.99 Y-17.16 Z0.45 F3600.0
G1 X16.28 Y-17.09 Z0.45 F3600.0
G1 X15.6 Y-16.88 Z0.45 F3600.0
G1 X14.97 Y-16.54 Z0.45 F3600.0
G1 X14.42 Y-16.09 Z0.45 F3600.0
G1 X13.97 Y-15.54 Z0.45 F3600.0
G1 X13.63 Y-14.91 Z0.45 F3600.0
G1 X13.43 Y-14.23 Z0.45 F3600.0
G1 X13.36 Y-13.53 Z0.45 F3600.0
G1 X13.43 Y-12.82 Z0.45 F3600.0
G1 X13.63 Y-12.14 Z0.45 F3600.0
G1 X13.97 Y-11.51 Z0.45 F3600.0
G1 X14.42 Y-10.96 Z0.45 F3600.0
G1 X14.97 Y-10.51 Z0.45 F3600.0
G1 X15.6 Y-10.17 Z0.45 F3600.0
G1 X16.28 Y-9.96 Z0.45 F3600.0
G1 X16.99 Y-9.89 Z0.45 F3600.0
G1 X17.7 Y-9.96 Z0.45 F3600.0
G1 X18.38 Y-10.17 Z0.45 F3600.0
G1 X19.0 Y-10.51 Z0.45 F3600.0
G1 X19.55 Y-10.96 Z0.45 F3600.0
G1 X20.01 Y-11.51 Z0.45 F3600.0
G1 X20.34 Y-12.13 Z0.45 F3600.0
G1 X20.55 Y-12.82 Z0.45 F3600.0
G1 X20.62 Y-13.53 Z0.45 F3600.0
G1 X20.59 Y-13.83 Z0.45 F3600.0
M108 R30.0
M102
G1 X20.55 Y-14.23 Z0.45 F3600.0
G1 X20.41 Y-14.7 Z0.45 F3600.0
M108 R6.155
M103
(</loop>)
(<loop> inner )
G1 X20.03 Y-12.27 Z0.45 F3000.0
G1 X19.72 Y-11.7 Z0.45 F3000.0
G1 X19.32 Y-11.2 Z0.45 F3000.0
G1 X18.82 Y-10.79 Z0.45 F3000.0
G1 X18.25 Y-10.48 Z0.45 F3000.0
G1 X17.63 Y-10.3 Z0.45 F3000.0
G1 X16.99 Y-10.23 Z0.45 F3000.0
G1 X16.34 Y-10.3 Z0.45 F3000.0
G1 X15.73 Y-10.48 Z0.45 F3000.0
G1 X15.35 Y-10.68 Z0.45 F3000.0
G1 X4.34 Y-2.17 Z0.45 F3000.0
G1 X4.2 Y-1.33 Z0.45 F3000.0
G1 X3.14 Y-1.18 Z0.45 F3000.0
G1 X-9.87 Y8.51 Z0.45 F3000.0
M108 R30.0
M101
G1 X-10.51 Y8.98 Z0.45 F3000.0
M108 R6.155
G1 X-10.96 Y8.43 Z0.45 F3600.0
G1 X-11.51 Y7.98 Z0.45 F3600.0
G1 X-12.14 Y7.65 Z0.45 F3600.0
G1 X-12.82 Y7.44 Z0.45 F3600.0
G1 X-13.53 Y7.37 Z0.45 F3600.0
G1 X-14.24 Y7.44 Z0.45 F3600.0
G1 X-14.92 Y7.65 Z0.45 F3600.0
G1 X-15.55 Y7.98 Z0.45 F3600.0
G1 X-16.1 Y8.43 Z0.45 F3600.0
G1 X-16.55 Y8.98 Z0.45 F3600.0
G1 X-16.88 Y9.61 Z0.45 F3600.0
G1 X-17.09 Y10.29 Z0.45 F3600.0
G1 X-17.16 Y11.0 Z0.45 F3600.0
G1 X-17.09 Y11.71 Z0.45 F3600.0
G1 X-16.88 Y12.39 Z0.45 F3600.0
G1 X-16.55 Y13.02 Z0.45 F3600.0
G1 X-16.1 Y13.57 Z0.45 F3600.0
G1 X-15.55 Y14.02 Z0.45 F3600.0
G1 X-14.92 Y14.36 Z0.45 F3600.0
G1 X-14.24 Y14.56 Z0.45 F3600.0
G1 X-13.53 Y14.63 Z0.45 F3600.0
G1 X-12.82 Y14.56 Z0.45 F3600.0
G1 X-12.14 Y14.36 Z0.45 F3600.0
G1 X-11.51 Y14.02 Z0.45 F3600.0
G1 X-10.96 Y13.57 Z0.45 F3600.0
G1 X-10.51 Y13.02 Z0.45 F3600.0
G1 X-10.18 Y12.39 Z0.45 F3600.0
G1 X-9.97 Y11.71 Z0.45 F3600.0
G1 X-9.9 Y11.0 Z0.45 F3600.0
G1 X-9.97 Y10.29 Z0.45 F3600.0
G1 X-10.12 Y9.79 Z0.45 F3600.0
M108 R30.0
M102
G1 X-10.18 Y9.61 Z0.45 F3600.0
G1 X-10.51 Y8.98 Z0.45 F3600.0
M108 R6.155
M103
(</loop>)
(<loop> inner )
G1 X12.91 Y-1.8 Z0.45 F3000.0
M108 R30.0
M101
G1 X13.63 Y-2.14 Z0.45 F3000.0
M108 R6.155
G1 X13.97 Y-1.51 Z0.45 F3600.0
G1 X14.42 Y-0.96 Z0.45 F3600.0
G1 X14.97 Y-0.51 Z0.45 F3600.0
G1 X15.6 Y-0.17 Z0.45 F3600.0
G1 X16.28 Y0.04 Z0.45 F3600.0
G1 X16.99 Y0.11 Z0.45 F3600.0
G1 X17.7 Y0.04 Z0.45 F3600.0
G1 X18.38 Y-0.17 Z0.45 F3600.0
G1 X19.0 Y-0.51 Z0.45 F3600.0
G1 X19.55 Y-0.96 Z0.45 F3600.0
G1 X20.01 Y-1.51 Z0.45 F3600.0
G1 X20.34 Y-2.13 Z0.45 F3600.0
G1 X20.55 Y-2.82 Z0.45 F3600.0
G1 X20.62 Y-3.52 Z0.45 F3600.0
G1 X20.55 Y-4.23 Z0.45 F3600.0
G1 X20.34 Y-4.92 Z0.45 F3600.0
G1 X20.01 Y-5.54 Z0.45 F3600.0
G1 X19.55 Y-6.09 Z0.45 F3600.0
G1 X19.0 Y-6.54 Z0.45 F3600.0
G1 X18.38 Y-6.88 Z0.45 F3600.0
G1 X17.7 Y-7.08 Z0.45 F3600.0
G1 X16.99 Y-7.16 Z0.45 F3600.0
G1 X16.28 Y-7.08 Z0.45 F3600.0
G1 X15.6 Y-6.88 Z0.45 F3600.0
G1 X14.97 Y-6.54 Z0.45 F3600.0
G1 X14.42 Y-6.09 Z0.45 F3600.0
G1 X13.97 Y-5.54 Z0.45 F3600.0
G1 X13.63 Y-4.91 Z0.45 F3600.0
G1 X13.43 Y-4.23 Z0.45 F3600.0
G1 X13.36 Y-3.52 Z0.45 F3600.0
G1 X13.41 Y-3.0 Z0.45 F3600.0
M108 R30.0
M102
G1 X13.43 Y-2.82 Z0.45 F3600.0
G1 X13.63 Y-2.14 Z0.45 F3600.0
M108 R6.155
M103
(</loop>)
(<loop> outer )
G1 X5.48 Y-2.14 Z0.45 F3000.0
M108 R30.0
M101
G1 X4.68 Y-2.14 Z0.45 F3000.0
M108 R6.155
G1 X4.68 Y-17.9 Z0.45 F3600.0
G1 X24.3 Y-17.9 Z0.45 F3600.0
G1 X24.3 Y17.9 Z0.45 F3600.0
G1 X-24.3 Y17.9 Z0.45 F3600.0
G1 X-24.3 Y-0.85 Z0.45 F3600.0
G1 X4.68 Y-0.85 Z0.45 F3600.0
G1 X4.68 Y-2.14 Z0.45 F3600.0
M103
(</loop>)
(<perimeter> outer )
G1 X4.26 Y-2.14 Z0.45 F3000.0
M101
G1 X4.26 Y-18.32 Z0.45 F3600.0
G1 X24.72 Y-18.32 Z0.45 F3600.0
G1 X24.72 Y18.32 Z0.45 F3600.0
G1 X-24.72 Y18.32 Z0.45 F3600.0
G1 X-24.72 Y-1.27 Z0.45 F3600.0
G1 X4.23 Y-1.27 Z0.45 F3600.0
M108 R30.0
M102
G1 X4.26 Y-1.27 Z0.45 F3600.0
G1 X4.26 Y-2.14 Z0.45 F3600.0
M108 R6.155
M103
(</perimeter>)
(</boundaryPerimeter>)
(<surroundingLoop>)
(<boundaryPerimeter>)
(<boundaryPoint> X19.929 Y-4.11 Z0.45 </boundaryPoint>)
(<boundaryPoint> X19.758 Y-4.673 Z0.45 </boundaryPoint>)
(<boundaryPoint> X19.481 Y-5.192 Z0.45 </boundaryPoint>)
(<boundaryPoint> X19.109 Y-5.645 Z0.45 </boundaryPoint>)
(<boundaryPoint> X18.654 Y-6.018 Z0.45 </boundaryPoint>)
(<boundaryPoint> X18.135 Y-6.296 Z0.45 </boundaryPoint>)
(<boundaryPoint> X17.573 Y-6.466 Z0.45 </boundaryPoint>)
(<boundaryPoint> X16.987 Y-6.524 Z0.45 </boundaryPoint>)
(<boundaryPoint> X16.402 Y-6.466 Z0.45 </boundaryPoint>)
(<boundaryPoint> X15.839 Y-6.296 Z0.45 </boundaryPoint>)
(<boundaryPoint> X15.321 Y-6.018 Z0.45 </boundaryPoint>)
(<boundaryPoint> X14.866 Y-5.645 Z0.45 </boundaryPoint>)
(<boundaryPoint> X14.494 Y-5.192 Z0.45 </boundaryPoint>)
(<boundaryPoint> X14.217 Y-4.673 Z0.45 </boundaryPoint>)
(<boundaryPoint> X14.046 Y-4.109 Z0.45 </boundaryPoint>)
(<boundaryPoint> X13.988 Y-3.525 Z0.45 </boundaryPoint>)
(<boundaryPoint> X14.046 Y-2.941 Z0.45 </boundaryPoint>)
(<boundaryPoint> X14.217 Y-2.377 Z0.45 </boundaryPoint>)
(<boundaryPoint> X14.494 Y-1.858 Z0.45 </boundaryPoint>)
(<boundaryPoint> X14.866 Y-1.405 Z0.45 </boundaryPoint>)
(<boundaryPoint> X15.321 Y-1.032 Z0.45 </boundaryPoint>)
(<boundaryPoint> X15.839 Y-0.754 Z0.45 </boundaryPoint>)
(<boundaryPoint> X16.402 Y-0.584 Z0.45 </boundaryPoint>)
(<boundaryPoint> X16.987 Y-0.526 Z0.45 </boundaryPoint>)
(<boundaryPoint> X17.573 Y-0.584 Z0.45 </boundaryPoint>)
(<boundaryPoint> X18.135 Y-0.754 Z0.45 </boundaryPoint>)
(<boundaryPoint> X18.654 Y-1.032 Z0.45 </boundaryPoint>)
(<boundaryPoint> X19.109 Y-1.405 Z0.45 </boundaryPoint>)
(<boundaryPoint> X19.481 Y-1.858 Z0.45 </boundaryPoint>)
(<boundaryPoint> X19.758 Y-2.377 Z0.45 </boundaryPoint>)
(<boundaryPoint> X19.929 Y-2.94 Z0.45 </boundaryPoint>)
(<boundaryPoint> X19.986 Y-3.525 Z0.45 </boundaryPoint>)
(<perimeter> inner )
G1 X13.04 Y-2.83 Z0.45 F3000.0
M108 R30.0
M101
G1 X13.84 Y-2.9 Z0.45 F3000.0
M108 R6.155
G1 X14.02 Y-2.3 Z0.45 F3600.0
G1 X14.32 Y-1.74 Z0.45 F3600.0
G1 X14.72 Y-1.26 Z0.45 F3600.0
G1 X15.2 Y-0.86 Z0.45 F3600.0
G1 X15.76 Y-0.56 Z0.45 F3600.0
G1 X16.36 Y-0.38 Z0.45 F3600.0
G1 X16.99 Y-0.32 Z0.45 F3600.0
G1 X17.61 Y-0.38 Z0.45 F3600.0
G1 X18.21 Y-0.56 Z0.45 F3600.0
G1 X18.77 Y-0.86 Z0.45 F3600.0
G1 X19.26 Y-1.26 Z0.45 F3600.0
G1 X19.66 Y-1.74 Z0.45 F3600.0
G1 X19.95 Y-2.3 Z0.45 F3600.0
G1 X20.14 Y-2.9 Z0.45 F3600.0
G1 X20.2 Y-3.52 Z0.45 F3600.0
G1 X20.14 Y-4.15 Z0.45 F3600.0
G1 X19.95 Y-4.75 Z0.45 F3600.0
G1 X19.66 Y-5.31 Z0.45 F3600.0
G1 X19.26 Y-5.79 Z0.45 F3600.0
G1 X18.77 Y-6.19 Z0.45 F3600.0
G1 X18.21 Y-6.49 Z0.45 F3600.0
G1 X17.61 Y-6.67 Z0.45 F3600.0
G1 X16.99 Y-6.74 Z0.45 F3600.0
G1 X16.36 Y-6.67 Z0.45 F3600.0
G1 X15.76 Y-6.49 Z0.45 F3600.0
G1 X15.2 Y-6.19 Z0.45 F3600.0
G1 X14.72 Y-5.79 Z0.45 F3600.0
G1 X14.32 Y-5.31 Z0.45 F3600.0
G1 X14.02 Y-4.75 Z0.45 F3600.0
G1 X13.84 Y-4.15 Z0.45 F3600.0
G1 X13.8 Y-3.79 Z0.45 F3600.0
M108 R30.0
M102
G1 X13.78 Y-3.52 Z0.45 F3600.0
G1 X13.84 Y-2.9 Z0.45 F3600.0
M108 R6.155
M103
(</perimeter>)
(</boundaryPerimeter>)
(</surroundingLoop>)
(<surroundingLoop>)
(<boundaryPerimeter>)
(<boundaryPoint> X19.929 Y-14.11 Z0.45 </boundaryPoint>)
(<boundaryPoint> X19.758 Y-14.673 Z0.45 </boundaryPoint>)
(<boundaryPoint> X19.481 Y-15.192 Z0.45 </boundaryPoint>)
(<boundaryPoint> X19.108 Y-15.645 Z0.45 </boundaryPoint>)
(<boundaryPoint> X18.654 Y-16.019 Z0.45 </boundaryPoint>)
(<boundaryPoint> X18.135 Y-16.296 Z0.45 </boundaryPoint>)
(<boundaryPoint> X17.573 Y-16.466 Z0.45 </boundaryPoint>)
(<boundaryPoint> X16.987 Y-16.524 Z0.45 </boundaryPoint>)
(<boundaryPoint> X16.402 Y-16.466 Z0.45 </boundaryPoint>)
(<boundaryPoint> X15.839 Y-16.296 Z0.45 </boundaryPoint>)
(<boundaryPoint> X15.321 Y-16.019 Z0.45 </boundaryPoint>)
(<boundaryPoint> X14.867 Y-15.645 Z0.45 </boundaryPoint>)
(<boundaryPoint> X14.494 Y-15.192 Z0.45 </boundaryPoint>)
(<boundaryPoint> X14.217 Y-14.673 Z0.45 </boundaryPoint>)
(<boundaryPoint> X14.046 Y-14.109 Z0.45 </boundaryPoint>)
(<boundaryPoint> X13.988 Y-13.525 Z0.45 </boundaryPoint>)
(<boundaryPoint> X14.046 Y-12.941 Z0.45 </boundaryPoint>)
(<boundaryPoint> X14.217 Y-12.377 Z0.45 </boundaryPoint>)
(<boundaryPoint> X14.494 Y-11.858 Z0.45 </boundaryPoint>)
(<boundaryPoint> X14.866 Y-11.405 Z0.45 </boundaryPoint>)
(<boundaryPoint> X15.321 Y-11.032 Z0.45 </boundaryPoint>)
(<boundaryPoint> X15.839 Y-10.754 Z0.45 </boundaryPoint>)
(<boundaryPoint> X16.402 Y-10.584 Z0.45 </boundaryPoint>)
(<boundaryPoint> X16.987 Y-10.526 Z0.45 </boundaryPoint>)
(<boundaryPoint> X17.573 Y-10.584 Z0.45 </boundaryPoint>)
(<boundaryPoint> X18.135 Y-10.754 Z0.45 </boundaryPoint>)
(<boundaryPoint> X18.654 Y-11.032 Z0.45 </boundaryPoint>)
(<boundaryPoint> X19.109 Y-11.405 Z0.45 </boundaryPoint>)
(<boundaryPoint> X19.481 Y-11.858 Z0.45 </boundaryPoint>)
(<boundaryPoint> X19.758 Y-12.377 Z0.45 </boundaryPoint>)
(<boundaryPoint> X19.929 Y-12.94 Z0.45 </boundaryPoint>)
(<boundaryPoint> X19.986 Y-13.525 Z0.45 </boundaryPoint>)
(<perimeter> inner )
G1 X13.76 Y-4.17 Z0.45 F3000.0
G1 X15.84 Y-9.7 Z0.45 F3000.0
M108 R30.0
M101
G1 X16.12 Y-10.45 Z0.45 F3000.0
M108 R6.155
G1 X16.36 Y-10.38 Z0.45 F3600.0
G1 X16.99 Y-10.31 Z0.45 F3600.0
G1 X17.61 Y-10.38 Z0.45 F3600.0
G1 X18.21 Y-10.56 Z0.45 F3600.0
G1 X18.77 Y-10.86 Z0.45 F3600.0
G1 X19.26 Y-11.26 Z0.45 F3600.0
G1 X19.66 Y-11.74 Z0.45 F3600.0
G1 X19.95 Y-12.3 Z0.45 F3600.0
G1 X20.14 Y-12.9 Z0.45 F3600.0
G1 X20.2 Y-13.53 Z0.45 F3600.0
G1 X20.14 Y-14.15 Z0.45 F3600.0
G1 X19.95 Y-14.75 Z0.45 F3600.0
G1 X19.66 Y-15.31 Z0.45 F3600.0
G1 X19.26 Y-15.79 Z0.45 F3600.0
G1 X18.77 Y-16.19 Z0.45 F3600.0
G1 X18.21 Y-16.49 Z0.45 F3600.0
G1 X17.61 Y-16.67 Z0.45 F3600.0
G1 X16.99 Y-16.73 Z0.45 F3600.0
G1 X16.36 Y-16.67 Z0.45 F3600.0
G1 X15.76 Y-16.49 Z0.45 F3600.0
G1 X15.2 Y-16.19 Z0.45 F3600.0
G1 X14.72 Y-15.79 Z0.45 F3600.0
G1 X14.32 Y-15.31 Z0.45 F3600.0
G1 X14.02 Y-14.75 Z0.45 F3600.0
G1 X13.84 Y-14.15 Z0.45 F3600.0
G1 X13.78 Y-13.53 Z0.45 F3600.0
G1 X13.84 Y-12.9 Z0.45 F3600.0
G1 X14.02 Y-12.3 Z0.45 F3600.0
G1 X14.32 Y-11.74 Z0.45 F3600.0
G1 X14.72 Y-11.26 Z0.45 F3600.0
G1 X15.2 Y-10.86 Z0.45 F3600.0
G1 X15.3 Y-10.8 Z0.45 F3600.0
M108 R30.0
M102
G1 X15.76 Y-10.56 Z0.45 F3600.0
G1 X16.12 Y-10.45 Z0.45 F3600.0
M108 R6.155
M103
(</perimeter>)
(</boundaryPerimeter>)
(</surroundingLoop>)
(<surroundingLoop>)
(<boundaryPerimeter>)
(<boundaryPoint> X-10.588 Y10.417 Z0.45 </boundaryPoint>)
(<boundaryPoint> X-10.759 Y9.854 Z0.45 </boundaryPoint>)
(<boundaryPoint> X-11.036 Y9.335 Z0.45 </boundaryPoint>)
(<boundaryPoint> X-11.409 Y8.881 Z0.45 </boundaryPoint>)
(<boundaryPoint> X-11.863 Y8.508 Z0.45 </boundaryPoint>)
(<boundaryPoint> X-12.381 Y8.231 Z0.45 </boundaryPoint>)
(<boundaryPoint> X-12.944 Y8.06 Z0.45 </boundaryPoint>)
(<boundaryPoint> X-13.529 Y8.003 Z0.45 </boundaryPoint>)
(<boundaryPoint> X-14.115 Y8.06 Z0.45 </boundaryPoint>)
(<boundaryPoint> X-14.677 Y8.231 Z0.45 </boundaryPoint>)
(<boundaryPoint> X-15.196 Y8.508 Z0.45 </boundaryPoint>)
(<boundaryPoint> X-15.65 Y8.881 Z0.45 </boundaryPoint>)
(<boundaryPoint> X-16.023 Y9.335 Z0.45 </boundaryPoint>)
(<boundaryPoint> X-16.3 Y9.854 Z0.45 </boundaryPoint>)
(<boundaryPoint> X-16.471 Y10.416 Z0.45 </boundaryPoint>)
(<boundaryPoint> X-16.528 Y11.002 Z0.45 </boundaryPoint>)
(<boundaryPoint> X-16.471 Y11.587 Z0.45 </boundaryPoint>)
(<boundaryPoint> X-16.3 Y12.15 Z0.45 </boundaryPoint>)
(<boundaryPoint> X-16.023 Y12.668 Z0.45 </boundaryPoint>)
(<boundaryPoint> X-15.65 Y13.122 Z0.45 </boundaryPoint>)
(<boundaryPoint> X-15.196 Y13.495 Z0.45 </boundaryPoint>)
(<boundaryPoint> X-14.677 Y13.772 Z0.45 </boundaryPoint>)
(<boundaryPoint> X-14.114 Y13.943 Z0.45 </boundaryPoint>)
(<boundaryPoint> X-13.529 Y14.001 Z0.45 </boundaryPoint>)
(<boundaryPoint> X-12.945 Y13.943 Z0.45 </boundaryPoint>)
(<boundaryPoint> X-12.381 Y13.772 Z0.45 </boundaryPoint>)
(<boundaryPoint> X-11.864 Y13.495 Z0.45 </boundaryPoint>)
(<boundaryPoint> X-11.409 Y13.122 Z0.45 </boundaryPoint>)
(<boundaryPoint> X-11.036 Y12.668 Z0.45 </boundaryPoint>)
(<boundaryPoint> X-10.759 Y12.15 Z0.45 </boundaryPoint>)
(<boundaryPoint> X-10.588 Y11.586 Z0.45 </boundaryPoint>)
(<boundaryPoint> X-10.53 Y11.002 Z0.45 </boundaryPoint>)
(<perimeter> inner )
G1 X4.34 Y-1.65 Z0.45 F3000.0
G1 X4.2 Y-1.33 Z0.45 F3000.0
G1 X3.81 Y-1.18 Z0.45 F3000.0
G1 X-10.21 Y8.76 Z0.45 F3000.0
M108 R30.0
M101
G1 X-10.86 Y9.22 Z0.45 F3000.0
M108 R6.155
G1 X-11.26 Y8.73 Z0.45 F3600.0
G1 X-11.75 Y8.33 Z0.45 F3600.0
G1 X-12.3 Y8.04 Z0.45 F3600.0
G1 X-12.9 Y7.85 Z0.45 F3600.0
G1 X-13.53 Y7.79 Z0.45 F3600.0
G1 X-14.16 Y7.85 Z0.45 F3600.0
G1 X-14.76 Y8.04 Z0.45 F3600.0
G1 X-15.31 Y8.33 Z0.45 F3600.0
G1 X-15.8 Y8.73 Z0.45 F3600.0
G1 X-16.2 Y9.22 Z0.45 F3600.0
G1 X-16.5 Y9.77 Z0.45 F3600.0
G1 X-16.68 Y10.38 Z0.45 F3600.0
G1 X-16.74 Y11.0 Z0.45 F3600.0
G1 X-16.68 Y11.63 Z0.45 F3600.0
G1 X-16.5 Y12.23 Z0.45 F3600.0
G1 X-16.2 Y12.79 Z0.45 F3600.0
G1 X-15.8 Y13.27 Z0.45 F3600.0
G1 X-15.31 Y13.67 Z0.45 F3600.0
G1 X-14.76 Y13.97 Z0.45 F3600.0
G1 X-14.16 Y14.15 Z0.45 F3600.0
G1 X-13.53 Y14.21 Z0.45 F3600.0
G1 X-12.9 Y14.15 Z0.45 F3600.0
G1 X-12.3 Y13.97 Z0.45 F3600.0
G1 X-11.75 Y13.67 Z0.45 F3600.0
G1 X-11.26 Y13.27 Z0.45 F3600.0
G1 X-10.86 Y12.79 Z0.45 F3600.0
G1 X-10.56 Y12.23 Z0.45 F3600.0
G1 X-10.38 Y11.63 Z0.45 F3600.0
G1 X-10.32 Y11.0 Z0.45 F3600.0
G1 X-10.38 Y10.38 Z0.45 F3600.0
G1 X-10.48 Y10.03 Z0.45 F3600.0
M108 R30.0
M102
G1 X-10.56 Y9.77 Z0.45 F3600.0
G1 X-10.86 Y9.22 Z0.45 F3600.0
M108 R6.155
M103
(</perimeter>)
(</boundaryPerimeter>)
(</surroundingLoop>)
G1 X-10.96 Y8.74 Z0.45 F3000.0
M108 R30.0
M101
G1 X-11.11 Y7.96 Z0.45 F3000.0
M108 R6.155
G1 X24.02 Y7.96 Z0.45 F3600.0
G1 X24.02 Y8.38 Z0.45 F3600.0
G1 X-10.66 Y8.38 Z0.45 F3600.0
G1 X-10.31 Y8.8 Z0.45 F3600.0
G1 X24.02 Y8.8 Z0.45 F3600.0
G1 X24.02 Y9.21 Z0.45 F3600.0
G1 X-10.08 Y9.21 Z0.45 F3600.0
M103
G1 X-9.88 Y9.63 Z0.45 F3000.0
M101
G1 X24.02 Y9.63 Z0.45 F3600.0
G1 X24.02 Y10.05 Z0.45 F3600.0
G1 X-9.76 Y10.05 Z0.45 F3600.0
G1 X-9.68 Y10.47 Z0.45 F3600.0
G1 X24.02 Y10.47 Z0.45 F3600.0
G1 X24.02 Y10.89 Z0.45 F3600.0
G1 X-9.64 Y10.89 Z0.45 F3600.0
M103
G1 X-9.65 Y11.31 Z0.45 F3000.0
M101
G1 X24.02 Y11.31 Z0.45 F3600.0
G1 X24.02 Y11.73 Z0.45 F3600.0
G1 X-9.7 Y11.73 Z0.45 F3600.0
M103
G1 X-9.82 Y12.15 Z0.45 F3000.0
M101
G1 X24.02 Y12.15 Z0.45 F3600.0
G1 X24.02 Y12.57 Z0.45 F3600.0
G1 X-9.96 Y12.57 Z0.45 F3600.0
M103
G1 X-10.18 Y12.98 Z0.45 F3000.0
M101
G1 X24.02 Y12.98 Z0.45 F3600.0
G1 X24.02 Y13.4 Z0.45 F3600.0
G1 X-10.47 Y13.4 Z0.45 F3600.0
G1 X-10.84 Y13.82 Z0.45 F3600.0
G1 X24.02 Y13.82 Z0.45 F3600.0
G1 X24.02 Y14.24 Z0.45 F3600.0
G1 X-11.35 Y14.24 Z0.45 F3600.0
M103
G1 X-12.21 Y14.66 Z0.45 F3000.0
M101
G1 X23.12 Y14.66 Z0.45 F3600.0
M108 R30.0
M102
G1 X24.02 Y14.66 Z0.45 F3600.0
M108 R6.155
M103
G1 X24.02 Y16.79 Z0.45 F3000.0
M108 R30.0
M101
G1 X24.02 Y17.59 Z0.45 F3000.0
M108 R6.155
G1 X-24.02 Y17.59 Z0.45 F3600.0
G1 X-24.02 Y17.17 Z0.45 F3600.0
G1 X24.02 Y17.17 Z0.45 F3600.0
G1 X24.02 Y16.75 Z0.45 F3600.0
G1 X-24.02 Y16.75 Z0.45 F3600.0
G1 X-24.02 Y16.34 Z0.45 F3600.0
G1 X24.02 Y16.34 Z0.45 F3600.0
G1 X24.02 Y15.92 Z0.45 F3600.0
G1 X-24.02 Y15.92 Z0.45 F3600.0
G1 X-24.02 Y15.5 Z0.45 F3600.0
G1 X24.02 Y15.5 Z0.45 F3600.0
G1 X24.02 Y15.08 Z0.45 F3600.0
G1 X-24.02 Y15.08 Z0.45 F3600.0
G1 X-24.02 Y14.66 Z0.45 F3600.0
G1 X-14.85 Y14.66 Z0.45 F3600.0
M103
G1 X-15.71 Y14.24 Z0.45 F3000.0
M101
G1 X-24.02 Y14.24 Z0.45 F3600.0
G1 X-24.02 Y13.82 Z0.45 F3600.0
G1 X-16.22 Y13.82 Z0.45 F3600.0
G1 X-16.58 Y13.4 Z0.45 F3600.0
G1 X-24.02 Y13.4 Z0.45 F3600.0
G1 X-24.02 Y12.98 Z0.45 F3600.0
G1 X-16.88 Y12.98 Z0.45 F3600.0
G1 X-17.1 Y12.57 Z0.45 F3600.0
G1 X-24.02 Y12.57 Z0.45 F3600.0
G1 X-24.02 Y12.15 Z0.45 F3600.0
G1 X-17.24 Y12.15 Z0.45 F3600.0
M103
G1 X-17.36 Y11.73 Z0.45 F3000.0
M101
G1 X-24.02 Y11.73 Z0.45 F3600.0
G1 X-24.02 Y11.31 Z0.45 F3600.0
G1 X-17.4 Y11.31 Z0.45 F3600.0
G1 X-17.42 Y10.89 Z0.45 F3600.0
G1 X-24.02 Y10.89 Z0.45 F3600.0
G1 X-24.02 Y10.47 Z0.45 F3600.0
G1 X-17.38 Y10.47 Z0.45 F3600.0
M103
G1 X-17.3 Y10.05 Z0.45 F3000.0
M101
G1 X-24.02 Y10.05 Z0.45 F3600.0
G1 X-24.02 Y9.63 Z0.45 F3600.0
G1 X-17.18 Y9.63 Z0.45 F3600.0
G1 X-16.98 Y9.21 Z0.45 F3600.0
G1 X-24.02 Y9.21 Z0.45 F3600.0
G1 X-24.02 Y8.8 Z0.45 F3600.0
G1 X-16.75 Y8.8 Z0.45 F3600.0
G1 X-16.4 Y8.38 Z0.45 F3600.0
G1 X-24.02 Y8.38 Z0.45 F3600.0
G1 X-24.02 Y7.96 Z0.45 F3600.0
G1 X-15.95 Y7.96 Z0.45 F3600.0
M103
G1 X-15.29 Y7.54 Z0.45 F3000.0
M101
G1 X-24.02 Y7.54 Z0.45 F3600.0
G1 X-24.02 Y7.12 Z0.45 F3600.0
G1 X24.02 Y7.12 Z0.45 F3600.0
G1 X24.02 Y7.54 Z0.45 F3600.0
G1 X-10.86 Y7.54 Z0.45 F3600.0
M108 R30.0
M102
G1 X-11.76 Y7.54 Z0.45 F3600.0
M108 R6.155
M103
G1 X12.82 Y-1.4 Z0.45 F3000.0
M108 R30.0
M101
G1 X13.57 Y-1.68 Z0.45 F3000.0
M108 R6.155
G1 X4.95 Y-1.68 Z0.45 F3600.0
G1 X4.95 Y-1.26 Z0.45 F3600.0
G1 X13.82 Y-1.26 Z0.45 F3600.0
G1 X14.17 Y-0.84 Z0.45 F3600.0
G1 X5.85 Y-0.84 Z0.45 F3600.0
M108 R30.0
M102
G1 X4.95 Y-0.84 Z0.45 F3600.0
M108 R6.155
M103
G1 X4.95 Y-6.32 Z0.45 F3000.0
M108 R30.0
M101
G1 X4.95 Y-7.12 Z0.45 F3000.0
M108 R6.155
G1 X15.47 Y-7.12 Z0.45 F3600.0
M103
G1 X14.73 Y-6.7 Z0.45 F3000.0
M101
G1 X4.95 Y-6.7 Z0.45 F3600.0
G1 X4.95 Y-6.28 Z0.45 F3600.0
G1 X14.22 Y-6.28 Z0.45 F3600.0
G1 X13.88 Y-5.86 Z0.45 F3600.0
G1 X4.95 Y-5.86 Z0.45 F3600.0
G1 X4.95 Y-5.45 Z0.45 F3600.0
G1 X13.61 Y-5.45 Z0.45 F3600.0
G1 X13.38 Y-5.03 Z0.45 F3600.0
G1 X4.95 Y-5.03 Z0.45 F3600.0
G1 X4.95 Y-4.61 Z0.45 F3600.0
G1 X13.26 Y-4.61 Z0.45 F3600.0
M103
G1 X13.15 Y-4.19 Z0.45 F3000.0
M101
G1 X4.95 Y-4.19 Z0.45 F3600.0
G1 X4.95 Y-3.77 Z0.45 F3600.0
G1 X13.11 Y-3.77 Z0.45 F3600.0
M103
G1 X13.1 Y-3.35 Z0.45 F3000.0
M101
G1 X4.95 Y-3.35 Z0.45 F3600.0
G1 X4.95 Y-2.93 Z0.45 F3600.0
G1 X13.14 Y-2.93 Z0.45 F3600.0
M103
G1 X13.23 Y-2.51 Z0.45 F3000.0
M101
G1 X4.95 Y-2.51 Z0.45 F3600.0
G1 X4.95 Y-2.09 Z0.45 F3600.0
G1 X12.46 Y-2.09 Z0.45 F3600.0
M108 R30.0
M102
G1 X13.36 Y-2.09 Z0.45 F3600.0
M108 R6.155
M103
G1 X14.16 Y-1.05 Z0.45 F3000.0
M108 R30.0
M101
G1 X14.65 Y-0.42 Z0.45 F3000.0
M108 R6.155
G1 X-24.02 Y-0.42 Z0.45 F3600.0
G1 X-24.02 Y0.0 Z0.45 F3600.0
G1 X14.44 Y0.0 Z0.45 F3600.0
M108 R30.0
M102
G1 X15.34 Y-0.0 Z0.45 F3600.0
M108 R6.155
M103
G1 X23.39 Y6.21 Z0.45 F3000.0
M108 R30.0
M101
G1 X24.02 Y6.7 Z0.45 F3000.0
M108 R6.155
G1 X-24.02 Y6.7 Z0.45 F3600.0
G1 X-24.02 Y6.28 Z0.45 F3600.0
G1 X24.02 Y6.28 Z0.45 F3600.0
G1 X24.02 Y5.86 Z0.45 F3600.0
G1 X-24.02 Y5.86 Z0.45 F3600.0
G1 X-24.02 Y5.45 Z0.45 F3600.0
G1 X24.02 Y5.45 Z0.45 F3600.0
G1 X24.02 Y5.03 Z0.45 F3600.0
G1 X-24.02 Y5.03 Z0.45 F3600.0
G1 X-24.02 Y4.61 Z0.45 F3600.0
G1 X24.02 Y4.61 Z0.45 F3600.0
G1 X24.02 Y4.19 Z0.45 F3600.0
G1 X-24.02 Y4.19 Z0.45 F3600.0
G1 X-24.02 Y3.77 Z0.45 F3600.0
G1 X24.02 Y3.77 Z0.45 F3600.0
G1 X24.02 Y3.35 Z0.45 F3600.0
G1 X-24.02 Y3.35 Z0.45 F3600.0
G1 X-24.02 Y2.93 Z0.45 F3600.0
G1 X24.02 Y2.93 Z0.45 F3600.0
G1 X24.02 Y2.51 Z0.45 F3600.0
G1 X-24.02 Y2.51 Z0.45 F3600.0
G1 X-24.02 Y2.09 Z0.45 F3600.0
G1 X24.02 Y2.09 Z0.45 F3600.0
G1 X24.02 Y1.68 Z0.45 F3600.0
G1 X-24.02 Y1.68 Z0.45 F3600.0
G1 X-24.02 Y1.26 Z0.45 F3600.0
G1 X24.02 Y1.26 Z0.45 F3600.0
G1 X24.02 Y0.84 Z0.45 F3600.0
G1 X-24.02 Y0.84 Z0.45 F3600.0
G1 X-24.02 Y0.42 Z0.45 F3600.0
G1 X24.02 Y0.42 Z0.45 F3600.0
G1 X24.02 Y-0.0 Z0.45 F3600.0
G1 X18.64 Y-0.0 Z0.45 F3600.0
M103
G1 X19.33 Y-0.42 Z0.45 F3000.0
M101
G1 X24.02 Y-0.42 Z0.45 F3600.0
G1 X24.02 Y-0.84 Z0.45 F3600.0
G1 X19.81 Y-0.84 Z0.45 F3600.0
G1 X20.15 Y-1.26 Z0.45 F3600.0
G1 X24.02 Y-1.26 Z0.45 F3600.0
G1 X24.02 Y-1.68 Z0.45 F3600.0
G1 X20.41 Y-1.68 Z0.45 F3600.0
M103
G1 X20.61 Y-2.09 Z0.45 F3000.0
M101
G1 X24.02 Y-2.09 Z0.45 F3600.0
G1 X24.02 Y-2.51 Z0.45 F3600.0
G1 X20.74 Y-2.51 Z0.45 F3600.0
G1 X20.83 Y-2.93 Z0.45 F3600.0
G1 X24.02 Y-2.93 Z0.45 F3600.0
G1 X24.02 Y-3.35 Z0.45 F3600.0
G1 X20.87 Y-3.35 Z0.45 F3600.0
G1 X20.87 Y-3.77 Z0.45 F3600.0
G1 X24.02 Y-3.77 Z0.45 F3600.0
G1 X24.02 Y-4.19 Z0.45 F3600.0
G1 X20.83 Y-4.19 Z0.45 F3600.0
G1 X20.72 Y-4.61 Z0.45 F3600.0
G1 X24.02 Y-4.61 Z0.45 F3600.0
G1 X24.02 Y-5.03 Z0.45 F3600.0
G1 X20.59 Y-5.03 Z0.45 F3600.0
G1 X20.37 Y-5.45 Z0.45 F3600.0
G1 X24.02 Y-5.45 Z0.45 F3600.0
G1 X24.02 Y-5.86 Z0.45 F3600.0
G1 X20.09 Y-5.86 Z0.45 F3600.0
G1 X19.75 Y-6.28 Z0.45 F3600.0
G1 X24.02 Y-6.28 Z0.45 F3600.0
G1 X24.02 Y-6.7 Z0.45 F3600.0
G1 X19.24 Y-6.7 Z0.45 F3600.0
G1 X18.5 Y-7.12 Z0.45 F3600.0
G1 X24.02 Y-7.12 Z0.45 F3600.0
G1 X24.02 Y-7.54 Z0.45 F3600.0
G1 X4.95 Y-7.54 Z0.45 F3600.0
G1 X4.95 Y-7.96 Z0.45 F3600.0
G1 X24.02 Y-7.96 Z0.45 F3600.0
G1 X24.02 Y-8.38 Z0.45 F3600.0
G1 X4.95 Y-8.38 Z0.45 F3600.0
G1 X4.95 Y-8.8 Z0.45 F3600.0
G1 X24.02 Y-8.8 Z0.45 F3600.0
G1 X24.02 Y-9.21 Z0.45 F3600.0
G1 X4.95 Y-9.21 Z0.45 F3600.0
G1 X4.95 Y-9.63 Z0.45 F3600.0
G1 X16.85 Y-9.63 Z0.45 F3600.0
M103
G1 X17.12 Y-9.63 Z0.45 F3000.0
M101
G1 X24.02 Y-9.63 Z0.45 F3600.0
G1 X24.02 Y-10.05 Z0.45 F3600.0
G1 X18.73 Y-10.05 Z0.45 F3600.0
M103
G1 X19.39 Y-10.47 Z0.45 F3000.0
M101
G1 X24.02 Y-10.47 Z0.45 F3600.0
G1 X24.02 Y-10.89 Z0.45 F3600.0
G1 X19.85 Y-10.89 Z0.45 F3600.0
G1 X20.2 Y-11.31 Z0.45 F3600.0
G1 X24.02 Y-11.31 Z0.45 F3600.0
G1 X24.02 Y-11.73 Z0.45 F3600.0
G1 X20.43 Y-11.73 Z0.45 F3600.0
G1 X20.63 Y-12.15 Z0.45 F3600.0
G1 X24.02 Y-12.15 Z0.45 F3600.0
G1 X24.02 Y-12.57 Z0.45 F3600.0
G1 X20.76 Y-12.57 Z0.45 F3600.0
M103
G1 X20.84 Y-12.98 Z0.45 F3000.0
M101
G1 X24.02 Y-12.98 Z0.45 F3600.0
G1 X24.02 Y-13.4 Z0.45 F3600.0
G1 X20.88 Y-13.4 Z0.45 F3600.0
G1 X20.86 Y-13.82 Z0.45 F3600.0
G1 X24.02 Y-13.82 Z0.45 F3600.0
G1 X24.02 Y-14.24 Z0.45 F3600.0
G1 X20.82 Y-14.24 Z0.45 F3600.0
M103
G1 X20.7 Y-14.66 Z0.45 F3000.0
M101
G1 X24.02 Y-14.66 Z0.45 F3600.0
G1 X24.02 Y-15.08 Z0.45 F3600.0
G1 X20.56 Y-15.08 Z0.45 F3600.0
M103
G1 X20.34 Y-15.5 Z0.45 F3000.0
M101
G1 X24.02 Y-15.5 Z0.45 F3600.0
G1 X24.02 Y-15.92 Z0.45 F3600.0
G1 X20.05 Y-15.92 Z0.45 F3600.0
G1 X19.68 Y-16.34 Z0.45 F3600.0
G1 X24.02 Y-16.34 Z0.45 F3600.0
G1 X24.02 Y-16.75 Z0.45 F3600.0
G1 X19.18 Y-16.75 Z0.45 F3600.0
G1 X18.34 Y-17.17 Z0.45 F3600.0
G1 X24.02 Y-17.17 Z0.45 F3600.0
G1 X24.02 Y-17.59 Z0.45 F3600.0
G1 X4.95 Y-17.59 Z0.45 F3600.0
G1 X4.95 Y-17.17 Z0.45 F3600.0
G1 X15.63 Y-17.17 Z0.45 F3600.0
M103
G1 X14.8 Y-16.75 Z0.45 F3000.0
M101
G1 X4.95 Y-16.75 Z0.45 F3600.0
G1 X4.95 Y-16.34 Z0.45 F3600.0
G1 X14.29 Y-16.34 Z0.45 F3600.0
G1 X13.93 Y-15.92 Z0.45 F3600.0
G1 X4.95 Y-15.92 Z0.45 F3600.0
G1 X4.95 Y-15.5 Z0.45 F3600.0
G1 X13.64 Y-15.5 Z0.45 F3600.0
M103
G1 X13.41 Y-15.08 Z0.45 F3000.0
M101
G1 X4.95 Y-15.08 Z0.45 F3600.0
G1 X4.95 Y-14.66 Z0.45 F3600.0
G1 X13.27 Y-14.66 Z0.45 F3600.0
M103
G1 X13.15 Y-14.24 Z0.45 F3000.0
M101
G1 X4.95 Y-14.24 Z0.45 F3600.0
G1 X4.95 Y-13.82 Z0.45 F3600.0
G1 X13.11 Y-13.82 Z0.45 F3600.0
M103
G1 X13.1 Y-13.4 Z0.45 F3000.0
M101
G1 X4.95 Y-13.4 Z0.45 F3600.0
G1 X4.95 Y-12.98 Z0.45 F3600.0
G1 X13.14 Y-12.98 Z0.45 F3600.0
M103
G1 X13.22 Y-12.57 Z0.45 F3000.0
M101
G1 X4.95 Y-12.57 Z0.45 F3600.0
G1 X4.95 Y-12.15 Z0.45 F3600.0
G1 X13.35 Y-12.15 Z0.45 F3600.0
G1 X13.54 Y-11.73 Z0.45 F3600.0
G1 X4.95 Y-11.73 Z0.45 F3600.0
G1 X4.95 Y-11.31 Z0.45 F3600.0
G1 X13.78 Y-11.31 Z0.45 F3600.0
G1 X14.12 Y-10.89 Z0.45 F3600.0
G1 X4.95 Y-10.89 Z0.45 F3600.0
G1 X4.95 Y-10.47 Z0.45 F3600.0
G1 X14.58 Y-10.47 Z0.45 F3600.0
G1 X15.24 Y-10.05 Z0.45 F3600.0
G1 X5.85 Y-10.05 Z0.45 F3600.0
M108 R30.0
M102
G1 X4.95 Y-10.05 Z0.45 F3600.0
M108 R6.155
M103
(</surroundingLoop>)
(</layer>)
(<operatingLayerEnd> </operatingLayerEnd>)
(<layer> 0.75 )
(<surroundingLoop>)
(<boundaryPerimeter>)
(<boundaryPoint> X4.05 Y-1.475 Z0.75 </boundaryPoint>)
(<boundaryPoint> X4.05 Y-18.525 Z0.75 </boundaryPoint>)
(<boundaryPoint> X24.925 Y-18.525 Z0.75 </boundaryPoint>)
(<boundaryPoint> X24.925 Y18.525 Z0.75 </boundaryPoint>)
(<boundaryPoint> X-24.925 Y18.525 Z0.75 </boundaryPoint>)
(<boundaryPoint> X-24.925 Y-1.475 Z0.75 </boundaryPoint>)
(<loop> inner )
G1 X4.34 Y-9.03 Z0.75 F3000.0
G1 X4.2 Y-1.33 Z0.75 F3000.0
G1 X-2.62 Y-1.18 Z0.75 F3000.0
G1 X-10.65 Y7.65 Z0.75 F3000.0
M108 R30.0
M101
G1 X-11.19 Y8.25 Z0.75 F3000.0
M108 R6.155
G1 X-11.51 Y7.98 Z0.75 F3600.0
G1 X-12.14 Y7.65 Z0.75 F3600.0
G1 X-12.82 Y7.44 Z0.75 F3600.0
G1 X-13.53 Y7.37 Z0.75 F3600.0
G1 X-14.24 Y7.44 Z0.75 F3600.0
G1 X-14.92 Y7.65 Z0.75 F3600.0
G1 X-15.55 Y7.98 Z0.75 F3600.0
G1 X-16.1 Y8.43 Z0.75 F3600.0
G1 X-16.55 Y8.98 Z0.75 F3600.0
G1 X-16.88 Y9.61 Z0.75 F3600.0
G1 X-17.09 Y10.29 Z0.75 F3600.0
G1 X-17.16 Y11.0 Z0.75 F3600.0
G1 X-17.09 Y11.71 Z0.75 F3600.0
G1 X-16.88 Y12.39 Z0.75 F3600.0
G1 X-16.55 Y13.02 Z0.75 F3600.0
G1 X-16.1 Y13.57 Z0.75 F3600.0
G1 X-15.55 Y14.02 Z0.75 F3600.0
G1 X-14.92 Y14.36 Z0.75 F3600.0
G1 X-14.24 Y14.56 Z0.75 F3600.0
G1 X-13.53 Y14.63 Z0.75 F3600.0
G1 X-12.82 Y14.56 Z0.75 F3600.0
G1 X-12.14 Y14.36 Z0.75 F3600.0
G1 X-11.51 Y14.02 Z0.75 F3600.0
G1 X-10.96 Y13.57 Z0.75 F3600.0
G1 X-10.51 Y13.02 Z0.75 F3600.0
G1 X-10.18 Y12.39 Z0.75 F3600.0
G1 X-9.97 Y11.71 Z0.75 F3600.0
G1 X-9.9 Y11.0 Z0.75 F3600.0
G1 X-9.97 Y10.29 Z0.75 F3600.0
G1 X-10.18 Y9.61 Z0.75 F3600.0
G1 X-10.51 Y8.98 Z0.75 F3600.0
G1 X-10.58 Y8.9 Z0.75 F3600.0
M108 R30.0
M102
G1 X-10.96 Y8.43 Z0.75 F3600.0
G1 X-11.19 Y8.25 Z0.75 F3600.0
M108 R6.155
M103
(</loop>)
(<loop> inner )
G1 X1.19 Y-1.18 Z0.75 F3000.0
G1 X4.2 Y-1.33 Z0.75 F3000.0
G1 X4.34 Y-3.72 Z0.75 F3000.0
G1 X13.35 Y-11.0 Z0.75 F3000.0
M108 R30.0
M101
G1 X13.97 Y-11.51 Z0.75 F3000.0
M108 R6.155
G1 X14.42 Y-10.96 Z0.75 F3600.0
G1 X14.97 Y-10.51 Z0.75 F3600.0
G1 X15.6 Y-10.17 Z0.75 F3600.0
G1 X16.28 Y-9.96 Z0.75 F3600.0
G1 X16.99 Y-9.89 Z0.75 F3600.0
G1 X17.7 Y-9.96 Z0.75 F3600.0
G1 X18.38 Y-10.17 Z0.75 F3600.0
G1 X19.0 Y-10.51 Z0.75 F3600.0
G1 X19.55 Y-10.96 Z0.75 F3600.0
G1 X20.01 Y-11.51 Z0.75 F3600.0
G1 X20.34 Y-12.13 Z0.75 F3600.0
G1 X20.55 Y-12.82 Z0.75 F3600.0
G1 X20.62 Y-13.53 Z0.75 F3600.0
G1 X20.55 Y-14.23 Z0.75 F3600.0
G1 X20.34 Y-14.91 Z0.75 F3600.0
G1 X20.01 Y-15.54 Z0.75 F3600.0
G1 X19.55 Y-16.09 Z0.75 F3600.0
G1 X19.0 Y-16.54 Z0.75 F3600.0
G1 X18.38 Y-16.88 Z0.75 F3600.0
G1 X17.7 Y-17.09 Z0.75 F3600.0
G1 X16.99 Y-17.16 Z0.75 F3600.0
G1 X16.28 Y-17.09 Z0.75 F3600.0
G1 X15.6 Y-16.88 Z0.75 F3600.0
G1 X14.97 Y-16.54 Z0.75 F3600.0
G1 X14.42 Y-16.09 Z0.75 F3600.0
G1 X13.97 Y-15.54 Z0.75 F3600.0
G1 X13.63 Y-14.91 Z0.75 F3600.0
G1 X13.43 Y-14.23 Z0.75 F3600.0
G1 X13.36 Y-13.53 Z0.75 F3600.0
G1 X13.43 Y-12.82 Z0.75 F3600.0
G1 X13.58 Y-12.31 Z0.75 F3600.0
M108 R30.0
M102
G1 X13.63 Y-12.14 Z0.75 F3600.0
G1 X13.97 Y-11.51 Z0.75 F3600.0
M108 R6.155
M103
(</loop>)
(<loop> inner )
G1 X15.33 Y-7.63 Z0.75 F3000.0
M108 R30.0
M101
G1 X15.6 Y-6.88 Z0.75 F3000.0
M108 R6.155
G1 X14.97 Y-6.54 Z0.75 F3600.0
G1 X14.42 Y-6.09 Z0.75 F3600.0
G1 X13.97 Y-5.54 Z0.75 F3600.0
G1 X13.63 Y-4.91 Z0.75 F3600.0
G1 X13.43 Y-4.23 Z0.75 F3600.0
G1 X13.36 Y-3.52 Z0.75 F3600.0
G1 X13.43 Y-2.82 Z0.75 F3600.0
G1 X13.63 Y-2.14 Z0.75 F3600.0
G1 X13.97 Y-1.51 Z0.75 F3600.0
G1 X14.42 Y-0.96 Z0.75 F3600.0
G1 X14.97 Y-0.51 Z0.75 F3600.0
G1 X15.6 Y-0.17 Z0.75 F3600.0
G1 X16.28 Y0.04 Z0.75 F3600.0
G1 X16.99 Y0.11 Z0.75 F3600.0
G1 X17.7 Y0.04 Z0.75 F3600.0
G1 X18.38 Y-0.17 Z0.75 F3600.0
G1 X19.0 Y-0.51 Z0.75 F3600.0
G1 X19.55 Y-0.96 Z0.75 F3600.0
G1 X20.01 Y-1.51 Z0.75 F3600.0
G1 X20.34 Y-2.13 Z0.75 F3600.0
G1 X20.55 Y-2.82 Z0.75 F3600.0
G1 X20.62 Y-3.52 Z0.75 F3600.0
G1 X20.55 Y-4.23 Z0.75 F3600.0
G1 X20.34 Y-4.92 Z0.75 F3600.0
G1 X20.01 Y-5.54 Z0.75 F3600.0
G1 X19.55 Y-6.09 Z0.75 F3600.0
G1 X19.0 Y-6.54 Z0.75 F3600.0
G1 X18.38 Y-6.88 Z0.75 F3600.0
G1 X17.7 Y-7.08 Z0.75 F3600.0
G1 X16.99 Y-7.16 Z0.75 F3600.0
G1 X16.47 Y-7.1 Z0.75 F3600.0
M108 R30.0
M102
G1 X16.28 Y-7.08 Z0.75 F3600.0
G1 X15.6 Y-6.88 Z0.75 F3600.0
M108 R6.155
M103
(</loop>)
(<loop> outer )
G1 X23.5 Y-6.88 Z0.75 F3000.0
M108 R30.0
M101
G1 X24.3 Y-6.88 Z0.75 F3000.0
M108 R6.155
G1 X24.3 Y17.9 Z0.75 F3600.0
G1 X-24.3 Y17.9 Z0.75 F3600.0
G1 X-24.3 Y-0.85 Z0.75 F3600.0
G1 X4.68 Y-0.85 Z0.75 F3600.0
G1 X4.68 Y-17.9 Z0.75 F3600.0
G1 X24.3 Y-17.9 Z0.75 F3600.0
G1 X24.3 Y-6.88 Z0.75 F3600.0
M103
(</loop>)
(<perimeter> outer )
G1 X24.72 Y-6.88 Z0.75 F3000.0
M101
G1 X24.72 Y18.32 Z0.75 F3600.0
G1 X-24.72 Y18.32 Z0.75 F3600.0
G1 X-24.72 Y-1.27 Z0.75 F3600.0
G1 X4.26 Y-1.27 Z0.75 F3600.0
G1 X4.26 Y-18.32 Z0.75 F3600.0
G1 X24.72 Y-18.32 Z0.75 F3600.0
G1 X24.72 Y-7.78 Z0.75 F3600.0
M108 R30.0
M102
G1 X24.72 Y-6.88 Z0.75 F3600.0
M108 R6.155
M103
(</perimeter>)
(</boundaryPerimeter>)
(<surroundingLoop>)
(<boundaryPerimeter>)
(<boundaryPoint> X19.929 Y-4.11 Z0.75 </boundaryPoint>)
(<boundaryPoint> X19.758 Y-4.673 Z0.75 </boundaryPoint>)
(<boundaryPoint> X19.481 Y-5.192 Z0.75 </boundaryPoint>)
(<boundaryPoint> X19.109 Y-5.645 Z0.75 </boundaryPoint>)
(<boundaryPoint> X18.654 Y-6.018 Z0.75 </boundaryPoint>)
(<boundaryPoint> X18.135 Y-6.296 Z0.75 </boundaryPoint>)
(<boundaryPoint> X17.573 Y-6.466 Z0.75 </boundaryPoint>)
(<boundaryPoint> X16.987 Y-6.524 Z0.75 </boundaryPoint>)
(<boundaryPoint> X16.402 Y-6.466 Z0.75 </boundaryPoint>)
(<boundaryPoint> X15.839 Y-6.296 Z0.75 </boundaryPoint>)
(<boundaryPoint> X15.321 Y-6.018 Z0.75 </boundaryPoint>)
(<boundaryPoint> X14.866 Y-5.645 Z0.75 </boundaryPoint>)
(<boundaryPoint> X14.494 Y-5.192 Z0.75 </boundaryPoint>)
(<boundaryPoint> X14.217 Y-4.673 Z0.75 </boundaryPoint>)
(<boundaryPoint> X14.046 Y-4.109 Z0.75 </boundaryPoint>)
(<boundaryPoint> X13.988 Y-3.525 Z0.75 </boundaryPoint>)
(<boundaryPoint> X14.046 Y-2.941 Z0.75 </boundaryPoint>)
(<boundaryPoint> X14.217 Y-2.377 Z0.75 </boundaryPoint>)
(<boundaryPoint> X14.494 Y-1.858 Z0.75 </boundaryPoint>)
(<boundaryPoint> X14.866 Y-1.405 Z0.75 </boundaryPoint>)
(<boundaryPoint> X15.321 Y-1.032 Z0.75 </boundaryPoint>)
(<boundaryPoint> X15.839 Y-0.754 Z0.75 </boundaryPoint>)
(<boundaryPoint> X16.402 Y-0.584 Z0.75 </boundaryPoint>)
(<boundaryPoint> X16.987 Y-0.526 Z0.75 </boundaryPoint>)
(<boundaryPoint> X17.573 Y-0.584 Z0.75 </boundaryPoint>)
(<boundaryPoint> X18.135 Y-0.754 Z0.75 </boundaryPoint>)
(<boundaryPoint> X18.654 Y-1.032 Z0.75 </boundaryPoint>)
(<boundaryPoint> X19.109 Y-1.405 Z0.75 </boundaryPoint>)
(<boundaryPoint> X19.481 Y-1.858 Z0.75 </boundaryPoint>)
(<boundaryPoint> X19.758 Y-2.377 Z0.75 </boundaryPoint>)
(<boundaryPoint> X19.929 Y-2.94 Z0.75 </boundaryPoint>)
(<boundaryPoint> X19.986 Y-3.525 Z0.75 </boundaryPoint>)
(<perimeter> inner )
G1 X20.68 Y-5.08 Z0.75 F3000.0
M108 R30.0
M101
G1 X19.95 Y-4.75 Z0.75 F3000.0
M108 R6.155
G1 X19.66 Y-5.31 Z0.75 F3600.0
G1 X19.26 Y-5.79 Z0.75 F3600.0
G1 X18.77 Y-6.19 Z0.75 F3600.0
G1 X18.21 Y-6.49 Z0.75 F3600.0
G1 X17.61 Y-6.67 Z0.75 F3600.0
G1 X16.99 Y-6.74 Z0.75 F3600.0
G1 X16.36 Y-6.67 Z0.75 F3600.0
G1 X15.76 Y-6.49 Z0.75 F3600.0
G1 X15.2 Y-6.19 Z0.75 F3600.0
G1 X14.72 Y-5.79 Z0.75 F3600.0
G1 X14.32 Y-5.31 Z0.75 F3600.0
G1 X14.02 Y-4.75 Z0.75 F3600.0
G1 X13.84 Y-4.15 Z0.75 F3600.0
G1 X13.78 Y-3.52 Z0.75 F3600.0
G1 X13.84 Y-2.9 Z0.75 F3600.0
G1 X14.02 Y-2.3 Z0.75 F3600.0
G1 X14.32 Y-1.74 Z0.75 F3600.0
G1 X14.72 Y-1.26 Z0.75 F3600.0
G1 X15.2 Y-0.86 Z0.75 F3600.0
G1 X15.76 Y-0.56 Z0.75 F3600.0
G1 X16.36 Y-0.38 Z0.75 F3600.0
G1 X16.99 Y-0.32 Z0.75 F3600.0
G1 X17.61 Y-0.38 Z0.75 F3600.0
G1 X18.21 Y-0.56 Z0.75 F3600.0
G1 X18.77 Y-0.86 Z0.75 F3600.0
G1 X19.26 Y-1.26 Z0.75 F3600.0
G1 X19.66 Y-1.74 Z0.75 F3600.0
G1 X19.95 Y-2.3 Z0.75 F3600.0
G1 X20.14 Y-2.9 Z0.75 F3600.0
G1 X20.2 Y-3.52 Z0.75 F3600.0
G1 X20.16 Y-3.88 Z0.75 F3600.0
M108 R30.0
M102
G1 X20.14 Y-4.15 Z0.75 F3600.0
G1 X19.95 Y-4.75 Z0.75 F3600.0
M108 R6.155
M103
(</perimeter>)
(</boundaryPerimeter>)
(</surroundingLoop>)
(<surroundingLoop>)
(<boundaryPerimeter>)
(<boundaryPoint> X19.929 Y-14.11 Z0.75 </boundaryPoint>)
(<boundaryPoint> X19.758 Y-14.673 Z0.75 </boundaryPoint>)
(<boundaryPoint> X19.481 Y-15.192 Z0.75 </boundaryPoint>)
(<boundaryPoint> X19.108 Y-15.645 Z0.75 </boundaryPoint>)
(<boundaryPoint> X18.654 Y-16.019 Z0.75 </boundaryPoint>)
(<boundaryPoint> X18.135 Y-16.296 Z0.75 </boundaryPoint>)
(<boundaryPoint> X17.573 Y-16.466 Z0.75 </boundaryPoint>)
(<boundaryPoint> X16.987 Y-16.524 Z0.75 </boundaryPoint>)
(<boundaryPoint> X16.402 Y-16.466 Z0.75 </boundaryPoint>)
(<boundaryPoint> X15.839 Y-16.296 Z0.75 </boundaryPoint>)
(<boundaryPoint> X15.321 Y-16.019 Z0.75 </boundaryPoint>)
(<boundaryPoint> X14.867 Y-15.645 Z0.75 </boundaryPoint>)
(<boundaryPoint> X14.494 Y-15.192 Z0.75 </boundaryPoint>)
(<boundaryPoint> X14.217 Y-14.673 Z0.75 </boundaryPoint>)
(<boundaryPoint> X14.046 Y-14.109 Z0.75 </boundaryPoint>)
(<boundaryPoint> X13.988 Y-13.525 Z0.75 </boundaryPoint>)
(<boundaryPoint> X14.046 Y-12.941 Z0.75 </boundaryPoint>)
(<boundaryPoint> X14.217 Y-12.377 Z0.75 </boundaryPoint>)
(<boundaryPoint> X14.494 Y-11.858 Z0.75 </boundaryPoint>)
(<boundaryPoint> X14.866 Y-11.405 Z0.75 </boundaryPoint>)
(<boundaryPoint> X15.321 Y-11.032 Z0.75 </boundaryPoint>)
(<boundaryPoint> X15.839 Y-10.754 Z0.75 </boundaryPoint>)
(<boundaryPoint> X16.402 Y-10.584 Z0.75 </boundaryPoint>)
(<boundaryPoint> X16.987 Y-10.526 Z0.75 </boundaryPoint>)
(<boundaryPoint> X17.573 Y-10.584 Z0.75 </boundaryPoint>)
(<boundaryPoint> X18.135 Y-10.754 Z0.75 </boundaryPoint>)
(<boundaryPoint> X18.654 Y-11.032 Z0.75 </boundaryPoint>)
(<boundaryPoint> X19.109 Y-11.405 Z0.75 </boundaryPoint>)
(<boundaryPoint> X19.481 Y-11.858 Z0.75 </boundaryPoint>)
(<boundaryPoint> X19.758 Y-12.377 Z0.75 </boundaryPoint>)
(<boundaryPoint> X19.929 Y-12.94 Z0.75 </boundaryPoint>)
(<boundaryPoint> X19.986 Y-13.525 Z0.75 </boundaryPoint>)
(<perimeter> inner )
G1 X18.44 Y-9.79 Z0.75 F3000.0
M108 R30.0
M101
G1 X18.21 Y-10.56 Z0.75 F3000.0
M108 R6.155
G1 X18.77 Y-10.86 Z0.75 F3600.0
G1 X19.26 Y-11.26 Z0.75 F3600.0
G1 X19.66 Y-11.74 Z0.75 F3600.0
G1 X19.95 Y-12.3 Z0.75 F3600.0
G1 X20.14 Y-12.9 Z0.75 F3600.0
G1 X20.2 Y-13.53 Z0.75 F3600.0
G1 X20.14 Y-14.15 Z0.75 F3600.0
G1 X19.95 Y-14.75 Z0.75 F3600.0
G1 X19.66 Y-15.31 Z0.75 F3600.0
G1 X19.26 Y-15.79 Z0.75 F3600.0
G1 X18.77 Y-16.19 Z0.75 F3600.0
G1 X18.21 Y-16.49 Z0.75 F3600.0
G1 X17.61 Y-16.67 Z0.75 F3600.0
G1 X16.99 Y-16.73 Z0.75 F3600.0
G1 X16.36 Y-16.67 Z0.75 F3600.0
G1 X15.76 Y-16.49 Z0.75 F3600.0
G1 X15.2 Y-16.19 Z0.75 F3600.0
G1 X14.72 Y-15.79 Z0.75 F3600.0
G1 X14.32 Y-15.31 Z0.75 F3600.0
G1 X14.02 Y-14.75 Z0.75 F3600.0
G1 X13.84 Y-14.15 Z0.75 F3600.0
G1 X13.78 Y-13.53 Z0.75 F3600.0
G1 X13.84 Y-12.9 Z0.75 F3600.0
G1 X14.02 Y-12.3 Z0.75 F3600.0
G1 X14.32 Y-11.74 Z0.75 F3600.0
G1 X14.72 Y-11.26 Z0.75 F3600.0
G1 X15.2 Y-10.86 Z0.75 F3600.0
G1 X15.76 Y-10.56 Z0.75 F3600.0
G1 X16.36 Y-10.38 Z0.75 F3600.0
G1 X16.99 Y-10.31 Z0.75 F3600.0
G1 X17.34 Y-10.35 Z0.75 F3600.0
M108 R30.0
M102
G1 X17.61 Y-10.38 Z0.75 F3600.0
G1 X18.21 Y-10.56 Z0.75 F3600.0
M108 R6.155
M103
(</perimeter>)
(</boundaryPerimeter>)
(</surroundingLoop>)
(<surroundingLoop>)
(<boundaryPerimeter>)
(<boundaryPoint> X-10.588 Y10.417 Z0.75 </boundaryPoint>)
(<boundaryPoint> X-10.759 Y9.854 Z0.75 </boundaryPoint>)
(<boundaryPoint> X-11.036 Y9.335 Z0.75 </boundaryPoint>)
(<boundaryPoint> X-11.409 Y8.881 Z0.75 </boundaryPoint>)
(<boundaryPoint> X-11.863 Y8.508 Z0.75 </boundaryPoint>)
(<boundaryPoint> X-12.381 Y8.231 Z0.75 </boundaryPoint>)
(<boundaryPoint> X-12.944 Y8.06 Z0.75 </boundaryPoint>)
(<boundaryPoint> X-13.529 Y8.003 Z0.75 </boundaryPoint>)
(<boundaryPoint> X-14.115 Y8.06 Z0.75 </boundaryPoint>)
(<boundaryPoint> X-14.677 Y8.231 Z0.75 </boundaryPoint>)
(<boundaryPoint> X-15.196 Y8.508 Z0.75 </boundaryPoint>)
(<boundaryPoint> X-15.65 Y8.881 Z0.75 </boundaryPoint>)
(<boundaryPoint> X-16.023 Y9.335 Z0.75 </boundaryPoint>)
(<boundaryPoint> X-16.3 Y9.854 Z0.75 </boundaryPoint>)
(<boundaryPoint> X-16.471 Y10.416 Z0.75 </boundaryPoint>)
(<boundaryPoint> X-16.528 Y11.002 Z0.75 </boundaryPoint>)
(<boundaryPoint> X-16.471 Y11.587 Z0.75 </boundaryPoint>)
(<boundaryPoint> X-16.3 Y12.15 Z0.75 </boundaryPoint>)
(<boundaryPoint> X-16.023 Y12.668 Z0.75 </boundaryPoint>)
(<boundaryPoint> X-15.65 Y13.122 Z0.75 </boundaryPoint>)
(<boundaryPoint> X-15.196 Y13.495 Z0.75 </boundaryPoint>)
(<boundaryPoint> X-14.677 Y13.772 Z0.75 </boundaryPoint>)
(<boundaryPoint> X-14.114 Y13.943 Z0.75 </boundaryPoint>)
(<boundaryPoint> X-13.529 Y14.001 Z0.75 </boundaryPoint>)
(<boundaryPoint> X-12.945 Y13.943 Z0.75 </boundaryPoint>)
(<boundaryPoint> X-12.381 Y13.772 Z0.75 </boundaryPoint>)
(<boundaryPoint> X-11.864 Y13.495 Z0.75 </boundaryPoint>)
(<boundaryPoint> X-11.409 Y13.122 Z0.75 </boundaryPoint>)
(<boundaryPoint> X-11.036 Y12.668 Z0.75 </boundaryPoint>)
(<boundaryPoint> X-10.759 Y12.15 Z0.75 </boundaryPoint>)
(<boundaryPoint> X-10.588 Y11.586 Z0.75 </boundaryPoint>)
(<boundaryPoint> X-10.53 Y11.002 Z0.75 </boundaryPoint>)
(<perimeter> inner )
G1 X-10.2 Y8.77 Z0.75 F3000.0
M108 R30.0
M101
G1 X-10.86 Y9.22 Z0.75 F3000.0
M108 R6.155
G1 X-11.26 Y8.73 Z0.75 F3600.0
G1 X-11.75 Y8.33 Z0.75 F3600.0
G1 X-12.3 Y8.04 Z0.75 F3600.0
G1 X-12.9 Y7.85 Z0.75 F3600.0
G1 X-13.53 Y7.79 Z0.75 F3600.0
G1 X-14.16 Y7.85 Z0.75 F3600.0
G1 X-14.76 Y8.04 Z0.75 F3600.0
G1 X-15.31 Y8.33 Z0.75 F3600.0
G1 X-15.8 Y8.73 Z0.75 F3600.0
G1 X-16.2 Y9.22 Z0.75 F3600.0
G1 X-16.5 Y9.77 Z0.75 F3600.0
G1 X-16.68 Y10.38 Z0.75 F3600.0
G1 X-16.74 Y11.0 Z0.75 F3600.0
G1 X-16.68 Y11.63 Z0.75 F3600.0
G1 X-16.5 Y12.23 Z0.75 F3600.0
G1 X-16.2 Y12.79 Z0.75 F3600.0
G1 X-15.8 Y13.27 Z0.75 F3600.0
G1 X-15.31 Y13.67 Z0.75 F3600.0
G1 X-14.76 Y13.97 Z0.75 F3600.0
G1 X-14.16 Y14.15 Z0.75 F3600.0
G1 X-13.53 Y14.21 Z0.75 F3600.0
G1 X-12.9 Y14.15 Z0.75 F3600.0
G1 X-12.3 Y13.97 Z0.75 F3600.0
G1 X-11.75 Y13.67 Z0.75 F3600.0
G1 X-11.26 Y13.27 Z0.75 F3600.0
G1 X-10.86 Y12.79 Z0.75 F3600.0
G1 X-10.56 Y12.23 Z0.75 F3600.0
G1 X-10.38 Y11.63 Z0.75 F3600.0
G1 X-10.32 Y11.0 Z0.75 F3600.0
G1 X-10.38 Y10.38 Z0.75 F3600.0
G1 X-10.48 Y10.03 Z0.75 F3600.0
M108 R30.0
M102
G1 X-10.56 Y9.77 Z0.75 F3600.0
G1 X-10.86 Y9.22 Z0.75 F3600.0
M108 R6.155
M103
(</perimeter>)
(</boundaryPerimeter>)
(</surroundingLoop>)
G1 X-12.87 Y7.6 Z0.75 F3000.0
M108 R30.0
M101
G1 X-13.5 Y7.1 Z0.75 F3000.0
M108 R6.155
G1 X-15.0 Y5.95 Z0.75 F3600.0
G1 X-15.0 Y5.68 Z0.75 F3600.0
G1 X-12.92 Y3.63 Z0.75 F3600.0
G1 X-12.92 Y3.35 Z0.75 F3600.0
G1 X-15.0 Y1.3 Z0.75 F3600.0
G1 X-15.0 Y1.03 Z0.75 F3600.0
G1 X-13.5 Y-0.57 Z0.75 F3600.0
G1 X-9.31 Y-0.57 Z0.75 F3600.0
G1 X-10.59 Y1.03 Z0.75 F3600.0
G1 X-10.59 Y1.3 Z0.75 F3600.0
G1 X-12.68 Y3.35 Z0.75 F3600.0
G1 X-12.68 Y3.63 Z0.75 F3600.0
G1 X-10.59 Y5.68 Z0.75 F3600.0
G1 X-10.59 Y5.95 Z0.75 F3600.0
G1 X-11.38 Y7.22 Z0.75 F3600.0
G1 X-11.17 Y7.91 Z0.75 F3600.0
G1 X-10.81 Y8.22 Z0.75 F3600.0
M108 R30.0
M102
G1 X-10.71 Y8.32 Z0.75 F3600.0
G1 X-10.24 Y8.91 Z0.75 F3600.0
M108 R6.155
M103
G1 X-11.09 Y16.83 Z0.75 F3000.0
M108 R30.0
M101
G1 X-11.17 Y17.62 Z0.75 F3000.0
M108 R6.155
G1 X-10.71 Y17.16 Z0.75 F3600.0
G1 X-10.59 Y14.99 Z0.75 F3600.0
G1 X-11.38 Y14.78 Z0.75 F3600.0
G1 X-11.17 Y14.09 Z0.75 F3600.0
G1 X-10.81 Y13.78 Z0.75 F3600.0
M108 R30.0
M102
G1 X-10.71 Y13.68 Z0.75 F3600.0
G1 X-10.24 Y13.09 Z0.75 F3600.0
M108 R6.155
M103
G1 X-13.24 Y14.52 Z0.75 F3000.0
M108 R30.0
M101
G1 X-13.96 Y14.86 Z0.75 F3000.0
M108 R6.155
G1 X-13.5 Y14.9 Z0.75 F3600.0
G1 X-12.99 Y15.32 Z0.75 F3600.0
G1 X-12.57 Y17.16 Z0.75 F3600.0
G1 X-12.69 Y17.22 Z0.75 F3600.0
M108 R30.0
M102
G1 X-13.5 Y17.62 Z0.75 F3600.0
M108 R6.155
M103
G1 X-15.02 Y17.62 Z0.75 F3000.0
M108 R30.0
M101
G1 X-15.82 Y17.62 Z0.75 F3000.0
M108 R6.155
G1 X-15.36 Y17.16 Z0.75 F3600.0
G1 X-14.56 Y15.23 Z0.75 F3600.0
G1 X-14.89 Y14.65 Z0.75 F3600.0
G1 X-15.6 Y14.83 Z0.75 F3600.0
G1 X-15.82 Y14.14 Z0.75 F3600.0
G1 X-16.29 Y13.76 Z0.75 F3600.0
G1 X-16.75 Y13.2 Z0.75 F3600.0
G1 X-18.15 Y17.62 Z0.75 F3600.0
G1 X-18.62 Y17.16 Z0.75 F3600.0
G1 X-19.08 Y17.16 Z0.75 F3600.0
G1 X-19.55 Y17.62 Z0.75 F3600.0
G1 X-19.66 Y5.68 Z0.75 F3600.0
G1 X-17.58 Y3.63 Z0.75 F3600.0
G1 X-17.58 Y3.35 Z0.75 F3600.0
G1 X-19.66 Y1.3 Z0.75 F3600.0
G1 X-19.66 Y1.03 Z0.75 F3600.0
G1 X-18.15 Y-0.57 Z0.75 F3600.0
G1 X-13.96 Y-0.57 Z0.75 F3600.0
G1 X-15.25 Y1.03 Z0.75 F3600.0
G1 X-15.25 Y1.3 Z0.75 F3600.0
G1 X-17.33 Y3.35 Z0.75 F3600.0
G1 X-17.33 Y3.63 Z0.75 F3600.0
G1 X-15.25 Y5.68 Z0.75 F3600.0
G1 X-15.25 Y5.95 Z0.75 F3600.0
G1 X-14.56 Y6.77 Z0.75 F3600.0
G1 X-14.89 Y7.36 Z0.75 F3600.0
G1 X-15.6 Y7.18 Z0.75 F3600.0
G1 X-15.82 Y7.86 Z0.75 F3600.0
G1 X-16.16 Y8.13 Z0.75 F3600.0
M108 R30.0
M102
G1 X-16.29 Y8.24 Z0.75 F3600.0
G1 X-16.75 Y8.81 Z0.75 F3600.0
M108 R6.155
M103
G1 X-20.62 Y0.16 Z0.75 F3000.0
M108 R30.0
M101
G1 X-20.94 Y-0.57 Z0.75 F3000.0
M108 R6.155
G1 X-18.62 Y-0.57 Z0.75 F3600.0
G1 X-19.9 Y1.03 Z0.75 F3600.0
G1 X-19.9 Y1.3 Z0.75 F3600.0
G1 X-21.98 Y3.35 Z0.75 F3600.0
G1 X-21.98 Y3.63 Z0.75 F3600.0
G1 X-19.9 Y5.68 Z0.75 F3600.0
G1 X-19.9 Y5.95 Z0.75 F3600.0
G1 X-21.98 Y8.01 Z0.75 F3600.0
G1 X-21.98 Y8.28 Z0.75 F3600.0
G1 X-19.9 Y10.34 Z0.75 F3600.0
G1 X-19.9 Y10.61 Z0.75 F3600.0
G1 X-21.98 Y12.66 Z0.75 F3600.0
G1 X-21.98 Y12.94 Z0.75 F3600.0
G1 X-19.9 Y14.99 Z0.75 F3600.0
G1 X-20.0 Y16.92 Z0.75 F3600.0
M108 R30.0
M102
G1 X-20.01 Y17.16 Z0.75 F3600.0
G1 X-20.48 Y17.62 Z0.75 F3600.0
M108 R6.155
M103
G1 X-22.01 Y17.62 Z0.75 F3000.0
M108 R30.0
M101
G1 X-22.81 Y17.62 Z0.75 F3000.0
M108 R6.155
G1 X-22.34 Y17.16 Z0.75 F3600.0
G1 X-22.23 Y3.35 Z0.75 F3600.0
G1 X-21.41 Y-0.57 Z0.75 F3600.0
G1 X-23.74 Y-0.57 Z0.75 F3600.0
G1 X-23.74 Y16.72 Z0.75 F3600.0
M108 R30.0
M102
G1 X-23.74 Y17.62 Z0.75 F3600.0
M108 R6.155
M103
G1 X-7.32 Y17.62 Z0.75 F3000.0
M108 R30.0
M101
G1 X-6.52 Y17.62 Z0.75 F3000.0
M108 R6.155
G1 X-6.05 Y17.16 Z0.75 F3600.0
G1 X-5.94 Y14.99 Z0.75 F3600.0
G1 X-8.02 Y12.94 Z0.75 F3600.0
G1 X-8.02 Y12.66 Z0.75 F3600.0
G1 X-5.94 Y10.61 Z0.75 F3600.0
G1 X-5.94 Y10.34 Z0.75 F3600.0
G1 X-8.02 Y8.28 Z0.75 F3600.0
G1 X-8.02 Y8.01 Z0.75 F3600.0
G1 X-5.94 Y5.95 Z0.75 F3600.0
G1 X-5.94 Y5.68 Z0.75 F3600.0
G1 X-8.02 Y3.63 Z0.75 F3600.0
G1 X-8.02 Y3.35 Z0.75 F3600.0
G1 X-5.94 Y1.3 Z0.75 F3600.0
G1 X-5.94 Y1.03 Z0.75 F3600.0
G1 X-4.65 Y-0.57 Z0.75 F3600.0
G1 X-8.84 Y-0.57 Z0.75 F3600.0
G1 X-10.35 Y1.03 Z0.75 F3600.0
G1 X-10.35 Y1.3 Z0.75 F3600.0
G1 X-8.27 Y3.35 Z0.75 F3600.0
G1 X-8.27 Y3.63 Z0.75 F3600.0
G1 X-10.35 Y5.68 Z0.75 F3600.0
G1 X-10.35 Y5.95 Z0.75 F3600.0
G1 X-8.27 Y8.01 Z0.75 F3600.0
G1 X-8.27 Y12.94 Z0.75 F3600.0
G1 X-10.35 Y14.99 Z0.75 F3600.0
G1 X-10.24 Y17.62 Z0.75 F3600.0
G1 X-9.77 Y17.16 Z0.75 F3600.0
G1 X-9.55 Y17.16 Z0.75 F3600.0
M108 R30.0
M102
G1 X-9.31 Y17.16 Z0.75 F3600.0
G1 X-8.84 Y17.62 Z0.75 F3600.0
M108 R6.155
M103
G1 X-2.66 Y17.62 Z0.75 F3000.0
M108 R30.0
M101
G1 X-1.86 Y17.62 Z0.75 F3000.0
M108 R6.155
G1 X-1.4 Y17.16 Z0.75 F3600.0
G1 X-1.29 Y14.99 Z0.75 F3600.0
G1 X-3.37 Y12.94 Z0.75 F3600.0
G1 X-3.37 Y12.66 Z0.75 F3600.0
G1 X-1.29 Y10.61 Z0.75 F3600.0
G1 X-1.29 Y10.34 Z0.75 F3600.0
G1 X-3.37 Y8.28 Z0.75 F3600.0
G1 X-3.37 Y8.01 Z0.75 F3600.0
G1 X-1.29 Y5.95 Z0.75 F3600.0
G1 X-1.29 Y5.68 Z0.75 F3600.0
G1 X-3.37 Y3.63 Z0.75 F3600.0
G1 X-3.37 Y3.35 Z0.75 F3600.0
G1 X-1.29 Y1.3 Z0.75 F3600.0
G1 X-1.29 Y1.03 Z0.75 F3600.0
G1 X-0.0 Y-0.57 Z0.75 F3600.0
G1 X-4.19 Y-0.57 Z0.75 F3600.0
G1 X-5.7 Y1.03 Z0.75 F3600.0
G1 X-5.7 Y1.3 Z0.75 F3600.0
G1 X-3.61 Y3.35 Z0.75 F3600.0
G1 X-3.61 Y3.63 Z0.75 F3600.0
G1 X-5.7 Y5.68 Z0.75 F3600.0
G1 X-5.7 Y5.95 Z0.75 F3600.0
G1 X-3.61 Y8.01 Z0.75 F3600.0
G1 X-3.61 Y8.28 Z0.75 F3600.0
G1 X-5.7 Y10.34 Z0.75 F3600.0
G1 X-5.7 Y10.61 Z0.75 F3600.0
G1 X-3.61 Y12.66 Z0.75 F3600.0
G1 X-3.61 Y12.94 Z0.75 F3600.0
G1 X-5.7 Y14.99 Z0.75 F3600.0
G1 X-5.7 Y15.26 Z0.75 F3600.0
G1 X-5.12 Y17.16 Z0.75 F3600.0
G1 X-4.9 Y17.16 Z0.75 F3600.0
M108 R30.0
M102
G1 X-4.65 Y17.16 Z0.75 F3600.0
G1 X-4.19 Y17.62 Z0.75 F3600.0
M108 R6.155
M103
G1 X1.99 Y17.62 Z0.75 F3000.0
M108 R30.0
M101
G1 X2.79 Y17.62 Z0.75 F3000.0
M108 R6.155
G1 X3.26 Y17.16 Z0.75 F3600.0
G1 X3.37 Y14.99 Z0.75 F3600.0
G1 X1.29 Y12.94 Z0.75 F3600.0
G1 X1.29 Y12.66 Z0.75 F3600.0
G1 X3.37 Y10.61 Z0.75 F3600.0
G1 X3.37 Y10.34 Z0.75 F3600.0
G1 X1.29 Y8.28 Z0.75 F3600.0
G1 X1.29 Y8.01 Z0.75 F3600.0
G1 X3.37 Y5.95 Z0.75 F3600.0
G1 X3.37 Y5.68 Z0.75 F3600.0
G1 X1.29 Y3.63 Z0.75 F3600.0
G1 X1.29 Y3.35 Z0.75 F3600.0
G1 X3.37 Y1.3 Z0.75 F3600.0
G1 X3.37 Y1.03 Z0.75 F3600.0
G1 X4.65 Y-0.57 Z0.75 F3600.0
G1 X0.47 Y-0.57 Z0.75 F3600.0
G1 X-1.04 Y1.03 Z0.75 F3600.0
G1 X-1.04 Y1.3 Z0.75 F3600.0
G1 X1.04 Y3.35 Z0.75 F3600.0
G1 X1.04 Y3.63 Z0.75 F3600.0
G1 X-1.04 Y5.68 Z0.75 F3600.0
G1 X-1.04 Y5.95 Z0.75 F3600.0
G1 X1.04 Y8.01 Z0.75 F3600.0
G1 X1.04 Y8.28 Z0.75 F3600.0
G1 X-1.04 Y10.34 Z0.75 F3600.0
G1 X-1.04 Y10.61 Z0.75 F3600.0
G1 X1.04 Y12.66 Z0.75 F3600.0
G1 X1.04 Y12.94 Z0.75 F3600.0
G1 X-1.04 Y14.99 Z0.75 F3600.0
G1 X-1.04 Y15.26 Z0.75 F3600.0
G1 X-0.47 Y17.16 Z0.75 F3600.0
G1 X-0.24 Y17.16 Z0.75 F3600.0
M108 R30.0
M102
G1 X0.0 Y17.16 Z0.75 F3600.0
G1 X0.47 Y17.62 Z0.75 F3600.0
M108 R6.155
M103
G1 X2.99 Y-1.18 Z0.75 F3000.0
G1 X4.2 Y-1.33 Z0.75 F3000.0
G1 X4.34 Y-9.52 Z0.75 F3000.0
G1 X5.04 Y-16.83 Z0.75 F3000.0
M108 R30.0
M101
G1 X5.12 Y-17.62 Z0.75 F3000.0
M108 R6.155
G1 X5.58 Y-17.16 Z0.75 F3600.0
G1 X5.7 Y-1.03 Z0.75 F3600.0
G1 X3.61 Y1.03 Z0.75 F3600.0
G1 X3.61 Y1.3 Z0.75 F3600.0
G1 X5.7 Y3.35 Z0.75 F3600.0
G1 X5.7 Y3.63 Z0.75 F3600.0
G1 X3.61 Y5.68 Z0.75 F3600.0
G1 X3.61 Y5.95 Z0.75 F3600.0
G1 X5.7 Y8.01 Z0.75 F3600.0
G1 X5.7 Y8.28 Z0.75 F3600.0
G1 X3.61 Y10.34 Z0.75 F3600.0
G1 X3.61 Y10.61 Z0.75 F3600.0
G1 X5.7 Y12.66 Z0.75 F3600.0
G1 X5.7 Y12.94 Z0.75 F3600.0
G1 X3.61 Y14.99 Z0.75 F3600.0
G1 X3.61 Y15.26 Z0.75 F3600.0
G1 X4.19 Y17.16 Z0.75 F3600.0
G1 X4.41 Y17.16 Z0.75 F3600.0
M108 R30.0
M102
G1 X4.65 Y17.16 Z0.75 F3600.0
G1 X5.12 Y17.62 Z0.75 F3600.0
M108 R6.155
M103
G1 X6.65 Y17.62 Z0.75 F3000.0
M108 R30.0
M101
G1 X7.45 Y17.62 Z0.75 F3000.0
M108 R6.155
G1 X7.91 Y17.16 Z0.75 F3600.0
G1 X8.02 Y14.99 Z0.75 F3600.0
G1 X5.94 Y12.94 Z0.75 F3600.0
G1 X5.94 Y12.66 Z0.75 F3600.0
G1 X8.02 Y10.61 Z0.75 F3600.0
G1 X8.02 Y10.34 Z0.75 F3600.0
G1 X5.94 Y8.28 Z0.75 F3600.0
G1 X5.94 Y8.01 Z0.75 F3600.0
G1 X8.02 Y5.95 Z0.75 F3600.0
G1 X8.02 Y5.68 Z0.75 F3600.0
G1 X5.94 Y3.63 Z0.75 F3600.0
G1 X5.94 Y3.35 Z0.75 F3600.0
G1 X8.02 Y1.3 Z0.75 F3600.0
G1 X8.02 Y1.03 Z0.75 F3600.0
G1 X5.94 Y-1.03 Z0.75 F3600.0
G1 X5.94 Y-1.3 Z0.75 F3600.0
G1 X8.02 Y-3.35 Z0.75 F3600.0
G1 X8.02 Y-3.63 Z0.75 F3600.0
G1 X5.94 Y-5.68 Z0.75 F3600.0
G1 X5.94 Y-5.95 Z0.75 F3600.0
G1 X8.02 Y-8.01 Z0.75 F3600.0
G1 X8.02 Y-8.28 Z0.75 F3600.0
G1 X5.94 Y-10.34 Z0.75 F3600.0
G1 X5.94 Y-10.61 Z0.75 F3600.0
G1 X8.02 Y-12.66 Z0.75 F3600.0
G1 X8.02 Y-12.94 Z0.75 F3600.0
G1 X5.94 Y-14.99 Z0.75 F3600.0
G1 X6.05 Y-17.62 Z0.75 F3600.0
G1 X6.52 Y-17.16 Z0.75 F3600.0
G1 X6.74 Y-17.16 Z0.75 F3600.0
M108 R30.0
M102
G1 X6.98 Y-17.16 Z0.75 F3600.0
G1 X7.45 Y-17.62 Z0.75 F3600.0
M108 R6.155
M103
G1 X8.97 Y-17.62 Z0.75 F3000.0
M108 R30.0
M101
G1 X9.77 Y-17.62 Z0.75 F3000.0
M108 R6.155
G1 X10.24 Y-17.16 Z0.75 F3600.0
G1 X10.35 Y-14.99 Z0.75 F3600.0
G1 X8.27 Y-12.94 Z0.75 F3600.0
G1 X8.27 Y-12.66 Z0.75 F3600.0
G1 X10.35 Y-10.61 Z0.75 F3600.0
G1 X10.35 Y-10.34 Z0.75 F3600.0
G1 X8.27 Y-8.28 Z0.75 F3600.0
G1 X8.27 Y-8.01 Z0.75 F3600.0
G1 X10.35 Y-5.95 Z0.75 F3600.0
G1 X10.35 Y-5.68 Z0.75 F3600.0
G1 X8.27 Y-3.63 Z0.75 F3600.0
G1 X8.27 Y-3.35 Z0.75 F3600.0
G1 X10.35 Y-1.3 Z0.75 F3600.0
G1 X10.35 Y-1.03 Z0.75 F3600.0
G1 X8.27 Y1.03 Z0.75 F3600.0
G1 X8.27 Y1.3 Z0.75 F3600.0
G1 X10.35 Y3.35 Z0.75 F3600.0
G1 X10.35 Y3.63 Z0.75 F3600.0
G1 X8.27 Y5.68 Z0.75 F3600.0
G1 X8.27 Y5.95 Z0.75 F3600.0
G1 X10.35 Y8.01 Z0.75 F3600.0
G1 X10.35 Y8.28 Z0.75 F3600.0
G1 X8.27 Y10.34 Z0.75 F3600.0
G1 X8.27 Y10.61 Z0.75 F3600.0
G1 X10.35 Y12.66 Z0.75 F3600.0
G1 X10.35 Y12.94 Z0.75 F3600.0
G1 X8.27 Y14.99 Z0.75 F3600.0
G1 X8.27 Y15.26 Z0.75 F3600.0
G1 X8.84 Y17.16 Z0.75 F3600.0
G1 X8.97 Y17.22 Z0.75 F3600.0
M108 R30.0
M102
G1 X9.77 Y17.62 Z0.75 F3600.0
M108 R6.155
M103
G1 X14.32 Y-16.83 Z0.75 F3000.0
M108 R30.0
M101
G1 X14.43 Y-17.62 Z0.75 F3000.0
M108 R6.155
G1 X14.43 Y-16.45 Z0.75 F3600.0
G1 X13.96 Y-15.96 Z0.75 F3600.0
G1 X13.13 Y-15.52 Z0.75 F3600.0
G1 X13.5 Y-17.16 Z0.75 F3600.0
G1 X13.03 Y-17.62 Z0.75 F3600.0
G1 X12.57 Y-17.16 Z0.75 F3600.0
G1 X12.1 Y-17.62 Z0.75 F3600.0
G1 X11.64 Y-17.16 Z0.75 F3600.0
G1 X11.17 Y-17.16 Z0.75 F3600.0
G1 X10.71 Y-17.62 Z0.75 F3600.0
G1 X10.59 Y-10.34 Z0.75 F3600.0
G1 X12.68 Y-8.28 Z0.75 F3600.0
G1 X12.68 Y-8.01 Z0.75 F3600.0
G1 X10.59 Y-5.95 Z0.75 F3600.0
G1 X10.59 Y-1.03 Z0.75 F3600.0
G1 X12.68 Y1.03 Z0.75 F3600.0
G1 X12.68 Y1.3 Z0.75 F3600.0
G1 X10.59 Y3.35 Z0.75 F3600.0
G1 X10.59 Y3.63 Z0.75 F3600.0
G1 X12.68 Y5.68 Z0.75 F3600.0
G1 X12.68 Y5.95 Z0.75 F3600.0
G1 X10.59 Y8.01 Z0.75 F3600.0
G1 X10.59 Y8.28 Z0.75 F3600.0
G1 X12.68 Y10.34 Z0.75 F3600.0
G1 X12.68 Y10.61 Z0.75 F3600.0
G1 X10.59 Y12.66 Z0.75 F3600.0
G1 X10.59 Y12.94 Z0.75 F3600.0
G1 X12.68 Y14.99 Z0.75 F3600.0
G1 X12.58 Y16.92 Z0.75 F3600.0
M108 R30.0
M102
G1 X12.57 Y17.16 Z0.75 F3600.0
G1 X12.1 Y17.62 Z0.75 F3600.0
M108 R6.155
M103
G1 X13.63 Y17.62 Z0.75 F3000.0
M108 R30.0
M101
G1 X14.43 Y17.62 Z0.75 F3000.0
M108 R6.155
G1 X13.96 Y17.16 Z0.75 F3600.0
G1 X13.5 Y17.16 Z0.75 F3600.0
G1 X12.92 Y15.26 Z0.75 F3600.0
G1 X12.92 Y14.99 Z0.75 F3600.0
G1 X15.0 Y12.94 Z0.75 F3600.0
G1 X15.0 Y12.66 Z0.75 F3600.0
G1 X12.92 Y10.61 Z0.75 F3600.0
G1 X12.92 Y10.34 Z0.75 F3600.0
G1 X15.0 Y8.28 Z0.75 F3600.0
G1 X15.0 Y8.01 Z0.75 F3600.0
G1 X12.92 Y5.95 Z0.75 F3600.0
G1 X12.92 Y5.68 Z0.75 F3600.0
G1 X15.0 Y3.63 Z0.75 F3600.0
G1 X15.0 Y3.35 Z0.75 F3600.0
G1 X12.92 Y1.3 Z0.75 F3600.0
G1 X12.92 Y1.03 Z0.75 F3600.0
G1 X14.61 Y0.13 Z0.75 F3600.0
G1 X14.48 Y-0.38 Z0.75 F3600.0
M108 R30.0
M102
G1 X14.43 Y-0.6 Z0.75 F3600.0
G1 X13.96 Y-1.09 Z0.75 F3600.0
M108 R6.155
M103
G1 X15.6 Y-0.1 Z0.75 F3000.0
M108 R30.0
M101
G1 X16.29 Y0.31 Z0.75 F3000.0
M108 R6.155
G1 X17.22 Y0.36 Z0.75 F3600.0
G1 X17.69 Y0.31 Z0.75 F3600.0
G1 X18.15 Y0.18 Z0.75 F3600.0
G1 X17.33 Y1.03 Z0.75 F3600.0
G1 X17.33 Y1.3 Z0.75 F3600.0
G1 X15.25 Y3.35 Z0.75 F3600.0
G1 X15.25 Y3.63 Z0.75 F3600.0
G1 X17.33 Y5.68 Z0.75 F3600.0
G1 X17.33 Y5.95 Z0.75 F3600.0
G1 X15.25 Y8.01 Z0.75 F3600.0
G1 X15.25 Y8.28 Z0.75 F3600.0
G1 X17.33 Y10.34 Z0.75 F3600.0
G1 X17.33 Y10.61 Z0.75 F3600.0
G1 X15.25 Y12.66 Z0.75 F3600.0
G1 X15.25 Y12.94 Z0.75 F3600.0
G1 X17.33 Y14.99 Z0.75 F3600.0
G1 X17.23 Y16.92 Z0.75 F3600.0
M108 R30.0
M102
G1 X17.22 Y17.16 Z0.75 F3600.0
G1 X16.75 Y17.62 Z0.75 F3600.0
M108 R6.155
M103
G1 X18.28 Y17.62 Z0.75 F3000.0
M108 R30.0
M101
G1 X19.08 Y17.62 Z0.75 F3000.0
M108 R6.155
G1 X18.15 Y17.16 Z0.75 F3600.0
G1 X17.58 Y15.26 Z0.75 F3600.0
G1 X17.58 Y14.99 Z0.75 F3600.0
G1 X19.66 Y12.94 Z0.75 F3600.0
G1 X19.66 Y12.66 Z0.75 F3600.0
G1 X17.58 Y10.61 Z0.75 F3600.0
G1 X17.58 Y10.34 Z0.75 F3600.0
G1 X19.66 Y8.28 Z0.75 F3600.0
G1 X19.66 Y8.01 Z0.75 F3600.0
G1 X17.58 Y5.95 Z0.75 F3600.0
G1 X17.58 Y5.68 Z0.75 F3600.0
G1 X19.66 Y3.63 Z0.75 F3600.0
G1 X19.66 Y3.35 Z0.75 F3600.0
G1 X17.58 Y1.3 Z0.75 F3600.0
G1 X17.58 Y1.03 Z0.75 F3600.0
G1 X19.37 Y-0.46 Z0.75 F3600.0
M108 R30.0
M102
G1 X19.55 Y-0.6 Z0.75 F3600.0
G1 X20.01 Y-1.09 Z0.75 F3600.0
M108 R6.155
M103
G1 X20.01 Y-5.16 Z0.75 F3000.0
M108 R30.0
M101
G1 X20.01 Y-5.96 Z0.75 F3000.0
M108 R6.155
G1 X19.55 Y-6.45 Z0.75 F3600.0
G1 X19.08 Y-6.81 Z0.75 F3600.0
G1 X18.62 Y-7.06 Z0.75 F3600.0
G1 X19.08 Y-10.24 Z0.75 F3600.0
G1 X18.62 Y-9.8 Z0.75 F3600.0
G1 X18.14 Y-9.61 Z0.75 F3600.0
G1 X17.45 Y-8.28 Z0.75 F3600.0
G1 X17.45 Y-8.01 Z0.75 F3600.0
G1 X16.75 Y-7.41 Z0.75 F3600.0
G1 X16.29 Y-7.36 Z0.75 F3600.0
G1 X15.82 Y-7.23 Z0.75 F3600.0
G1 X17.22 Y-9.18 Z0.75 F3600.0
G1 X16.75 Y-9.64 Z0.75 F3600.0
G1 X16.24 Y-9.23 Z0.75 F3600.0
G1 X15.74 Y-9.36 Z0.75 F3600.0
G1 X14.89 Y-6.81 Z0.75 F3600.0
G1 X14.43 Y-6.45 Z0.75 F3600.0
G1 X13.96 Y-5.96 Z0.75 F3600.0
G1 X13.13 Y-5.52 Z0.75 F3600.0
G1 X12.92 Y-8.28 Z0.75 F3600.0
G1 X15.36 Y-9.99 Z0.75 F3600.0
G1 X14.89 Y-10.24 Z0.75 F3600.0
G1 X14.61 Y-10.46 Z0.75 F3600.0
M108 R30.0
M102
G1 X14.43 Y-10.6 Z0.75 F3600.0
G1 X13.96 Y-11.09 Z0.75 F3600.0
M108 R6.155
M103
G1 X13.76 Y-2.88 Z0.75 F3000.0
G1 X21.13 Y16.87 Z0.75 F3000.0
M108 R30.0
M101
G1 X21.41 Y17.62 Z0.75 F3000.0
M108 R6.155
G1 X21.88 Y17.16 Z0.75 F3600.0
G1 X21.98 Y14.99 Z0.75 F3600.0
G1 X19.9 Y12.94 Z0.75 F3600.0
G1 X19.9 Y12.66 Z0.75 F3600.0
G1 X21.98 Y10.61 Z0.75 F3600.0
G1 X21.98 Y10.34 Z0.75 F3600.0
G1 X19.9 Y8.28 Z0.75 F3600.0
G1 X19.9 Y8.01 Z0.75 F3600.0
G1 X21.98 Y5.95 Z0.75 F3600.0
G1 X21.98 Y5.68 Z0.75 F3600.0
G1 X19.9 Y3.63 Z0.75 F3600.0
G1 X19.9 Y3.35 Z0.75 F3600.0
G1 X21.98 Y1.3 Z0.75 F3600.0
G1 X21.98 Y-8.28 Z0.75 F3600.0
G1 X19.55 Y-10.6 Z0.75 F3600.0
G1 X19.78 Y-10.61 Z0.75 F3600.0
G1 X20.01 Y-11.09 Z0.75 F3600.0
G1 X20.87 Y-11.56 Z0.75 F3600.0
G1 X21.98 Y-12.66 Z0.75 F3600.0
G1 X21.98 Y-12.94 Z0.75 F3600.0
G1 X20.48 Y-15.24 Z0.75 F3600.0
G1 X21.88 Y-17.16 Z0.75 F3600.0
G1 X21.41 Y-17.62 Z0.75 F3600.0
G1 X21.37 Y-17.45 Z0.75 F3600.0
G1 X20.01 Y-17.16 Z0.75 F3600.0
G1 X20.01 Y-15.96 Z0.75 F3600.0
G1 X19.55 Y-16.45 Z0.75 F3600.0
G1 X19.08 Y-16.81 Z0.75 F3600.0
G1 X19.55 Y-17.16 Z0.75 F3600.0
G1 X19.08 Y-17.62 Z0.75 F3600.0
G1 X18.62 Y-17.06 Z0.75 F3600.0
G1 X18.62 Y-17.62 Z0.75 F3600.0
G1 X18.15 Y-17.23 Z0.75 F3600.0
G1 X18.15 Y-17.62 Z0.75 F3600.0
G1 X17.69 Y-17.36 Z0.75 F3600.0
G1 X17.69 Y-17.62 Z0.75 F3600.0
G1 X17.22 Y-17.41 Z0.75 F3600.0
G1 X17.22 Y-17.62 Z0.75 F3600.0
G1 X16.75 Y-17.41 Z0.75 F3600.0
G1 X16.75 Y-17.62 Z0.75 F3600.0
G1 X16.29 Y-17.36 Z0.75 F3600.0
G1 X16.29 Y-17.62 Z0.75 F3600.0
G1 X15.82 Y-17.23 Z0.75 F3600.0
G1 X15.82 Y-17.62 Z0.75 F3600.0
G1 X15.36 Y-17.06 Z0.75 F3600.0
G1 X15.36 Y-17.62 Z0.75 F3600.0
G1 X14.94 Y-16.89 Z0.75 F3600.0
M108 R30.0
M102
G1 X14.89 Y-16.81 Z0.75 F3600.0
G1 X14.89 Y-17.62 Z0.75 F3600.0
M108 R6.155
M103
G1 X22.94 Y-17.62 Z0.75 F3000.0
M108 R30.0
M101
G1 X23.74 Y-17.62 Z0.75 F3000.0
M108 R6.155
G1 X23.27 Y-17.16 Z0.75 F3600.0
G1 X22.81 Y-17.16 Z0.75 F3600.0
G1 X22.34 Y-17.62 Z0.75 F3600.0
G1 X22.23 Y15.26 Z0.75 F3600.0
G1 X22.34 Y17.62 Z0.75 F3600.0
G1 X22.81 Y17.16 Z0.75 F3600.0
G1 X23.03 Y17.16 Z0.75 F3600.0
M108 R30.0
M102
G1 X23.27 Y17.16 Z0.75 F3600.0
G1 X23.74 Y17.62 Z0.75 F3600.0
M108 R6.155
M103
(</surroundingLoop>)
(</layer>)
(<layer> 1.05 )
(<surroundingLoop>)
(<boundaryPerimeter>)
(<boundaryPoint> X4.05 Y-1.475 Z1.05 </boundaryPoint>)
(<boundaryPoint> X4.05 Y-18.525 Z1.05 </boundaryPoint>)
(<boundaryPoint> X24.925 Y-18.525 Z1.05 </boundaryPoint>)
(<boundaryPoint> X24.925 Y18.525 Z1.05 </boundaryPoint>)
(<boundaryPoint> X-24.925 Y18.525 Z1.05 </boundaryPoint>)
(<boundaryPoint> X-24.925 Y-1.475 Z1.05 </boundaryPoint>)
(<loop> inner )
G1 X-9.19 Y11.87 Z1.04 F3000.0
M108 R30.0
M101
G1 X-9.98 Y11.73 Z1.05 F3000.0
M108 R6.155
G1 X-9.97 Y11.71 Z1.05 F3600.0
G1 X-9.9 Y11.0 Z1.05 F3600.0
G1 X-9.97 Y10.29 Z1.05 F3600.0
G1 X-10.18 Y9.61 Z1.05 F3600.0
G1 X-10.51 Y8.98 Z1.05 F3600.0
G1 X-10.96 Y8.43 Z1.05 F3600.0
G1 X-11.51 Y7.98 Z1.05 F3600.0
G1 X-12.14 Y7.65 Z1.05 F3600.0
G1 X-12.82 Y7.44 Z1.05 F3600.0
G1 X-13.53 Y7.37 Z1.05 F3600.0
G1 X-14.24 Y7.44 Z1.05 F3600.0
G1 X-14.92 Y7.65 Z1.05 F3600.0
G1 X-15.55 Y7.98 Z1.05 F3600.0
G1 X-16.1 Y8.43 Z1.05 F3600.0
G1 X-16.55 Y8.98 Z1.05 F3600.0
G1 X-16.88 Y9.61 Z1.05 F3600.0
G1 X-17.09 Y10.29 Z1.05 F3600.0
G1 X-17.16 Y11.0 Z1.05 F3600.0
G1 X-17.09 Y11.71 Z1.05 F3600.0
G1 X-16.88 Y12.39 Z1.05 F3600.0
G1 X-16.55 Y13.02 Z1.05 F3600.0
G1 X-16.1 Y13.57 Z1.05 F3600.0
G1 X-15.55 Y14.02 Z1.05 F3600.0
G1 X-14.92 Y14.36 Z1.05 F3600.0
G1 X-14.24 Y14.56 Z1.05 F3600.0
G1 X-13.53 Y14.63 Z1.05 F3600.0
G1 X-12.82 Y14.56 Z1.05 F3600.0
G1 X-12.14 Y14.36 Z1.05 F3600.0
G1 X-11.51 Y14.02 Z1.05 F3600.0
G1 X-10.96 Y13.57 Z1.05 F3600.0
G1 X-10.51 Y13.02 Z1.05 F3600.0
G1 X-10.28 Y12.58 Z1.05 F3600.0
M108 R30.0
M102
G1 X-10.18 Y12.39 Z1.05 F3600.0
G1 X-9.98 Y11.73 Z1.05 F3600.0
M108 R6.155
M103
(</loop>)
(<loop> inner )
G1 X13.83 Y-10.41 Z1.05 F3000.0
M108 R30.0
M101
G1 X14.42 Y-10.96 Z1.05 F3000.0
M108 R6.155
G1 X14.97 Y-10.51 Z1.05 F3600.0
G1 X15.6 Y-10.17 Z1.05 F3600.0
G1 X16.28 Y-9.96 Z1.05 F3600.0
G1 X16.99 Y-9.89 Z1.05 F3600.0
G1 X17.7 Y-9.96 Z1.05 F3600.0
G1 X18.38 Y-10.17 Z1.05 F3600.0
G1 X19.0 Y-10.51 Z1.05 F3600.0
G1 X19.55 Y-10.96 Z1.05 F3600.0
G1 X20.01 Y-11.51 Z1.05 F3600.0
G1 X20.34 Y-12.13 Z1.05 F3600.0
G1 X20.55 Y-12.82 Z1.05 F3600.0
G1 X20.62 Y-13.53 Z1.05 F3600.0
G1 X20.55 Y-14.23 Z1.05 F3600.0
G1 X20.34 Y-14.91 Z1.05 F3600.0
G1 X20.01 Y-15.54 Z1.05 F3600.0
G1 X19.55 Y-16.09 Z1.05 F3600.0
G1 X19.0 Y-16.54 Z1.05 F3600.0
G1 X18.38 Y-16.88 Z1.05 F3600.0
G1 X17.7 Y-17.09 Z1.05 F3600.0
G1 X16.99 Y-17.16 Z1.05 F3600.0
G1 X16.28 Y-17.09 Z1.05 F3600.0
G1 X15.6 Y-16.88 Z1.05 F3600.0
G1 X14.97 Y-16.54 Z1.05 F3600.0
G1 X14.42 Y-16.09 Z1.05 F3600.0
G1 X13.97 Y-15.54 Z1.05 F3600.0
G1 X13.63 Y-14.91 Z1.05 F3600.0
G1 X13.43 Y-14.23 Z1.05 F3600.0
G1 X13.36 Y-13.53 Z1.05 F3600.0
G1 X13.43 Y-12.82 Z1.05 F3600.0
G1 X13.63 Y-12.14 Z1.05 F3600.0
G1 X13.88 Y-11.67 Z1.05 F3600.0
M108 R30.0
M102
G1 X13.97 Y-11.51 Z1.05 F3600.0
G1 X14.42 Y-10.96 Z1.05 F3600.0
M108 R6.155
M103
(</loop>)
(<loop> inner )
G1 X15.38 Y-7.65 Z1.05 F3000.0
M108 R30.0
M101
G1 X15.6 Y-6.88 Z1.05 F3000.0
M108 R6.155
G1 X14.97 Y-6.54 Z1.05 F3600.0
G1 X14.42 Y-6.09 Z1.05 F3600.0
G1 X13.97 Y-5.54 Z1.05 F3600.0
G1 X13.63 Y-4.91 Z1.05 F3600.0
G1 X13.43 Y-4.23 Z1.05 F3600.0
G1 X13.36 Y-3.52 Z1.05 F3600.0
G1 X13.43 Y-2.82 Z1.05 F3600.0
G1 X13.63 Y-2.14 Z1.05 F3600.0
G1 X13.97 Y-1.51 Z1.05 F3600.0
G1 X14.42 Y-0.96 Z1.05 F3600.0
G1 X14.97 Y-0.51 Z1.05 F3600.0
G1 X15.6 Y-0.17 Z1.05 F3600.0
G1 X16.28 Y0.04 Z1.05 F3600.0
G1 X16.99 Y0.11 Z1.05 F3600.0
G1 X17.7 Y0.04 Z1.05 F3600.0
G1 X18.38 Y-0.17 Z1.05 F3600.0
G1 X19.0 Y-0.51 Z1.05 F3600.0
G1 X19.55 Y-0.96 Z1.05 F3600.0
G1 X20.01 Y-1.51 Z1.05 F3600.0
G1 X20.34 Y-2.13 Z1.05 F3600.0
G1 X20.55 Y-2.82 Z1.05 F3600.0
G1 X20.62 Y-3.52 Z1.05 F3600.0
G1 X20.55 Y-4.23 Z1.05 F3600.0
G1 X20.34 Y-4.92 Z1.05 F3600.0
G1 X20.01 Y-5.54 Z1.05 F3600.0
G1 X19.55 Y-6.09 Z1.05 F3600.0
G1 X19.0 Y-6.54 Z1.05 F3600.0
G1 X18.38 Y-6.88 Z1.05 F3600.0
G1 X17.7 Y-7.08 Z1.05 F3600.0
G1 X16.99 Y-7.16 Z1.05 F3600.0
G1 X16.47 Y-7.1 Z1.05 F3600.0
M108 R30.0
M102
G1 X16.28 Y-7.08 Z1.05 F3600.0
G1 X15.6 Y-6.88 Z1.05 F3600.0
M108 R6.155
M103
(</loop>)
(<loop> outer )
G1 X23.5 Y-6.88 Z1.05 F3000.0
M108 R30.0
M101
G1 X24.3 Y-6.88 Z1.05 F3000.0
M108 R6.155
G1 X24.3 Y17.9 Z1.05 F3600.0
G1 X-24.3 Y17.9 Z1.05 F3600.0
G1 X-24.3 Y-0.85 Z1.05 F3600.0
G1 X4.68 Y-0.85 Z1.05 F3600.0
G1 X4.68 Y-17.9 Z1.05 F3600.0
G1 X24.3 Y-17.9 Z1.05 F3600.0
G1 X24.3 Y-6.88 Z1.05 F3600.0
M103
(</loop>)
(<perimeter> outer )
G1 X24.72 Y-6.88 Z1.05 F3000.0
M101
G1 X24.72 Y18.32 Z1.05 F3600.0
G1 X-24.72 Y18.32 Z1.05 F3600.0
G1 X-24.72 Y-1.27 Z1.05 F3600.0
G1 X4.26 Y-1.27 Z1.05 F3600.0
G1 X4.26 Y-18.32 Z1.05 F3600.0
G1 X24.72 Y-18.32 Z1.05 F3600.0
G1 X24.72 Y-7.78 Z1.05 F3600.0
M108 R30.0
M102
G1 X24.72 Y-6.88 Z1.05 F3600.0
M108 R6.155
M103
(</perimeter>)
(</boundaryPerimeter>)
(<surroundingLoop>)
(<boundaryPerimeter>)
(<boundaryPoint> X19.929 Y-4.11 Z1.05 </boundaryPoint>)
(<boundaryPoint> X19.758 Y-4.673 Z1.05 </boundaryPoint>)
(<boundaryPoint> X19.481 Y-5.192 Z1.05 </boundaryPoint>)
(<boundaryPoint> X19.109 Y-5.645 Z1.05 </boundaryPoint>)
(<boundaryPoint> X18.654 Y-6.018 Z1.05 </boundaryPoint>)
(<boundaryPoint> X18.135 Y-6.296 Z1.05 </boundaryPoint>)
(<boundaryPoint> X17.573 Y-6.466 Z1.05 </boundaryPoint>)
(<boundaryPoint> X16.987 Y-6.524 Z1.05 </boundaryPoint>)
(<boundaryPoint> X16.402 Y-6.466 Z1.05 </boundaryPoint>)
(<boundaryPoint> X15.839 Y-6.296 Z1.05 </boundaryPoint>)
(<boundaryPoint> X15.321 Y-6.018 Z1.05 </boundaryPoint>)
(<boundaryPoint> X14.866 Y-5.645 Z1.05 </boundaryPoint>)
(<boundaryPoint> X14.494 Y-5.192 Z1.05 </boundaryPoint>)
(<boundaryPoint> X14.217 Y-4.673 Z1.05 </boundaryPoint>)
(<boundaryPoint> X14.046 Y-4.109 Z1.05 </boundaryPoint>)
(<boundaryPoint> X13.988 Y-3.525 Z1.05 </boundaryPoint>)
(<boundaryPoint> X14.046 Y-2.941 Z1.05 </boundaryPoint>)
(<boundaryPoint> X14.217 Y-2.377 Z1.05 </boundaryPoint>)
(<boundaryPoint> X14.494 Y-1.858 Z1.05 </boundaryPoint>)
(<boundaryPoint> X14.866 Y-1.405 Z1.05 </boundaryPoint>)
(<boundaryPoint> X15.321 Y-1.032 Z1.05 </boundaryPoint>)
(<boundaryPoint> X15.839 Y-0.754 Z1.05 </boundaryPoint>)
(<boundaryPoint> X16.402 Y-0.584 Z1.05 </boundaryPoint>)
(<boundaryPoint> X16.987 Y-0.526 Z1.05 </boundaryPoint>)
(<boundaryPoint> X17.573 Y-0.584 Z1.05 </boundaryPoint>)
(<boundaryPoint> X18.135 Y-0.754 Z1.05 </boundaryPoint>)
(<boundaryPoint> X18.654 Y-1.032 Z1.05 </boundaryPoint>)
(<boundaryPoint> X19.109 Y-1.405 Z1.05 </boundaryPoint>)
(<boundaryPoint> X19.481 Y-1.858 Z1.05 </boundaryPoint>)
(<boundaryPoint> X19.758 Y-2.377 Z1.05 </boundaryPoint>)
(<boundaryPoint> X19.929 Y-2.94 Z1.05 </boundaryPoint>)
(<boundaryPoint> X19.986 Y-3.525 Z1.05 </boundaryPoint>)
(<perimeter> inner )
G1 X20.68 Y-5.08 Z1.05 F3000.0
M108 R30.0
M101
G1 X19.95 Y-4.75 Z1.05 F3000.0
M108 R6.155
G1 X19.66 Y-5.31 Z1.05 F3600.0
G1 X19.26 Y-5.79 Z1.05 F3600.0
G1 X18.77 Y-6.19 Z1.05 F3600.0
G1 X18.21 Y-6.49 Z1.05 F3600.0
G1 X17.61 Y-6.67 Z1.05 F3600.0
G1 X16.99 Y-6.74 Z1.05 F3600.0
G1 X16.36 Y-6.67 Z1.05 F3600.0
G1 X15.76 Y-6.49 Z1.05 F3600.0
G1 X15.2 Y-6.19 Z1.05 F3600.0
G1 X14.72 Y-5.79 Z1.05 F3600.0
G1 X14.32 Y-5.31 Z1.05 F3600.0
G1 X14.02 Y-4.75 Z1.05 F3600.0
G1 X13.84 Y-4.15 Z1.05 F3600.0
G1 X13.78 Y-3.52 Z1.05 F3600.0
G1 X13.84 Y-2.9 Z1.05 F3600.0
G1 X14.02 Y-2.3 Z1.05 F3600.0
G1 X14.32 Y-1.74 Z1.05 F3600.0
G1 X14.72 Y-1.26 Z1.05 F3600.0
G1 X15.2 Y-0.86 Z1.05 F3600.0
G1 X15.76 Y-0.56 Z1.05 F3600.0
G1 X16.36 Y-0.38 Z1.05 F3600.0
G1 X16.99 Y-0.32 Z1.05 F3600.0
G1 X17.61 Y-0.38 Z1.05 F3600.0
G1 X18.21 Y-0.56 Z1.05 F3600.0
G1 X18.77 Y-0.86 Z1.05 F3600.0
G1 X19.26 Y-1.26 Z1.05 F3600.0
G1 X19.66 Y-1.74 Z1.05 F3600.0
G1 X19.95 Y-2.3 Z1.05 F3600.0
G1 X20.14 Y-2.9 Z1.05 F3600.0
G1 X20.2 Y-3.52 Z1.05 F3600.0
G1 X20.16 Y-3.88 Z1.05 F3600.0
M108 R30.0
M102
G1 X20.14 Y-4.15 Z1.05 F3600.0
G1 X19.95 Y-4.75 Z1.05 F3600.0
M108 R6.155
M103
(</perimeter>)
(</boundaryPerimeter>)
(</surroundingLoop>)
(<surroundingLoop>)
(<boundaryPerimeter>)
(<boundaryPoint> X19.929 Y-14.11 Z1.05 </boundaryPoint>)
(<boundaryPoint> X19.758 Y-14.673 Z1.05 </boundaryPoint>)
(<boundaryPoint> X19.481 Y-15.192 Z1.05 </boundaryPoint>)
(<boundaryPoint> X19.108 Y-15.645 Z1.05 </boundaryPoint>)
(<boundaryPoint> X18.654 Y-16.019 Z1.05 </boundaryPoint>)
(<boundaryPoint> X18.135 Y-16.296 Z1.05 </boundaryPoint>)
(<boundaryPoint> X17.573 Y-16.466 Z1.05 </boundaryPoint>)
(<boundaryPoint> X16.987 Y-16.524 Z1.05 </boundaryPoint>)
(<boundaryPoint> X16.402 Y-16.466 Z1.05 </boundaryPoint>)
(<boundaryPoint> X15.839 Y-16.296 Z1.05 </boundaryPoint>)
(<boundaryPoint> X15.321 Y-16.019 Z1.05 </boundaryPoint>)
(<boundaryPoint> X14.867 Y-15.645 Z1.05 </boundaryPoint>)
(<boundaryPoint> X14.494 Y-15.192 Z1.05 </boundaryPoint>)
(<boundaryPoint> X14.217 Y-14.673 Z1.05 </boundaryPoint>)
(<boundaryPoint> X14.046 Y-14.109 Z1.05 </boundaryPoint>)
(<boundaryPoint> X13.988 Y-13.525 Z1.05 </boundaryPoint>)
(<boundaryPoint> X14.046 Y-12.941 Z1.05 </boundaryPoint>)
(<boundaryPoint> X14.217 Y-12.377 Z1.05 </boundaryPoint>)
(<boundaryPoint> X14.494 Y-11.858 Z1.05 </boundaryPoint>)
(<boundaryPoint> X14.866 Y-11.405 Z1.05 </boundaryPoint>)
(<boundaryPoint> X15.321 Y-11.032 Z1.05 </boundaryPoint>)
(<boundaryPoint> X15.839 Y-10.754 Z1.05 </boundaryPoint>)
(<boundaryPoint> X16.402 Y-10.584 Z1.05 </boundaryPoint>)
(<boundaryPoint> X16.987 Y-10.526 Z1.05 </boundaryPoint>)
(<boundaryPoint> X17.573 Y-10.584 Z1.05 </boundaryPoint>)
(<boundaryPoint> X18.135 Y-10.754 Z1.05 </boundaryPoint>)
(<boundaryPoint> X18.654 Y-11.032 Z1.05 </boundaryPoint>)
(<boundaryPoint> X19.109 Y-11.405 Z1.05 </boundaryPoint>)
(<boundaryPoint> X19.481 Y-11.858 Z1.05 </boundaryPoint>)
(<boundaryPoint> X19.758 Y-12.377 Z1.05 </boundaryPoint>)
(<boundaryPoint> X19.929 Y-12.94 Z1.05 </boundaryPoint>)
(<boundaryPoint> X19.986 Y-13.525 Z1.05 </boundaryPoint>)
(<perimeter> inner )
G1 X18.44 Y-9.79 Z1.05 F3000.0
M108 R30.0
M101
G1 X18.21 Y-10.56 Z1.05 F3000.0
M108 R6.155
G1 X18.77 Y-10.86 Z1.05 F3600.0
G1 X19.26 Y-11.26 Z1.05 F3600.0
G1 X19.66 Y-11.74 Z1.05 F3600.0
G1 X19.95 Y-12.3 Z1.05 F3600.0
G1 X20.14 Y-12.9 Z1.05 F3600.0
G1 X20.2 Y-13.53 Z1.05 F3600.0
G1 X20.14 Y-14.15 Z1.05 F3600.0
G1 X19.95 Y-14.75 Z1.05 F3600.0
G1 X19.66 Y-15.31 Z1.05 F3600.0
G1 X19.26 Y-15.79 Z1.05 F3600.0
G1 X18.77 Y-16.19 Z1.05 F3600.0
G1 X18.21 Y-16.49 Z1.05 F3600.0
G1 X17.61 Y-16.67 Z1.05 F3600.0
G1 X16.99 Y-16.73 Z1.05 F3600.0
G1 X16.36 Y-16.67 Z1.05 F3600.0
G1 X15.76 Y-16.49 Z1.05 F3600.0
G1 X15.2 Y-16.19 Z1.05 F3600.0
G1 X14.72 Y-15.79 Z1.05 F3600.0
G1 X14.32 Y-15.31 Z1.05 F3600.0
G1 X14.02 Y-14.75 Z1.05 F3600.0
G1 X13.84 Y-14.15 Z1.05 F3600.0
G1 X13.78 Y-13.53 Z1.05 F3600.0
G1 X13.84 Y-12.9 Z1.05 F3600.0
G1 X14.02 Y-12.3 Z1.05 F3600.0
G1 X14.32 Y-11.74 Z1.05 F3600.0
G1 X14.72 Y-11.26 Z1.05 F3600.0
G1 X15.2 Y-10.86 Z1.05 F3600.0
G1 X15.76 Y-10.56 Z1.05 F3600.0
G1 X16.36 Y-10.38 Z1.05 F3600.0
G1 X16.99 Y-10.31 Z1.05 F3600.0
G1 X17.34 Y-10.35 Z1.05 F3600.0
M108 R30.0
M102
G1 X17.61 Y-10.38 Z1.05 F3600.0
G1 X18.21 Y-10.56 Z1.05 F3600.0
M108 R6.155
M103
(</perimeter>)
(</boundaryPerimeter>)
(</surroundingLoop>)
(<surroundingLoop>)
(<boundaryPerimeter>)
(<boundaryPoint> X-10.588 Y10.417 Z1.05 </boundaryPoint>)
(<boundaryPoint> X-10.759 Y9.854 Z1.05 </boundaryPoint>)
(<boundaryPoint> X-11.036 Y9.335 Z1.05 </boundaryPoint>)
(<boundaryPoint> X-11.409 Y8.881 Z1.05 </boundaryPoint>)
(<boundaryPoint> X-11.863 Y8.508 Z1.05 </boundaryPoint>)
(<boundaryPoint> X-12.381 Y8.231 Z1.05 </boundaryPoint>)
(<boundaryPoint> X-12.944 Y8.06 Z1.05 </boundaryPoint>)
(<boundaryPoint> X-13.529 Y8.003 Z1.05 </boundaryPoint>)
(<boundaryPoint> X-14.115 Y8.06 Z1.05 </boundaryPoint>)
(<boundaryPoint> X-14.677 Y8.231 Z1.05 </boundaryPoint>)
(<boundaryPoint> X-15.196 Y8.508 Z1.05 </boundaryPoint>)
(<boundaryPoint> X-15.65 Y8.881 Z1.05 </boundaryPoint>)
(<boundaryPoint> X-16.023 Y9.335 Z1.05 </boundaryPoint>)
(<boundaryPoint> X-16.3 Y9.854 Z1.05 </boundaryPoint>)
(<boundaryPoint> X-16.471 Y10.416 Z1.05 </boundaryPoint>)
(<boundaryPoint> X-16.528 Y11.002 Z1.05 </boundaryPoint>)
(<boundaryPoint> X-16.471 Y11.587 Z1.05 </boundaryPoint>)
(<boundaryPoint> X-16.3 Y12.15 Z1.05 </boundaryPoint>)
(<boundaryPoint> X-16.023 Y12.668 Z1.05 </boundaryPoint>)
(<boundaryPoint> X-15.65 Y13.122 Z1.05 </boundaryPoint>)
(<boundaryPoint> X-15.196 Y13.495 Z1.05 </boundaryPoint>)
(<boundaryPoint> X-14.677 Y13.772 Z1.05 </boundaryPoint>)
(<boundaryPoint> X-14.114 Y13.943 Z1.05 </boundaryPoint>)
(<boundaryPoint> X-13.529 Y14.001 Z1.05 </boundaryPoint>)
(<boundaryPoint> X-12.945 Y13.943 Z1.05 </boundaryPoint>)
