(** This GCode was generated by ReplicatorG 0034 **)
(*  using Skeinforge (35)  *)
(*  for a Single headed Thing-O-Matic  *)
(*  on 2012/03/23 19:17:17 (-0400) *)
(**** beginning of start.gcode ****)
(This file is for a MakerBot Thing-O-Matic)
(**** begin initialization commands ****)
G21 (set units to mm)
G90 (set positioning to absolute)
M108 R5.0 (set extruder speed)
M103 (Make sure extruder is off)
M104 S225 T0 (set extruder temperature)
M109 S100 T0 (set heated-build-platform temperature)
(**** end initialization commands ****)
(**** begin homing ****)
G162 Z F1000 (home Z axis maximum)
G92 Z10 (set Z to 0)
G1 Z0 (move z down 10)
G162 Z F150 (home Z axis maximum)
G161 X Y F2500 (home XY axes minimum)
M132 X Y Z A B (Recall stored home offsets for XYZAB axis)
(**** end homing ****)
(**** begin pre-wipe commands ****)
( Some people have had problems with the nozzle hitting )
( bolts or wipers during this pre-extrusion warmup.     )
( If this happens to you, you can change the values for )
( the X and Y positions in the following code.          )
( The goal is to have the toolhead wipe its initial     )
( extrusion near the edge of the platform, [anchor it]  )
( so as not to have it interfere with the print.        )
( This file can be found in:                            )
( replicatorg/skein_engines/skeinforge-##/skeinforge_application/ )
( prefs/<profile name [e.g. Thingomatic-ABP-Mk7]>/alterations )
G1 X25 Y-60 Z10 F3300.0 (move to waiting position)
M6 T0 (wait for toolhead parts, nozzle, HBP, etc., to reach temperature)
G0 X25 Y-57 (Position Nozzle)
G0 Z0.6     (Position Height)
M108 R4.0   (Set Extruder Speed)
M101        (Start Extruder)
G4 P1500    (Create Anchor)
(**** end pre-wipe commands ****)
(**** end of start.gcode ****)
(<creation> skeinforge </creation>)
(<version> 10.11.05 </version>)
(<extruderInitialization>)
(<craftTypeName> extrusion </craftTypeName>)
M105
(<bridgeWidthMultiplier> 1.0 </bridgeWidthMultiplier>)
(<decimalPlacesCarried> 3 </decimalPlacesCarried>)
(<layerThickness> 0.3 </layerThickness>)
(<threadSequenceString> loops perimeter infill </threadSequenceString>)
(<operatingFeedRatePerSecond> 100.0 </operatingFeedRatePerSecond>)
(<operatingFlowRate> 11.095341392 </operatingFlowRate>)
(<orbitalFeedRatePerSecond> 50.0 </orbitalFeedRatePerSecond>)
(<travelFeedRatePerSecond> 100.0 </travelFeedRatePerSecond>)
(<perimeterWidth> 0.419 </perimeterWidth>)
(<profileName> ABS </profileName>)
(<procedureDone> carve,bottom </procedureDone>)
(<procedureDone> preface </procedureDone>)
(<procedureDone> inset </procedureDone>)
(<procedureDone> fill </procedureDone>)
(<procedureDone> speed </procedureDone>)
(<procedureDone> raft </procedureDone>)
(<procedureDone> jitter </procedureDone>)
(<procedureDone> comb </procedureDone>)
(<procedureDone> cool </procedureDone>)
(<procedureDone> outline </procedureDone>)
(<procedureDone> reversal </procedureDone>)
(<procedureDone> export </procedureDone>)
(</extruderInitialization>)
(<extrusion>)
;M113 S1.0
M108 R11.1
(<layer> 0.25 )
(<surroundingLoop>)
(<boundaryPerimeter>)
(<boundaryPoint> X0.777 Y-15.55 Z0.25 </boundaryPoint>)
(<boundaryPoint> X13.223 Y-15.55 Z0.25 </boundaryPoint>)
(<boundaryPoint> X13.223 Y15.55 Z0.25 </boundaryPoint>)
(<boundaryPoint> X0.777 Y15.55 Z0.25 </boundaryPoint>)
(<loop> inner )
M108 R6.657
G1 X-19.84 Y-17.34 Z0.25 F3600.0
M101
G1 X-19.84 Y17.34 Z0.25 F3600.0
G1 X19.84 Y17.34 Z0.25 F3600.0
G1 X19.84 Y-17.34 Z0.25 F3600.0
G1 X-18.94 Y-17.34 Z0.25 F3600.0
M108 R30.0
M102
G1 X-19.84 Y-17.34 Z0.25 F3600.0
M108 R6.657
M103
G1 X4.84 Y8.45 Z0.25 F6000.0
M108 R30.0
M101
G1 X5.95 Y9.6 Z0.25 F6000.0
M108 R6.657
G1 X5.76 Y9.76 Z0.25 F3600.0
G1 X5.54 Y10.02 Z0.25 F3600.0
G1 X5.38 Y10.33 Z0.25 F3600.0
G1 X5.28 Y10.66 Z0.25 F3600.0
G1 X5.24 Y11.0 Z0.25 F3600.0
G1 X5.28 Y11.34 Z0.25 F3600.0
G1 X5.38 Y11.67 Z0.25 F3600.0
G1 X5.54 Y11.97 Z0.25 F3600.0
G1 X5.76 Y12.24 Z0.25 F3600.0
G1 X6.02 Y12.46 Z0.25 F3600.0
G1 X6.33 Y12.62 Z0.25 F3600.0
G1 X6.66 Y12.72 Z0.25 F3600.0
G1 X7.0 Y12.76 Z0.25 F3600.0
G1 X7.34 Y12.72 Z0.25 F3600.0
G1 X7.67 Y12.62 Z0.25 F3600.0
G1 X7.97 Y12.46 Z0.25 F3600.0
G1 X8.24 Y12.24 Z0.25 F3600.0
G1 X8.46 Y11.98 Z0.25 F3600.0
G1 X8.62 Y11.67 Z0.25 F3600.0
G1 X8.72 Y11.34 Z0.25 F3600.0
G1 X8.76 Y11.0 Z0.25 F3600.0
G1 X8.72 Y10.66 Z0.25 F3600.0
G1 X8.62 Y10.33 Z0.25 F3600.0
G1 X8.46 Y10.03 Z0.25 F3600.0
G1 X8.24 Y9.76 Z0.25 F3600.0
G1 X7.98 Y9.54 Z0.25 F3600.0
G1 X7.67 Y9.38 Z0.25 F3600.0
G1 X7.34 Y9.28 Z0.25 F3600.0
G1 X7.0 Y9.24 Z0.25 F3600.0
G1 X6.77 Y9.27 Z0.25 F3600.0
M108 R30.0
M102
G1 X6.66 Y9.28 Z0.25 F3600.0
G1 X6.33 Y9.38 Z0.25 F3600.0
G1 X6.03 Y9.54 Z0.25 F3600.0
G1 X5.95 Y9.6 Z0.25 F3600.0
M108 R6.657
M103
(</loop>)
(<loop> inner )
G1 X6.91 Y-7.64 Z0.25 F6000.0
M108 R30.0
M101
G1 X7.0 Y-9.24 Z0.25 F6000.0
M108 R6.657
G1 X7.34 Y-9.28 Z0.25 F3600.0
G1 X7.67 Y-9.38 Z0.25 F3600.0
G1 X7.97 Y-9.54 Z0.25 F3600.0
G1 X8.24 Y-9.76 Z0.25 F3600.0
G1 X8.46 Y-10.02 Z0.25 F3600.0
G1 X8.62 Y-10.33 Z0.25 F3600.0
G1 X8.72 Y-10.66 Z0.25 F3600.0
G1 X8.76 Y-11.0 Z0.25 F3600.0
G1 X8.72 Y-11.34 Z0.25 F3600.0
G1 X8.62 Y-11.67 Z0.25 F3600.0
G1 X8.46 Y-11.97 Z0.25 F3600.0
G1 X8.24 Y-12.24 Z0.25 F3600.0
G1 X7.98 Y-12.46 Z0.25 F3600.0
G1 X7.67 Y-12.62 Z0.25 F3600.0
G1 X7.34 Y-12.72 Z0.25 F3600.0
G1 X7.0 Y-12.76 Z0.25 F3600.0
G1 X6.66 Y-12.72 Z0.25 F3600.0
G1 X6.33 Y-12.62 Z0.25 F3600.0
G1 X6.03 Y-12.46 Z0.25 F3600.0
G1 X5.76 Y-12.24 Z0.25 F3600.0
G1 X5.54 Y-11.98 Z0.25 F3600.0
G1 X5.38 Y-11.67 Z0.25 F3600.0
G1 X5.28 Y-11.34 Z0.25 F3600.0
G1 X5.24 Y-11.0 Z0.25 F3600.0
G1 X5.28 Y-10.66 Z0.25 F3600.0
G1 X5.38 Y-10.33 Z0.25 F3600.0
G1 X5.54 Y-10.03 Z0.25 F3600.0
G1 X5.76 Y-9.76 Z0.25 F3600.0
G1 X6.02 Y-9.54 Z0.25 F3600.0
G1 X6.14 Y-9.48 Z0.25 F3600.0
M108 R30.0
M102
G1 X6.33 Y-9.38 Z0.25 F3600.0
G1 X6.66 Y-9.28 Z0.25 F3600.0
G1 X7.0 Y-9.24 Z0.25 F3600.0
M108 R6.657
M103
(</loop>)
(<loop> outer )
G1 X3.0 Y-9.24 Z0.25 F6000.0
M108 R30.0
M101
G1 X1.41 Y-9.24 Z0.25 F6000.0
M108 R6.657
G1 X1.41 Y-14.92 Z0.25 F3600.0
G1 X12.6 Y-14.92 Z0.25 F3600.0
G1 X12.6 Y14.92 Z0.25 F3600.0
G1 X1.41 Y14.92 Z0.25 F3600.0
G1 X1.41 Y-9.24 Z0.25 F3600.0
M103
(</loop>)
(<perimeter> outer )
G1 X0.99 Y-9.24 Z0.25 F6000.0
M101
G1 X0.99 Y-15.34 Z0.25 F3600.0
G1 X13.01 Y-15.34 Z0.25 F3600.0
G1 X13.01 Y15.34 Z0.25 F3600.0
G1 X0.99 Y15.34 Z0.25 F3600.0
G1 X0.99 Y-8.34 Z0.25 F3600.0
M108 R30.0
M102
G1 X0.99 Y-9.24 Z0.25 F3600.0
M108 R6.657
M103
(</perimeter>)
(</boundaryPerimeter>)
(<surroundingLoop>)
(<boundaryPerimeter>)
(<boundaryPoint> X5.896 Y-10.782 Z0.25 </boundaryPoint>)
(<boundaryPoint> X5.96 Y-10.57 Z0.25 </boundaryPoint>)
(<boundaryPoint> X6.064 Y-10.376 Z0.25 </boundaryPoint>)
(<boundaryPoint> X6.205 Y-10.204 Z0.25 </boundaryPoint>)
(<boundaryPoint> X6.374 Y-10.065 Z0.25 </boundaryPoint>)
(<boundaryPoint> X6.569 Y-9.961 Z0.25 </boundaryPoint>)
(<boundaryPoint> X6.78 Y-9.897 Z0.25 </boundaryPoint>)
(<boundaryPoint> X6.999 Y-9.875 Z0.25 </boundaryPoint>)
(<boundaryPoint> X7.219 Y-9.897 Z0.25 </boundaryPoint>)
(<boundaryPoint> X7.43 Y-9.96 Z0.25 </boundaryPoint>)
(<boundaryPoint> X7.624 Y-10.064 Z0.25 </boundaryPoint>)
(<boundaryPoint> X7.795 Y-10.204 Z0.25 </boundaryPoint>)
(<boundaryPoint> X7.935 Y-10.374 Z0.25 </boundaryPoint>)
(<boundaryPoint> X8.039 Y-10.569 Z0.25 </boundaryPoint>)
(<boundaryPoint> X8.103 Y-10.78 Z0.25 </boundaryPoint>)
(<boundaryPoint> X8.125 Y-11.001 Z0.25 </boundaryPoint>)
(<boundaryPoint> X8.104 Y-11.218 Z0.25 </boundaryPoint>)
(<boundaryPoint> X8.039 Y-11.431 Z0.25 </boundaryPoint>)
(<boundaryPoint> X7.936 Y-11.624 Z0.25 </boundaryPoint>)
(<boundaryPoint> X7.796 Y-11.795 Z0.25 </boundaryPoint>)
(<boundaryPoint> X7.625 Y-11.935 Z0.25 </boundaryPoint>)
(<boundaryPoint> X7.431 Y-12.039 Z0.25 </boundaryPoint>)
(<boundaryPoint> X7.218 Y-12.104 Z0.25 </boundaryPoint>)
(<boundaryPoint> X7.001 Y-12.125 Z0.25 </boundaryPoint>)
(<boundaryPoint> X6.782 Y-12.104 Z0.25 </boundaryPoint>)
(<boundaryPoint> X6.569 Y-12.039 Z0.25 </boundaryPoint>)
(<boundaryPoint> X6.376 Y-11.936 Z0.25 </boundaryPoint>)
(<boundaryPoint> X6.204 Y-11.795 Z0.25 </boundaryPoint>)
(<boundaryPoint> X6.065 Y-11.626 Z0.25 </boundaryPoint>)
(<boundaryPoint> X5.961 Y-11.431 Z0.25 </boundaryPoint>)
(<boundaryPoint> X5.897 Y-11.219 Z0.25 </boundaryPoint>)
(<boundaryPoint> X5.875 Y-11.001 Z0.25 </boundaryPoint>)
(<perimeter> inner )
G1 X4.16 Y-10.26 Z0.25 F6000.0
M108 R30.0
M101
G1 X5.69 Y-10.74 Z0.25 F6000.0
M108 R6.657
G1 X5.76 Y-10.49 Z0.25 F3600.0
G1 X5.89 Y-10.26 Z0.25 F3600.0
G1 X6.06 Y-10.05 Z0.25 F3600.0
G1 X6.26 Y-9.89 Z0.25 F3600.0
G1 X6.49 Y-9.77 Z0.25 F3600.0
G1 X6.74 Y-9.69 Z0.25 F3600.0
G1 X7.0 Y-9.66 Z0.25 F3600.0
G1 X7.26 Y-9.69 Z0.25 F3600.0
G1 X7.51 Y-9.77 Z0.25 F3600.0
G1 X7.74 Y-9.89 Z0.25 F3600.0
G1 X7.94 Y-10.05 Z0.25 F3600.0
G1 X8.11 Y-10.26 Z0.25 F3600.0
G1 X8.23 Y-10.49 Z0.25 F3600.0
G1 X8.31 Y-10.74 Z0.25 F3600.0
G1 X8.34 Y-11.0 Z0.25 F3600.0
G1 X8.31 Y-11.26 Z0.25 F3600.0
G1 X8.23 Y-11.51 Z0.25 F3600.0
G1 X8.11 Y-11.74 Z0.25 F3600.0
G1 X7.95 Y-11.94 Z0.25 F3600.0
G1 X7.74 Y-12.11 Z0.25 F3600.0
G1 X7.51 Y-12.23 Z0.25 F3600.0
G1 X7.26 Y-12.31 Z0.25 F3600.0
G1 X7.0 Y-12.34 Z0.25 F3600.0
G1 X6.74 Y-12.31 Z0.25 F3600.0
G1 X6.49 Y-12.23 Z0.25 F3600.0
G1 X6.26 Y-12.11 Z0.25 F3600.0
G1 X6.05 Y-11.94 Z0.25 F3600.0
G1 X5.89 Y-11.74 Z0.25 F3600.0
G1 X5.82 Y-11.61 Z0.25 F3600.0
M108 R30.0
M102
G1 X5.77 Y-11.51 Z0.25 F3600.0
G1 X5.69 Y-11.26 Z0.25 F3600.0
G1 X5.66 Y-11.0 Z0.25 F3600.0
G1 X5.69 Y-10.74 Z0.25 F3600.0
M108 R6.657
M103
(</perimeter>)
(</boundaryPerimeter>)
(</surroundingLoop>)
(<surroundingLoop>)
(<boundaryPerimeter>)
(<boundaryPoint> X5.896 Y11.218 Z0.25 </boundaryPoint>)
(<boundaryPoint> X5.96 Y11.43 Z0.25 </boundaryPoint>)
(<boundaryPoint> X6.064 Y11.624 Z0.25 </boundaryPoint>)
(<boundaryPoint> X6.205 Y11.796 Z0.25 </boundaryPoint>)
(<boundaryPoint> X6.374 Y11.935 Z0.25 </boundaryPoint>)
(<boundaryPoint> X6.569 Y12.039 Z0.25 </boundaryPoint>)
(<boundaryPoint> X6.78 Y12.103 Z0.25 </boundaryPoint>)
(<boundaryPoint> X6.999 Y12.125 Z0.25 </boundaryPoint>)
(<boundaryPoint> X7.219 Y12.103 Z0.25 </boundaryPoint>)
(<boundaryPoint> X7.43 Y12.04 Z0.25 </boundaryPoint>)
(<boundaryPoint> X7.624 Y11.936 Z0.25 </boundaryPoint>)
(<boundaryPoint> X7.795 Y11.796 Z0.25 </boundaryPoint>)
(<boundaryPoint> X7.935 Y11.626 Z0.25 </boundaryPoint>)
(<boundaryPoint> X8.039 Y11.431 Z0.25 </boundaryPoint>)
(<boundaryPoint> X8.103 Y11.22 Z0.25 </boundaryPoint>)
(<boundaryPoint> X8.125 Y10.999 Z0.25 </boundaryPoint>)
(<boundaryPoint> X8.104 Y10.782 Z0.25 </boundaryPoint>)
(<boundaryPoint> X8.039 Y10.569 Z0.25 </boundaryPoint>)
(<boundaryPoint> X7.936 Y10.376 Z0.25 </boundaryPoint>)
(<boundaryPoint> X7.796 Y10.205 Z0.25 </boundaryPoint>)
(<boundaryPoint> X7.625 Y10.065 Z0.25 </boundaryPoint>)
(<boundaryPoint> X7.431 Y9.961 Z0.25 </boundaryPoint>)
(<boundaryPoint> X7.218 Y9.896 Z0.25 </boundaryPoint>)
(<boundaryPoint> X7.001 Y9.875 Z0.25 </boundaryPoint>)
(<boundaryPoint> X6.782 Y9.896 Z0.25 </boundaryPoint>)
(<boundaryPoint> X6.569 Y9.961 Z0.25 </boundaryPoint>)
(<boundaryPoint> X6.376 Y10.064 Z0.25 </boundaryPoint>)
(<boundaryPoint> X6.204 Y10.205 Z0.25 </boundaryPoint>)
(<boundaryPoint> X6.065 Y10.374 Z0.25 </boundaryPoint>)
(<boundaryPoint> X5.961 Y10.569 Z0.25 </boundaryPoint>)
(<boundaryPoint> X5.897 Y10.781 Z0.25 </boundaryPoint>)
(<boundaryPoint> X5.875 Y10.999 Z0.25 </boundaryPoint>)
(<perimeter> inner )
G1 X6.9 Y8.07 Z0.25 F6000.0
M108 R30.0
M101
G1 X7.0 Y9.66 Z0.25 F6000.0
M108 R6.657
G1 X6.74 Y9.69 Z0.25 F3600.0
G1 X6.49 Y9.77 Z0.25 F3600.0
G1 X6.26 Y9.89 Z0.25 F3600.0
G1 X6.05 Y10.06 Z0.25 F3600.0
G1 X5.89 Y10.26 Z0.25 F3600.0
G1 X5.77 Y10.49 Z0.25 F3600.0
G1 X5.69 Y10.74 Z0.25 F3600.0
G1 X5.66 Y11.0 Z0.25 F3600.0
G1 X5.69 Y11.26 Z0.25 F3600.0
G1 X5.76 Y11.51 Z0.25 F3600.0
G1 X5.89 Y11.74 Z0.25 F3600.0
G1 X6.06 Y11.95 Z0.25 F3600.0
G1 X6.26 Y12.11 Z0.25 F3600.0
G1 X6.49 Y12.23 Z0.25 F3600.0
G1 X6.74 Y12.31 Z0.25 F3600.0
G1 X7.0 Y12.34 Z0.25 F3600.0
G1 X7.26 Y12.31 Z0.25 F3600.0
G1 X7.51 Y12.23 Z0.25 F3600.0
G1 X7.74 Y12.11 Z0.25 F3600.0
G1 X7.94 Y11.95 Z0.25 F3600.0
G1 X8.11 Y11.74 Z0.25 F3600.0
G1 X8.23 Y11.51 Z0.25 F3600.0
G1 X8.31 Y11.26 Z0.25 F3600.0
G1 X8.34 Y11.0 Z0.25 F3600.0
G1 X8.31 Y10.74 Z0.25 F3600.0
G1 X8.23 Y10.49 Z0.25 F3600.0
G1 X8.11 Y10.26 Z0.25 F3600.0
G1 X7.95 Y10.06 Z0.25 F3600.0
G1 X7.83 Y9.96 Z0.25 F3600.0
M108 R30.0
M102
G1 X7.74 Y9.89 Z0.25 F3600.0
G1 X7.51 Y9.77 Z0.25 F3600.0
G1 X7.26 Y9.69 Z0.25 F3600.0
G1 X7.0 Y9.66 Z0.25 F3600.0
M108 R6.657
M103
(</perimeter>)
(</boundaryPerimeter>)
(</surroundingLoop>)
G1 X5.52 Y-8.75 Z0.25 F3600.0
M108 R30.0
M101
G1 X5.45 Y-9.71 Z0.25 F3600.0
M108 R6.657
G1 X5.45 Y9.71 Z0.25 F3600.0
G1 X5.86 Y9.32 Z0.25 F3600.0
G1 X5.86 Y-9.32 Z0.25 F3600.0
G1 X6.28 Y-9.11 Z0.25 F3600.0
G1 X6.28 Y9.11 Z0.25 F3600.0
G1 X6.7 Y9.0 Z0.25 F3600.0
G1 X6.7 Y-9.0 Z0.25 F3600.0
G1 X7.12 Y-8.98 Z0.25 F3600.0
G1 X7.12 Y8.98 Z0.25 F3600.0
M103
G1 X7.54 Y9.05 Z0.25 F3600.0
M101
G1 X7.54 Y-9.05 Z0.25 F3600.0
G1 X7.96 Y-9.22 Z0.25 F3600.0
G1 X7.96 Y9.22 Z0.25 F3600.0
G1 X8.38 Y9.52 Z0.25 F3600.0
G1 X8.38 Y-9.52 Z0.25 F3600.0
G1 X8.8 Y-10.07 Z0.25 F3600.0
G1 X8.8 Y9.18 Z0.25 F3600.0
M108 R30.0
M102
G1 X8.8 Y10.07 Z0.25 F3600.0
M108 R6.657
M103
G1 X8.8 Y10.96 Z0.25 F3600.0
M108 R30.0
M101
G1 X8.8 Y11.93 Z0.25 F3600.0
M108 R6.657
G1 X8.8 Y14.65 Z0.25 F3600.0
G1 X8.38 Y14.65 Z0.25 F3600.0
G1 X8.38 Y12.48 Z0.25 F3600.0
G1 X7.96 Y12.78 Z0.25 F3600.0
G1 X7.96 Y14.65 Z0.25 F3600.0
G1 X7.54 Y14.65 Z0.25 F3600.0
G1 X7.54 Y12.95 Z0.25 F3600.0
M103
G1 X7.12 Y13.02 Z0.25 F3600.0
M101
G1 X7.12 Y14.65 Z0.25 F3600.0
G1 X6.7 Y14.65 Z0.25 F3600.0
G1 X6.7 Y13.0 Z0.25 F3600.0
M103
G1 X6.28 Y12.89 Z0.25 F3600.0
M101
G1 X6.28 Y14.65 Z0.25 F3600.0
G1 X5.86 Y14.65 Z0.25 F3600.0
G1 X5.86 Y12.68 Z0.25 F3600.0
G1 X5.45 Y12.29 Z0.25 F3600.0
G1 X5.45 Y13.75 Z0.25 F3600.0
M108 R30.0
M102
G1 X5.45 Y14.65 Z0.25 F3600.0
M108 R6.657
M103
G1 X3.05 Y14.65 Z0.25 F3600.0
M108 R30.0
M101
G1 X2.09 Y14.65 Z0.25 F3600.0
M108 R6.657
G1 X2.09 Y-14.65 Z0.25 F3600.0
G1 X2.51 Y-14.65 Z0.25 F3600.0
G1 X2.51 Y14.65 Z0.25 F3600.0
G1 X2.93 Y14.65 Z0.25 F3600.0
G1 X2.93 Y-14.65 Z0.25 F3600.0
G1 X3.35 Y-14.65 Z0.25 F3600.0
G1 X3.35 Y14.65 Z0.25 F3600.0
G1 X3.77 Y14.65 Z0.25 F3600.0
G1 X3.77 Y-14.65 Z0.25 F3600.0
G1 X4.19 Y-14.65 Z0.25 F3600.0
G1 X4.19 Y14.65 Z0.25 F3600.0
G1 X4.61 Y14.65 Z0.25 F3600.0
G1 X4.61 Y-14.65 Z0.25 F3600.0
G1 X5.03 Y-14.65 Z0.25 F3600.0
G1 X5.03 Y13.75 Z0.25 F3600.0
M108 R30.0
M102
G1 X5.03 Y14.65 Z0.25 F3600.0
M108 R6.657
M103
G1 X5.82 Y10.21 Z0.25 F6000.0
G1 X11.91 Y-13.72 Z0.25 F3600.0
M108 R30.0
M101
G1 X12.15 Y-14.65 Z0.25 F3600.0
M108 R6.657
G1 X12.15 Y14.65 Z0.25 F3600.0
G1 X11.73 Y14.65 Z0.25 F3600.0
G1 X11.73 Y-14.65 Z0.25 F3600.0
G1 X11.31 Y-14.65 Z0.25 F3600.0
G1 X11.31 Y14.65 Z0.25 F3600.0
G1 X10.89 Y14.65 Z0.25 F3600.0
G1 X10.89 Y-14.65 Z0.25 F3600.0
G1 X10.47 Y-14.65 Z0.25 F3600.0
G1 X10.47 Y14.65 Z0.25 F3600.0
G1 X10.05 Y14.65 Z0.25 F3600.0
G1 X10.05 Y-14.65 Z0.25 F3600.0
G1 X9.63 Y-14.65 Z0.25 F3600.0
G1 X9.63 Y14.65 Z0.25 F3600.0
G1 X9.21 Y14.65 Z0.25 F3600.0
G1 X9.21 Y-14.65 Z0.25 F3600.0
G1 X8.8 Y-14.65 Z0.25 F3600.0
G1 X8.8 Y-11.93 Z0.25 F3600.0
G1 X8.38 Y-12.48 Z0.25 F3600.0
G1 X8.38 Y-14.65 Z0.25 F3600.0
G1 X7.96 Y-14.65 Z0.25 F3600.0
G1 X7.96 Y-12.78 Z0.25 F3600.0
G1 X7.54 Y-12.95 Z0.25 F3600.0
G1 X7.54 Y-14.65 Z0.25 F3600.0
G1 X7.12 Y-14.65 Z0.25 F3600.0
G1 X7.12 Y-13.02 Z0.25 F3600.0
G1 X6.7 Y-13.0 Z0.25 F3600.0
G1 X6.7 Y-14.65 Z0.25 F3600.0
G1 X6.28 Y-14.65 Z0.25 F3600.0
G1 X6.28 Y-12.89 Z0.25 F3600.0
G1 X5.86 Y-12.68 Z0.25 F3600.0
G1 X5.86 Y-14.65 Z0.25 F3600.0
G1 X5.45 Y-14.65 Z0.25 F3600.0
G1 X5.45 Y-13.19 Z0.25 F3600.0
M108 R30.0
M102
G1 X5.45 Y-12.29 Z0.25 F3600.0
M108 R6.657
M103
(</surroundingLoop>)
(<surroundingLoop>)
(<boundaryPerimeter>)
(<boundaryPoint> X-1.382 Y-8.382 Z0.25 </boundaryPoint>)
(<boundaryPoint> X-18.05 Y-8.382 Z0.25 </boundaryPoint>)
(<boundaryPoint> X-18.05 Y-11.05 Z0.25 </boundaryPoint>)
(<boundaryPoint> X-4.05 Y-11.05 Z0.25 </boundaryPoint>)
(<boundaryPoint> X-4.05 Y-15.55 Z0.25 </boundaryPoint>)
(<boundaryPoint> X-1.382 Y-15.55 Z0.25 </boundaryPoint>)
(<loop> outer )
G1 X-0.41 Y-12.21 Z0.25 F6000.0
M108 R30.0
M101
G1 X-2.01 Y-12.19 Z0.25 F6000.0
M108 R6.657
G1 X-2.01 Y-9.01 Z0.25 F3600.0
G1 X-17.42 Y-9.01 Z0.25 F3600.0
G1 X-17.42 Y-10.42 Z0.25 F3600.0
G1 X-3.42 Y-10.42 Z0.25 F3600.0
G1 X-3.42 Y-14.92 Z0.25 F3600.0
G1 X-2.01 Y-14.92 Z0.25 F3600.0
G1 X-2.01 Y-12.29 Z0.25 F3600.0
G1 X-2.01 Y-12.19 Z0.25 F3600.0
M103
(</loop>)
(<perimeter> outer )
G1 X-1.59 Y-12.29 Z0.25 F6000.0
M101
G1 X-1.59 Y-8.59 Z0.25 F3600.0
G1 X-17.84 Y-8.59 Z0.25 F3600.0
G1 X-17.84 Y-10.84 Z0.25 F3600.0
G1 X-3.84 Y-10.84 Z0.25 F3600.0
G1 X-3.84 Y-15.34 Z0.25 F3600.0
G1 X-1.59 Y-15.34 Z0.25 F3600.0
G1 X-1.59 Y-13.19 Z0.25 F3600.0
M108 R30.0
M102
G1 X-1.59 Y-12.29 Z0.25 F3600.0
M108 R6.657
M103
(</perimeter>)
(</boundaryPerimeter>)
G1 X-2.23 Y-10.2 Z0.25 F3600.0
M108 R30.0
M101
G1 X-2.51 Y-9.28 Z0.25 F3600.0
M108 R6.657
G1 X-2.51 Y-14.65 Z0.25 F3600.0
G1 X-2.93 Y-14.65 Z0.25 F3600.0
G1 X-2.93 Y-9.28 Z0.25 F3600.0
M103
G1 X-3.35 Y-9.28 Z0.25 F3600.0
M101
G1 X-3.35 Y-10.15 Z0.25 F3600.0
G1 X-3.77 Y-10.15 Z0.25 F3600.0
G1 X-3.77 Y-9.28 Z0.25 F3600.0
M103
G1 X-4.19 Y-9.28 Z0.25 F3600.0
M101
G1 X-4.19 Y-10.15 Z0.25 F3600.0
G1 X-4.61 Y-10.15 Z0.25 F3600.0
G1 X-4.61 Y-9.28 Z0.25 F3600.0
M103
G1 X-5.03 Y-9.28 Z0.25 F3600.0
M101
G1 X-5.03 Y-10.15 Z0.25 F3600.0
G1 X-5.45 Y-10.15 Z0.25 F3600.0
G1 X-5.45 Y-9.28 Z0.25 F3600.0
M103
G1 X-5.86 Y-9.28 Z0.25 F3600.0
M101
G1 X-5.86 Y-10.15 Z0.25 F3600.0
G1 X-6.28 Y-10.15 Z0.25 F3600.0
G1 X-6.28 Y-9.28 Z0.25 F3600.0
M103
G1 X-6.7 Y-9.28 Z0.25 F3600.0
M101
G1 X-6.7 Y-10.15 Z0.25 F3600.0
G1 X-7.12 Y-10.15 Z0.25 F3600.0
G1 X-7.12 Y-9.28 Z0.25 F3600.0
M103
G1 X-7.54 Y-9.28 Z0.25 F3600.0
M101
G1 X-7.54 Y-10.15 Z0.25 F3600.0
G1 X-7.96 Y-10.15 Z0.25 F3600.0
G1 X-7.96 Y-9.28 Z0.25 F3600.0
M103
G1 X-8.38 Y-9.28 Z0.25 F3600.0
M101
G1 X-8.38 Y-10.15 Z0.25 F3600.0
G1 X-8.8 Y-10.15 Z0.25 F3600.0
G1 X-8.8 Y-9.28 Z0.25 F3600.0
M103
G1 X-9.21 Y-9.28 Z0.25 F3600.0
M101
G1 X-9.21 Y-10.15 Z0.25 F3600.0
G1 X-9.63 Y-10.15 Z0.25 F3600.0
G1 X-9.63 Y-9.28 Z0.25 F3600.0
M103
G1 X-10.05 Y-9.28 Z0.25 F3600.0
M101
G1 X-10.05 Y-10.15 Z0.25 F3600.0
G1 X-10.47 Y-10.15 Z0.25 F3600.0
G1 X-10.47 Y-9.28 Z0.25 F3600.0
M103
G1 X-10.89 Y-9.28 Z0.25 F3600.0
M101
G1 X-10.89 Y-10.15 Z0.25 F3600.0
G1 X-11.31 Y-10.15 Z0.25 F3600.0
G1 X-11.31 Y-9.28 Z0.25 F3600.0
M103
G1 X-11.73 Y-9.28 Z0.25 F3600.0
M101
G1 X-11.73 Y-10.15 Z0.25 F3600.0
G1 X-12.15 Y-10.15 Z0.25 F3600.0
G1 X-12.15 Y-9.28 Z0.25 F3600.0
M103
G1 X-12.57 Y-9.28 Z0.25 F3600.0
M101
G1 X-12.57 Y-10.15 Z0.25 F3600.0
G1 X-12.98 Y-10.15 Z0.25 F3600.0
G1 X-12.98 Y-9.28 Z0.25 F3600.0
M103
G1 X-13.4 Y-9.28 Z0.25 F3600.0
M101
G1 X-13.4 Y-10.15 Z0.25 F3600.0
G1 X-13.82 Y-10.15 Z0.25 F3600.0
G1 X-13.82 Y-9.28 Z0.25 F3600.0
M103
G1 X-14.24 Y-9.28 Z0.25 F3600.0
M101
G1 X-14.24 Y-10.15 Z0.25 F3600.0
G1 X-14.66 Y-10.15 Z0.25 F3600.0
G1 X-14.66 Y-9.28 Z0.25 F3600.0
M103
G1 X-15.08 Y-9.28 Z0.25 F3600.0
M101
G1 X-15.08 Y-10.15 Z0.25 F3600.0
G1 X-15.5 Y-10.15 Z0.25 F3600.0
G1 X-15.5 Y-9.28 Z0.25 F3600.0
M103
G1 X-15.92 Y-9.28 Z0.25 F3600.0
M101
G1 X-15.92 Y-10.15 Z0.25 F3600.0
G1 X-16.34 Y-10.15 Z0.25 F3600.0
G1 X-16.34 Y-9.28 Z0.25 F3600.0
M103
G1 X-16.75 Y-9.28 Z0.25 F3600.0
M101
M108 R30.0
M102
G1 X-16.75 Y-10.15 Z0.25 F3464.0
M108 R6.657
M103
(</surroundingLoop>)
(<surroundingLoop>)
(<boundaryPerimeter>)
(<boundaryPoint> X-1.382 Y-6.223 Z0.25 </boundaryPoint>)
(<boundaryPoint> X-1.382 Y6.223 Z0.25 </boundaryPoint>)
(<boundaryPoint> X-18.05 Y6.223 Z0.25 </boundaryPoint>)
(<boundaryPoint> X-18.05 Y-6.223 Z0.25 </boundaryPoint>)
(<loop> inner )
G1 X-11.37 Y-2.69 Z0.25 F6000.0
M108 R30.0
M101
G1 X-10.43 Y-1.4 Z0.25 F6000.0
M108 R6.657
G1 X-10.62 Y-1.24 Z0.25 F3600.0
G1 X-10.84 Y-0.98 Z0.25 F3600.0
G1 X-11.01 Y-0.67 Z0.25 F3600.0
G1 X-11.1 Y-0.34 Z0.25 F3600.0
G1 X-11.14 Y-0.0 Z0.25 F3600.0
G1 X-11.11 Y0.34 Z0.25 F3600.0
G1 X-11.01 Y0.67 Z0.25 F3600.0
G1 X-10.84 Y0.97 Z0.25 F3600.0
G1 X-10.63 Y1.24 Z0.25 F3600.0
G1 X-10.36 Y1.46 Z0.25 F3600.0
G1 X-10.06 Y1.62 Z0.25 F3600.0
G1 X-9.73 Y1.72 Z0.25 F3600.0
G1 X-9.38 Y1.76 Z0.25 F3600.0
G1 X-9.04 Y1.72 Z0.25 F3600.0
G1 X-8.71 Y1.62 Z0.25 F3600.0
G1 X-8.41 Y1.46 Z0.25 F3600.0
G1 X-8.14 Y1.24 Z0.25 F3600.0
G1 X-7.92 Y0.98 Z0.25 F3600.0
G1 X-7.76 Y0.67 Z0.25 F3600.0
G1 X-7.66 Y0.34 Z0.25 F3600.0
G1 X-7.63 Y-0.0 Z0.25 F3600.0
G1 X-7.66 Y-0.34 Z0.25 F3600.0
G1 X-7.76 Y-0.67 Z0.25 F3600.0
G1 X-7.92 Y-0.97 Z0.25 F3600.0
G1 X-8.14 Y-1.24 Z0.25 F3600.0
G1 X-8.41 Y-1.46 Z0.25 F3600.0
G1 X-8.71 Y-1.62 Z0.25 F3600.0
G1 X-9.04 Y-1.72 Z0.25 F3600.0
G1 X-9.38 Y-1.76 Z0.25 F3600.0
G1 X-9.61 Y-1.73 Z0.25 F3600.0
M108 R30.0
M102
G1 X-9.72 Y-1.72 Z0.25 F3600.0
G1 X-10.05 Y-1.62 Z0.25 F3600.0
G1 X-10.36 Y-1.46 Z0.25 F3600.0
G1 X-10.43 Y-1.4 Z0.25 F3600.0
M108 R6.657
M103
(</loop>)
(<loop> outer )
G1 X-10.39 Y-4.0 Z0.25 F6000.0
M108 R30.0
M101
G1 X-10.36 Y-5.59 Z0.25 F6000.0
M108 R6.657
G1 X-2.01 Y-5.59 Z0.25 F3600.0
G1 X-2.01 Y5.59 Z0.25 F3600.0
G1 X-17.42 Y5.59 Z0.25 F3600.0
G1 X-17.42 Y-5.59 Z0.25 F3600.0
G1 X-10.36 Y-5.59 Z0.25 F3600.0
M103
(</loop>)
(<perimeter> outer )
G1 X-10.36 Y-6.01 Z0.25 F6000.0
M101
G1 X-1.59 Y-6.01 Z0.25 F3600.0
G1 X-1.59 Y6.01 Z0.25 F3600.0
G1 X-17.84 Y6.01 Z0.25 F3600.0
G1 X-17.84 Y-6.01 Z0.25 F3600.0
G1 X-11.26 Y-6.01 Z0.25 F3600.0
M108 R30.0
M102
G1 X-10.36 Y-6.01 Z0.25 F3600.0
M108 R6.657
M103
(</perimeter>)
(</boundaryPerimeter>)
(<surroundingLoop>)
(<boundaryPerimeter>)
(<boundaryPoint> X-10.486 Y0.218 Z0.25 </boundaryPoint>)
(<boundaryPoint> X-10.422 Y0.429 Z0.25 </boundaryPoint>)
(<boundaryPoint> X-10.318 Y0.624 Z0.25 </boundaryPoint>)
(<boundaryPoint> X-10.178 Y0.795 Z0.25 </boundaryPoint>)
(<boundaryPoint> X-10.008 Y0.935 Z0.25 </boundaryPoint>)
(<boundaryPoint> X-9.814 Y1.039 Z0.25 </boundaryPoint>)
(<boundaryPoint> X-9.603 Y1.103 Z0.25 </boundaryPoint>)
(<boundaryPoint> X-9.383 Y1.125 Z0.25 </boundaryPoint>)
(<boundaryPoint> X-9.163 Y1.103 Z0.25 </boundaryPoint>)
(<boundaryPoint> X-8.953 Y1.04 Z0.25 </boundaryPoint>)
(<boundaryPoint> X-8.758 Y0.936 Z0.25 </boundaryPoint>)
(<boundaryPoint> X-8.587 Y0.796 Z0.25 </boundaryPoint>)
(<boundaryPoint> X-8.447 Y0.626 Z0.25 </boundaryPoint>)
(<boundaryPoint> X-8.343 Y0.431 Z0.25 </boundaryPoint>)
(<boundaryPoint> X-8.279 Y0.221 Z0.25 </boundaryPoint>)
(<boundaryPoint> X-8.257 Y-0.001 Z0.25 </boundaryPoint>)
(<boundaryPoint> X-8.278 Y-0.218 Z0.25 </boundaryPoint>)
(<boundaryPoint> X-8.343 Y-0.432 Z0.25 </boundaryPoint>)
(<boundaryPoint> X-8.446 Y-0.624 Z0.25 </boundaryPoint>)
(<boundaryPoint> X-8.586 Y-0.795 Z0.25 </boundaryPoint>)
(<boundaryPoint> X-8.757 Y-0.935 Z0.25 </boundaryPoint>)
(<boundaryPoint> X-8.95 Y-1.039 Z0.25 </boundaryPoint>)
(<boundaryPoint> X-9.164 Y-1.104 Z0.25 </boundaryPoint>)
(<boundaryPoint> X-9.381 Y-1.125 Z0.25 </boundaryPoint>)
(<boundaryPoint> X-9.6 Y-1.104 Z0.25 </boundaryPoint>)
(<boundaryPoint> X-9.813 Y-1.039 Z0.25 </boundaryPoint>)
(<boundaryPoint> X-10.006 Y-0.936 Z0.25 </boundaryPoint>)
(<boundaryPoint> X-10.178 Y-0.795 Z0.25 </boundaryPoint>)
(<boundaryPoint> X-10.317 Y-0.626 Z0.25 </boundaryPoint>)
(<boundaryPoint> X-10.421 Y-0.432 Z0.25 </boundaryPoint>)
(<boundaryPoint> X-10.485 Y-0.219 Z0.25 </boundaryPoint>)
(<boundaryPoint> X-10.507 Y-0.001 Z0.25 </boundaryPoint>)
(<perimeter> inner )
G1 X-9.88 Y-2.89 Z0.25 F6000.0
M108 R30.0
M101
G1 X-9.64 Y-1.31 Z0.25 F6000.0
M108 R6.657
G1 X-9.89 Y-1.23 Z0.25 F3600.0
G1 X-10.12 Y-1.11 Z0.25 F3600.0
G1 X-10.33 Y-0.94 Z0.25 F3600.0
G1 X-10.49 Y-0.74 Z0.25 F3600.0
G1 X-10.62 Y-0.51 Z0.25 F3600.0
G1 X-10.69 Y-0.26 Z0.25 F3600.0
G1 X-10.72 Y-0.0 Z0.25 F3600.0
G1 X-10.69 Y0.26 Z0.25 F3600.0
G1 X-10.62 Y0.51 Z0.25 F3600.0
G1 X-10.49 Y0.74 Z0.25 F3600.0
G1 X-10.33 Y0.94 Z0.25 F3600.0
G1 X-10.13 Y1.11 Z0.25 F3600.0
G1 X-9.89 Y1.23 Z0.25 F3600.0
G1 X-9.64 Y1.31 Z0.25 F3600.0
G1 X-9.38 Y1.34 Z0.25 F3600.0
G1 X-9.12 Y1.31 Z0.25 F3600.0
G1 X-8.87 Y1.24 Z0.25 F3600.0
G1 X-8.64 Y1.11 Z0.25 F3600.0
G1 X-8.44 Y0.94 Z0.25 F3600.0
G1 X-8.27 Y0.74 Z0.25 F3600.0
G1 X-8.15 Y0.51 Z0.25 F3600.0
G1 X-8.07 Y0.26 Z0.25 F3600.0
G1 X-8.05 Y-0.0 Z0.25 F3600.0
G1 X-8.07 Y-0.26 Z0.25 F3600.0
G1 X-8.15 Y-0.51 Z0.25 F3600.0
G1 X-8.27 Y-0.74 Z0.25 F3600.0
G1 X-8.44 Y-0.94 Z0.25 F3600.0
G1 X-8.64 Y-1.11 Z0.25 F3600.0
G1 X-8.87 Y-1.23 Z0.25 F3600.0
G1 X-9.12 Y-1.31 Z0.25 F3600.0
G1 X-9.38 Y-1.33 Z0.25 F3600.0
G1 X-9.64 Y-1.31 Z0.25 F3600.0
M103
(</perimeter>)
(</boundaryPerimeter>)
(</surroundingLoop>)
G1 X-10.05 Y-1.91 Z0.25 F3600.0
M101
G1 X-10.05 Y-5.32 Z0.25 F3600.0
G1 X-9.63 Y-5.32 Z0.25 F3600.0
G1 X-9.63 Y-2.01 Z0.25 F3600.0
G1 X-9.21 Y-2.01 Z0.25 F3600.0
G1 X-9.21 Y-5.32 Z0.25 F3600.0
G1 X-8.8 Y-5.32 Z0.25 F3600.0
G1 X-8.8 Y-1.93 Z0.25 F3600.0
M103
G1 X-8.38 Y-1.75 Z0.25 F3600.0
M101
G1 X-8.38 Y-5.32 Z0.25 F3600.0
G1 X-7.96 Y-5.32 Z0.25 F3600.0
G1 X-7.96 Y-1.45 Z0.25 F3600.0
M103
G1 X-7.54 Y-0.84 Z0.25 F3600.0
M101
G1 X-7.54 Y-5.32 Z0.25 F3600.0
G1 X-7.12 Y-5.32 Z0.25 F3600.0
G1 X-7.12 Y5.32 Z0.25 F3600.0
G1 X-6.7 Y5.32 Z0.25 F3600.0
G1 X-6.7 Y-5.32 Z0.25 F3600.0
G1 X-6.28 Y-5.32 Z0.25 F3600.0
G1 X-6.28 Y5.32 Z0.25 F3600.0
G1 X-5.86 Y5.32 Z0.25 F3600.0
G1 X-5.86 Y-5.32 Z0.25 F3600.0
G1 X-5.45 Y-5.32 Z0.25 F3600.0
G1 X-5.45 Y5.32 Z0.25 F3600.0
G1 X-5.03 Y5.32 Z0.25 F3600.0
G1 X-5.03 Y-5.32 Z0.25 F3600.0
G1 X-4.61 Y-5.32 Z0.25 F3600.0
G1 X-4.61 Y5.32 Z0.25 F3600.0
G1 X-4.19 Y5.32 Z0.25 F3600.0
G1 X-4.19 Y-5.32 Z0.25 F3600.0
G1 X-3.77 Y-5.32 Z0.25 F3600.0
G1 X-3.77 Y5.32 Z0.25 F3600.0
G1 X-3.35 Y5.32 Z0.25 F3600.0
G1 X-3.35 Y-5.32 Z0.25 F3600.0
G1 X-2.93 Y-5.32 Z0.25 F3600.0
G1 X-2.93 Y5.32 Z0.25 F3600.0
G1 X-2.51 Y5.32 Z0.25 F3600.0
G1 X-2.51 Y-4.42 Z0.25 F3600.0
M108 R30.0
M102
G1 X-2.51 Y-5.32 Z0.25 F3600.0
M108 R6.657
M103
G1 X-8.17 Y1.21 Z0.25 F3600.0
M108 R30.0
M101
G1 X-8.8 Y1.93 Z0.25 F3600.0
M108 R6.657
G1 X-8.8 Y5.32 Z0.25 F3600.0
G1 X-8.38 Y5.32 Z0.25 F3600.0
G1 X-8.38 Y1.75 Z0.25 F3600.0
G1 X-7.96 Y1.45 Z0.25 F3600.0
G1 X-7.96 Y5.32 Z0.25 F3600.0
G1 X-7.54 Y5.32 Z0.25 F3600.0
G1 X-7.54 Y1.74 Z0.25 F3600.0
M108 R30.0
M102
G1 X-7.54 Y0.84 Z0.25 F3600.0
M108 R6.657
M103
G1 X-8.79 Y1.54 Z0.25 F3600.0
M108 R30.0
M101
G1 X-9.63 Y2.0 Z0.25 F3600.0
M108 R6.657
G1 X-9.63 Y5.32 Z0.25 F3600.0
G1 X-9.21 Y5.32 Z0.25 F3600.0
G1 X-9.21 Y2.91 Z0.25 F3600.0
M108 R30.0
M102
G1 X-9.21 Y2.01 Z0.25 F3600.0
M108 R6.657
M103
G1 X-10.51 Y1.14 Z0.25 F3600.0
M108 R30.0
M101
G1 X-11.31 Y0.6 Z0.25 F3600.0
M108 R6.657
G1 X-11.31 Y5.32 Z0.25 F3600.0
G1 X-10.89 Y5.32 Z0.25 F3600.0
G1 X-10.89 Y1.35 Z0.25 F3600.0
G1 X-10.47 Y1.71 Z0.25 F3600.0
G1 X-10.47 Y5.32 Z0.25 F3600.0
G1 X-10.05 Y5.32 Z0.25 F3600.0
G1 X-10.05 Y2.81 Z0.25 F3600.0
M108 R30.0
M102
G1 X-10.05 Y1.91 Z0.25 F3600.0
M108 R6.657
M103
G1 X-15.9 Y4.89 Z0.25 F3600.0
M108 R30.0
M101
G1 X-16.75 Y5.32 Z0.25 F3600.0
M108 R6.657
G1 X-16.75 Y-5.32 Z0.25 F3600.0
G1 X-16.34 Y-5.32 Z0.25 F3600.0
G1 X-16.34 Y5.32 Z0.25 F3600.0
G1 X-15.92 Y5.32 Z0.25 F3600.0
G1 X-15.92 Y-5.32 Z0.25 F3600.0
G1 X-15.5 Y-5.32 Z0.25 F3600.0
G1 X-15.5 Y5.32 Z0.25 F3600.0
G1 X-15.08 Y5.32 Z0.25 F3600.0
G1 X-15.08 Y-5.32 Z0.25 F3600.0
G1 X-14.66 Y-5.32 Z0.25 F3600.0
G1 X-14.66 Y5.32 Z0.25 F3600.0
G1 X-14.24 Y5.32 Z0.25 F3600.0
G1 X-14.24 Y-5.32 Z0.25 F3600.0
G1 X-13.82 Y-5.32 Z0.25 F3600.0
G1 X-13.82 Y5.32 Z0.25 F3600.0
G1 X-13.4 Y5.32 Z0.25 F3600.0
G1 X-13.4 Y-5.32 Z0.25 F3600.0
G1 X-12.98 Y-5.32 Z0.25 F3600.0
G1 X-12.98 Y5.32 Z0.25 F3600.0
G1 X-12.57 Y5.32 Z0.25 F3600.0
G1 X-12.57 Y-5.32 Z0.25 F3600.0
G1 X-12.15 Y-5.32 Z0.25 F3600.0
G1 X-12.15 Y5.32 Z0.25 F3600.0
G1 X-11.73 Y5.32 Z0.25 F3600.0
G1 X-11.73 Y-5.32 Z0.25 F3600.0
G1 X-11.31 Y-5.32 Z0.25 F3600.0
G1 X-11.31 Y-0.6 Z0.25 F3600.0
M103
G1 X-10.89 Y-1.35 Z0.25 F3600.0
M101
G1 X-10.89 Y-5.32 Z0.25 F3600.0
G1 X-10.47 Y-5.32 Z0.25 F3600.0
G1 X-10.47 Y-2.61 Z0.25 F3600.0
M108 R30.0
M102
G1 X-10.47 Y-1.71 Z0.25 F3600.0
M108 R6.657
M103
(</surroundingLoop>)
(<surroundingLoop>)
(<boundaryPerimeter>)
(<boundaryPoint> X-4.05 Y11.05 Z0.25 </boundaryPoint>)
(<boundaryPoint> X-18.05 Y11.05 Z0.25 </boundaryPoint>)
(<boundaryPoint> X-18.05 Y8.382 Z0.25 </boundaryPoint>)
(<boundaryPoint> X-1.382 Y8.382 Z0.25 </boundaryPoint>)
(<boundaryPoint> X-1.382 Y15.55 Z0.25 </boundaryPoint>)
(<boundaryPoint> X-4.05 Y15.55 Z0.25 </boundaryPoint>)
(<loop> outer )
G1 X-10.73 Y0.41 Z0.25 F6000.0
G1 X-10.44 Y7.41 Z0.25 F6000.0
M108 R30.0
M101
G1 X-10.37 Y9.01 Z0.25 F6000.0
M108 R6.657
G1 X-2.01 Y9.01 Z0.25 F3600.0
G1 X-2.01 Y14.92 Z0.25 F3600.0
G1 X-3.42 Y14.92 Z0.25 F3600.0
G1 X-3.42 Y10.42 Z0.25 F3600.0
G1 X-17.42 Y10.42 Z0.25 F3600.0
G1 X-17.42 Y9.01 Z0.25 F3600.0
G1 X-10.47 Y9.01 Z0.25 F3600.0
G1 X-10.37 Y9.01 Z0.25 F3600.0
M103
(</loop>)
(<perimeter> outer )
G1 X-10.47 Y8.59 Z0.25 F6000.0
M101
G1 X-1.59 Y8.59 Z0.25 F3600.0
G1 X-1.59 Y15.34 Z0.25 F3600.0
G1 X-3.84 Y15.34 Z0.25 F3600.0
G1 X-3.84 Y10.84 Z0.25 F3600.0
G1 X-17.84 Y10.84 Z0.25 F3600.0
G1 X-17.84 Y8.59 Z0.25 F3600.0
G1 X-10.47 Y8.59 Z0.25 F3600.0
M103
(</perimeter>)
(</boundaryPerimeter>)
G1 X-10.47 Y9.28 Z0.25 F3600.0
M101
G1 X-10.47 Y10.15 Z0.25 F3600.0
G1 X-10.89 Y10.15 Z0.25 F3600.0
G1 X-10.89 Y9.28 Z0.25 F3600.0
M103
G1 X-11.31 Y9.28 Z0.25 F3600.0
M101
G1 X-11.31 Y10.15 Z0.25 F3600.0
G1 X-11.73 Y10.15 Z0.25 F3600.0
G1 X-11.73 Y9.28 Z0.25 F3600.0
M103
G1 X-12.15 Y9.28 Z0.25 F3600.0
M101
G1 X-12.15 Y10.15 Z0.25 F3600.0
G1 X-12.57 Y10.15 Z0.25 F3600.0
G1 X-12.57 Y9.28 Z0.25 F3600.0
M103
G1 X-12.98 Y9.28 Z0.25 F3600.0
M101
G1 X-12.98 Y10.15 Z0.25 F3600.0
G1 X-13.4 Y10.15 Z0.25 F3600.0
G1 X-13.4 Y9.28 Z0.25 F3600.0
M103
G1 X-13.82 Y9.28 Z0.25 F3600.0
M101
G1 X-13.82 Y10.15 Z0.25 F3600.0
G1 X-14.24 Y10.15 Z0.25 F3600.0
G1 X-14.24 Y9.28 Z0.25 F3600.0
M103
G1 X-14.66 Y9.28 Z0.25 F3600.0
M101
G1 X-14.66 Y10.15 Z0.25 F3600.0
G1 X-15.08 Y10.15 Z0.25 F3600.0
G1 X-15.08 Y9.28 Z0.25 F3600.0
M103
G1 X-15.5 Y9.28 Z0.25 F3600.0
M101
G1 X-15.5 Y10.15 Z0.25 F3600.0
G1 X-15.92 Y10.15 Z0.25 F3600.0
G1 X-15.92 Y9.28 Z0.25 F3600.0
M103
G1 X-16.34 Y9.28 Z0.25 F3600.0
M101
G1 X-16.34 Y10.15 Z0.25 F3600.0
G1 X-16.72 Y10.15 Z0.25 F3600.0
M108 R30.0
M102
G1 X-16.75 Y10.15 Z0.25 F3600.0
G1 X-16.75 Y9.28 Z0.25 F3600.0
M108 R6.657
M103
G1 X-10.59 Y9.28 Z0.25 F3600.0
M108 R30.0
M101
G1 X-9.63 Y9.28 Z0.25 F3600.0
M108 R6.657
G1 X-9.63 Y10.15 Z0.25 F3600.0
G1 X-10.02 Y10.15 Z0.25 F3600.0
M108 R30.0
M102
G1 X-10.05 Y10.15 Z0.25 F3600.0
G1 X-10.05 Y9.28 Z0.25 F3600.0
M108 R6.657
M103
G1 X-9.76 Y9.28 Z0.25 F3600.0
M108 R30.0
M101
G1 X-8.8 Y9.28 Z0.25 F3600.0
M108 R6.657
G1 X-8.8 Y10.15 Z0.25 F3600.0
G1 X-9.18 Y10.15 Z0.25 F3600.0
M108 R30.0
M102
G1 X-9.21 Y10.15 Z0.25 F3600.0
G1 X-9.21 Y9.28 Z0.25 F3600.0
M108 R6.657
M103
G1 X-8.92 Y9.28 Z0.25 F3600.0
M108 R30.0
M101
G1 X-7.96 Y9.28 Z0.25 F3600.0
M108 R6.657
G1 X-7.96 Y10.15 Z0.25 F3600.0
G1 X-8.34 Y10.15 Z0.25 F3600.0
M108 R30.0
M102
G1 X-8.38 Y10.15 Z0.25 F3600.0
G1 X-8.38 Y9.28 Z0.25 F3600.0
M108 R6.657
M103
G1 X-8.08 Y9.28 Z0.25 F3600.0
M108 R30.0
M101
G1 X-7.12 Y9.28 Z0.25 F3600.0
M108 R6.657
G1 X-7.12 Y10.15 Z0.25 F3600.0
G1 X-7.51 Y10.15 Z0.25 F3600.0
M108 R30.0
M102
G1 X-7.54 Y10.15 Z0.25 F3600.0
G1 X-7.54 Y9.28 Z0.25 F3600.0
M108 R6.657
M103
G1 X-7.24 Y9.28 Z0.25 F3600.0
M108 R30.0
M101
G1 X-6.28 Y9.28 Z0.25 F3600.0
M108 R6.657
G1 X-6.28 Y10.15 Z0.25 F3600.0
G1 X-6.67 Y10.15 Z0.25 F3600.0
M108 R30.0
M102
G1 X-6.7 Y10.15 Z0.25 F3600.0
G1 X-6.7 Y9.28 Z0.25 F3600.0
M108 R6.657
M103
G1 X-6.41 Y9.28 Z0.25 F3600.0
M108 R30.0
M101
G1 X-5.45 Y9.28 Z0.25 F3600.0
M108 R6.657
G1 X-5.45 Y10.15 Z0.25 F3600.0
G1 X-5.83 Y10.15 Z0.25 F3600.0
M108 R30.0
M102
G1 X-5.86 Y10.15 Z0.25 F3600.0
G1 X-5.86 Y9.28 Z0.25 F3600.0
M108 R6.657
M103
G1 X-5.57 Y9.28 Z0.25 F3600.0
M108 R30.0
M101
G1 X-4.61 Y9.28 Z0.25 F3600.0
M108 R6.657
G1 X-4.61 Y10.15 Z0.25 F3600.0
G1 X-4.99 Y10.15 Z0.25 F3600.0
M108 R30.0
M102
G1 X-5.03 Y10.15 Z0.25 F3600.0
G1 X-5.03 Y9.28 Z0.25 F3600.0
M108 R6.657
M103
G1 X-4.73 Y9.28 Z0.25 F3600.0
M108 R30.0
M101
G1 X-3.77 Y9.28 Z0.25 F3600.0
M108 R6.657
G1 X-3.77 Y10.15 Z0.25 F3600.0
G1 X-4.16 Y10.15 Z0.25 F3600.0
M108 R30.0
M102
G1 X-4.19 Y10.15 Z0.25 F3600.0
G1 X-4.19 Y9.28 Z0.25 F3600.0
M108 R6.657
M103
G1 X-3.35 Y10.15 Z0.25 F3600.0
M101
G1 X-3.35 Y9.28 Z0.25 F3600.0
M103
M108 R30.0
M101
G1 X-2.51 Y9.28 Z0.25 F3142.5
M108 R6.657
G1 X-2.51 Y14.65 Z0.25 F3600.0
G1 X-2.93 Y14.65 Z0.25 F3600.0
G1 X-2.93 Y10.18 Z0.25 F3600.0
M108 R30.0
M102
G1 X-2.93 Y9.28 Z0.25 F3600.0
M108 R6.657
M103
(</surroundingLoop>)
(<surroundingLoop>)
(<boundaryPerimeter>)
(<boundaryPoint> X15.382 Y-15.55 Z0.25 </boundaryPoint>)
(<boundaryPoint> X18.05 Y-15.55 Z0.25 </boundaryPoint>)
(<boundaryPoint> X18.05 Y15.55 Z0.25 </boundaryPoint>)
(<boundaryPoint> X15.382 Y15.55 Z0.25 </boundaryPoint>)
(<loop> outer )
G1 X0.92 Y15.4 Z0.25 F6000.0
G1 X13.08 Y15.4 Z0.25 F6000.0
G1 X15.33 Y10.63 Z0.25 F6000.0
M108 R30.0
M101
G1 X16.01 Y9.18 Z0.25 F6000.0
M108 R6.657
G1 X16.01 Y-14.92 Z0.25 F3600.0
G1 X17.42 Y-14.92 Z0.25 F3600.0
G1 X17.42 Y14.92 Z0.25 F3600.0
G1 X16.01 Y14.92 Z0.25 F3600.0
G1 X16.01 Y9.28 Z0.25 F3600.0
G1 X16.01 Y9.18 Z0.25 F3600.0
M103
(</loop>)
(<perimeter> outer )
G1 X15.59 Y9.28 Z0.25 F6000.0
M101
G1 X15.59 Y-15.34 Z0.25 F3600.0
G1 X17.84 Y-15.34 Z0.25 F3600.0
G1 X17.84 Y15.34 Z0.25 F3600.0
G1 X15.59 Y15.34 Z0.25 F3600.0
G1 X15.59 Y10.18 Z0.25 F3600.0
M108 R30.0
M102
G1 X15.59 Y9.28 Z0.25 F3600.0
M108 R6.657
M103
(</perimeter>)
(</boundaryPerimeter>)
G1 X16.71 Y-13.69 Z0.25 F3600.0
M108 R30.0
M101
G1 X16.75 Y-14.65 Z0.25 F3600.0
M108 R6.657
G1 X16.75 Y14.65 Z0.25 F3600.0
G1 X16.34 Y14.65 Z0.25 F3600.0
G1 X16.34 Y-14.65 Z0.25 F3600.0
M103
(</surroundingLoop>)
(</layer>)
(<layer> 0.55 )
(<surroundingLoop>)
(<boundaryPerimeter>)
(<boundaryPoint> X15.382 Y-15.55 Z0.55 </boundaryPoint>)
(<boundaryPoint> X18.05 Y-15.55 Z0.55 </boundaryPoint>)
(<boundaryPoint> X18.05 Y15.55 Z0.55 </boundaryPoint>)
(<boundaryPoint> X15.382 Y15.55 Z0.55 </boundaryPoint>)
(<loop> outer )
M108 R11.1
G1 X16.11 Y-14.92 Z0.55 F6000.0
M101
G1 X16.34 Y-14.92 Z0.55 F6000.0
G1 X17.42 Y-14.92 Z0.55 F6000.0
G1 X17.42 Y14.92 Z0.55 F6000.0
G1 X16.01 Y14.92 Z0.55 F6000.0
G1 X16.01 Y-14.92 Z0.55 F6000.0
G1 X16.11 Y-14.92 Z0.55 F6000.0
M103
(</loop>)
(<perimeter> outer )
G1 X16.11 Y-15.34 Z0.55 F6000.0
M101
G1 X16.34 Y-15.34 Z0.55 F6000.0
G1 X17.84 Y-15.34 Z0.55 F6000.0
G1 X17.84 Y15.34 Z0.55 F6000.0
G1 X15.59 Y15.34 Z0.55 F6000.0
G1 X15.59 Y-14.37 Z0.55 F6000.0
M108 R30.0
M102
G1 X15.59 Y-15.34 Z0.55 F6000.0
G1 X16.11 Y-15.34 Z0.55 F6000.0
M108 R11.1
M103
(</perimeter>)
(</boundaryPerimeter>)
G1 X17.09 Y12.64 Z0.55 F6000.0
M108 R30.0
M101
G1 X17.15 Y14.24 Z0.55 F6000.0
M108 R11.1
G1 X16.28 Y14.24 Z0.55 F6000.0
G1 X16.28 Y13.82 Z0.55 F6000.0
G1 X17.15 Y13.82 Z0.55 F6000.0
G1 X17.15 Y13.4 Z0.55 F6000.0
G1 X16.28 Y13.4 Z0.55 F6000.0
G1 X16.28 Y12.98 Z0.55 F6000.0
G1 X17.15 Y12.98 Z0.55 F6000.0
G1 X17.15 Y12.57 Z0.55 F6000.0
G1 X16.28 Y12.57 Z0.55 F6000.0
G1 X16.28 Y12.15 Z0.55 F6000.0
G1 X17.15 Y12.15 Z0.55 F6000.0
G1 X17.15 Y11.73 Z0.55 F6000.0
G1 X16.28 Y11.73 Z0.55 F6000.0
G1 X16.28 Y11.31 Z0.55 F6000.0
G1 X17.15 Y11.31 Z0.55 F6000.0
G1 X17.15 Y10.89 Z0.55 F6000.0
G1 X16.28 Y10.89 Z0.55 F6000.0
G1 X16.28 Y10.47 Z0.55 F6000.0
G1 X17.15 Y10.47 Z0.55 F6000.0
G1 X17.15 Y10.05 Z0.55 F6000.0
G1 X16.28 Y10.05 Z0.55 F6000.0
G1 X16.28 Y9.63 Z0.55 F6000.0
G1 X17.15 Y9.63 Z0.55 F6000.0
G1 X17.15 Y9.21 Z0.55 F6000.0
G1 X16.28 Y9.21 Z0.55 F6000.0
G1 X16.28 Y8.8 Z0.55 F6000.0
G1 X17.15 Y8.8 Z0.55 F6000.0
G1 X17.15 Y8.38 Z0.55 F6000.0
G1 X16.28 Y8.38 Z0.55 F6000.0
G1 X16.28 Y7.96 Z0.55 F6000.0
G1 X17.15 Y7.96 Z0.55 F6000.0
G1 X17.15 Y7.54 Z0.55 F6000.0
G1 X16.28 Y7.54 Z0.55 F6000.0
G1 X16.28 Y7.12 Z0.55 F6000.0
G1 X17.15 Y7.12 Z0.55 F6000.0
G1 X17.15 Y6.7 Z0.55 F6000.0
G1 X16.28 Y6.7 Z0.55 F6000.0
G1 X16.28 Y6.28 Z0.55 F6000.0
G1 X17.15 Y6.28 Z0.55 F6000.0
G1 X17.15 Y5.86 Z0.55 F6000.0
G1 X16.28 Y5.86 Z0.55 F6000.0
G1 X16.28 Y5.45 Z0.55 F6000.0
G1 X17.15 Y5.45 Z0.55 F6000.0
G1 X17.15 Y5.03 Z0.55 F6000.0
G1 X16.28 Y5.03 Z0.55 F6000.0
G1 X16.28 Y4.61 Z0.55 F6000.0
G1 X17.15 Y4.61 Z0.55 F6000.0
G1 X17.15 Y4.19 Z0.55 F6000.0
G1 X16.28 Y4.19 Z0.55 F6000.0
G1 X16.28 Y3.77 Z0.55 F6000.0
G1 X17.15 Y3.77 Z0.55 F6000.0
G1 X17.15 Y3.35 Z0.55 F6000.0
G1 X16.28 Y3.35 Z0.55 F6000.0
G1 X16.28 Y2.93 Z0.55 F6000.0
G1 X17.15 Y2.93 Z0.55 F6000.0
G1 X17.15 Y2.51 Z0.55 F6000.0
G1 X16.28 Y2.51 Z0.55 F6000.0
G1 X16.28 Y2.09 Z0.55 F6000.0
G1 X17.15 Y2.09 Z0.55 F6000.0
G1 X17.15 Y1.68 Z0.55 F6000.0
G1 X16.28 Y1.68 Z0.55 F6000.0
G1 X16.28 Y1.26 Z0.55 F6000.0
G1 X17.15 Y1.26 Z0.55 F6000.0
G1 X17.15 Y0.84 Z0.55 F6000.0
G1 X16.28 Y0.84 Z0.55 F6000.0
G1 X16.28 Y0.42 Z0.55 F6000.0
G1 X17.15 Y0.42 Z0.55 F6000.0
G1 X17.15 Y-0.0 Z0.55 F6000.0
G1 X16.28 Y-0.0 Z0.55 F6000.0
G1 X16.28 Y-0.42 Z0.55 F6000.0
G1 X17.15 Y-0.42 Z0.55 F6000.0
G1 X17.15 Y-0.84 Z0.55 F6000.0
G1 X16.28 Y-0.84 Z0.55 F6000.0
G1 X16.28 Y-1.26 Z0.55 F6000.0
G1 X17.15 Y-1.26 Z0.55 F6000.0
G1 X17.15 Y-1.68 Z0.55 F6000.0
G1 X16.28 Y-1.68 Z0.55 F6000.0
G1 X16.28 Y-2.09 Z0.55 F6000.0
G1 X17.15 Y-2.09 Z0.55 F6000.0
G1 X17.15 Y-2.51 Z0.55 F6000.0
G1 X16.28 Y-2.51 Z0.55 F6000.0
G1 X16.28 Y-2.93 Z0.55 F6000.0
G1 X17.15 Y-2.93 Z0.55 F6000.0
G1 X17.15 Y-3.35 Z0.55 F6000.0
G1 X16.28 Y-3.35 Z0.55 F6000.0
G1 X16.28 Y-3.77 Z0.55 F6000.0
G1 X17.15 Y-3.77 Z0.55 F6000.0
G1 X17.15 Y-4.19 Z0.55 F6000.0
G1 X16.28 Y-4.19 Z0.55 F6000.0
G1 X16.28 Y-4.61 Z0.55 F6000.0
G1 X17.15 Y-4.61 Z0.55 F6000.0
G1 X17.15 Y-5.03 Z0.55 F6000.0
G1 X16.28 Y-5.03 Z0.55 F6000.0
G1 X16.28 Y-5.45 Z0.55 F6000.0
G1 X17.15 Y-5.45 Z0.55 F6000.0
G1 X17.15 Y-5.86 Z0.55 F6000.0
G1 X16.28 Y-5.86 Z0.55 F6000.0
G1 X16.28 Y-6.28 Z0.55 F6000.0
G1 X17.15 Y-6.28 Z0.55 F6000.0
G1 X17.15 Y-6.7 Z0.55 F6000.0
G1 X16.28 Y-6.7 Z0.55 F6000.0
G1 X16.28 Y-7.12 Z0.55 F6000.0
G1 X17.15 Y-7.12 Z0.55 F6000.0
G1 X17.15 Y-7.54 Z0.55 F6000.0
G1 X16.28 Y-7.54 Z0.55 F6000.0
G1 X16.28 Y-7.96 Z0.55 F6000.0
G1 X17.15 Y-7.96 Z0.55 F6000.0
G1 X17.15 Y-8.38 Z0.55 F6000.0
G1 X16.28 Y-8.38 Z0.55 F6000.0
G1 X16.28 Y-8.8 Z0.55 F6000.0
G1 X17.15 Y-8.8 Z0.55 F6000.0
G1 X17.15 Y-9.21 Z0.55 F6000.0
G1 X16.28 Y-9.21 Z0.55 F6000.0
G1 X16.28 Y-9.63 Z0.55 F6000.0
G1 X17.15 Y-9.63 Z0.55 F6000.0
G1 X17.15 Y-10.05 Z0.55 F6000.0
G1 X16.28 Y-10.05 Z0.55 F6000.0
G1 X16.28 Y-10.47 Z0.55 F6000.0
G1 X17.15 Y-10.47 Z0.55 F6000.0
G1 X17.15 Y-10.89 Z0.55 F6000.0
G1 X16.28 Y-10.89 Z0.55 F6000.0
G1 X16.28 Y-11.31 Z0.55 F6000.0
G1 X17.15 Y-11.31 Z0.55 F6000.0
G1 X17.15 Y-11.73 Z0.55 F6000.0
G1 X16.28 Y-11.73 Z0.55 F6000.0
G1 X16.28 Y-12.15 Z0.55 F6000.0
G1 X17.15 Y-12.15 Z0.55 F6000.0
G1 X17.15 Y-12.57 Z0.55 F6000.0
G1 X16.28 Y-12.57 Z0.55 F6000.0
G1 X16.28 Y-12.98 Z0.55 F6000.0
G1 X17.15 Y-12.98 Z0.55 F6000.0
G1 X17.15 Y-13.4 Z0.55 F6000.0
G1 X16.28 Y-13.4 Z0.55 F6000.0
G1 X16.28 Y-13.82 Z0.55 F6000.0
G1 X16.93 Y-13.82 Z0.55 F6000.0
M108 R30.0
M102
G1 X17.15 Y-13.82 Z0.55 F6000.0
G1 X17.15 Y-14.24 Z0.55 F6000.0
G1 X16.28 Y-14.24 Z0.55 F6000.0
M108 R11.1
M103
(</surroundingLoop>)
(<surroundingLoop>)
(<boundaryPerimeter>)
(<boundaryPoint> X0.777 Y-15.55 Z0.55 </boundaryPoint>)
(<boundaryPoint> X13.223 Y-15.55 Z0.55 </boundaryPoint>)
(<boundaryPoint> X13.223 Y15.55 Z0.55 </boundaryPoint>)
(<boundaryPoint> X0.777 Y15.55 Z0.55 </boundaryPoint>)
(<loop> inner )
G1 X10.19 Y-12.01 Z0.55 F6000.0
M108 R30.0
M101
G1 X8.69 Y-11.46 Z0.55 F6000.0
M108 R11.1
G1 X8.62 Y-11.67 Z0.55 F6000.0
G1 X8.46 Y-11.98 Z0.55 F6000.0
G1 X8.24 Y-12.24 Z0.55 F6000.0
G1 X7.98 Y-12.46 Z0.55 F6000.0
G1 X7.67 Y-12.62 Z0.55 F6000.0
G1 X7.34 Y-12.72 Z0.55 F6000.0
G1 X7.0 Y-12.76 Z0.55 F6000.0
G1 X6.66 Y-12.72 Z0.55 F6000.0
G1 X6.33 Y-12.62 Z0.55 F6000.0
G1 X6.02 Y-12.46 Z0.55 F6000.0
G1 X5.76 Y-12.24 Z0.55 F6000.0
G1 X5.54 Y-11.98 Z0.55 F6000.0
G1 X5.38 Y-11.67 Z0.55 F6000.0
G1 X5.28 Y-11.34 Z0.55 F6000.0
G1 X5.24 Y-11.0 Z0.55 F6000.0
G1 X5.28 Y-10.66 Z0.55 F6000.0
G1 X5.38 Y-10.33 Z0.55 F6000.0
G1 X5.54 Y-10.02 Z0.55 F6000.0
G1 X5.76 Y-9.76 Z0.55 F6000.0
G1 X6.02 Y-9.54 Z0.55 F6000.0
G1 X6.33 Y-9.38 Z0.55 F6000.0
G1 X6.66 Y-9.28 Z0.55 F6000.0
G1 X7.0 Y-9.24 Z0.55 F6000.0
G1 X7.34 Y-9.28 Z0.55 F6000.0
G1 X7.67 Y-9.38 Z0.55 F6000.0
G1 X7.98 Y-9.54 Z0.55 F6000.0
G1 X8.24 Y-9.76 Z0.55 F6000.0
G1 X8.46 Y-10.02 Z0.55 F6000.0
G1 X8.46 Y-10.03 Z0.55 F6000.0
M108 R30.0
M102
G1 X8.62 Y-10.33 Z0.55 F6000.0
G1 X8.72 Y-10.66 Z0.55 F6000.0
G1 X8.76 Y-11.0 Z0.55 F6000.0
G1 X8.72 Y-11.34 Z0.55 F6000.0
G1 X8.69 Y-11.46 Z0.55 F6000.0
M108 R11.1
M103
(</loop>)
(<loop> inner )
G1 X7.13 Y7.65 Z0.55 F6000.0
M108 R30.0
M101
G1 X7.0 Y9.24 Z0.55 F6000.0
M108 R11.1
G1 X6.66 Y9.28 Z0.55 F6000.0
G1 X6.33 Y9.38 Z0.55 F6000.0
G1 X6.02 Y9.54 Z0.55 F6000.0
G1 X5.76 Y9.76 Z0.55 F6000.0
G1 X5.54 Y10.02 Z0.55 F6000.0
G1 X5.38 Y10.33 Z0.55 F6000.0
G1 X5.28 Y10.66 Z0.55 F6000.0
G1 X5.24 Y11.0 Z0.55 F6000.0
G1 X5.28 Y11.34 Z0.55 F6000.0
G1 X5.38 Y11.67 Z0.55 F6000.0
G1 X5.54 Y11.98 Z0.55 F6000.0
G1 X5.76 Y12.24 Z0.55 F6000.0
G1 X6.02 Y12.46 Z0.55 F6000.0
G1 X6.33 Y12.62 Z0.55 F6000.0
G1 X6.66 Y12.72 Z0.55 F6000.0
G1 X7.0 Y12.76 Z0.55 F6000.0
G1 X7.34 Y12.72 Z0.55 F6000.0
G1 X7.67 Y12.62 Z0.55 F6000.0
G1 X7.98 Y12.46 Z0.55 F6000.0
G1 X8.24 Y12.24 Z0.55 F6000.0
G1 X8.46 Y11.98 Z0.55 F6000.0
G1 X8.62 Y11.67 Z0.55 F6000.0
G1 X8.72 Y11.34 Z0.55 F6000.0
G1 X8.76 Y11.0 Z0.55 F6000.0
G1 X8.72 Y10.66 Z0.55 F6000.0
G1 X8.62 Y10.33 Z0.55 F6000.0
G1 X8.46 Y10.02 Z0.55 F6000.0
G1 X8.32 Y9.85 Z0.55 F6000.0
M108 R30.0
M102
G1 X8.24 Y9.76 Z0.55 F6000.0
G1 X7.98 Y9.54 Z0.55 F6000.0
G1 X7.67 Y9.38 Z0.55 F6000.0
G1 X7.34 Y9.28 Z0.55 F6000.0
G1 X7.0 Y9.24 Z0.55 F6000.0
M108 R11.1
M103
(</loop>)
(<loop> outer )
G1 X3.0 Y9.24 Z0.55 F6000.0
M108 R30.0
M101
G1 X1.41 Y9.24 Z0.55 F6000.0
M108 R11.1
G1 X1.41 Y-14.92 Z0.55 F6000.0
G1 X12.6 Y-14.92 Z0.55 F6000.0
G1 X12.6 Y14.92 Z0.55 F6000.0
G1 X1.41 Y14.92 Z0.55 F6000.0
G1 X1.41 Y9.24 Z0.55 F6000.0
M103
(</loop>)
(<perimeter> outer )
G1 X0.99 Y9.24 Z0.55 F6000.0
M101
G1 X0.99 Y-15.34 Z0.55 F6000.0
G1 X13.01 Y-15.34 Z0.55 F6000.0
G1 X13.01 Y15.34 Z0.55 F6000.0
G1 X0.99 Y15.34 Z0.55 F6000.0
G1 X0.99 Y10.74 Z0.55 F6000.0
M108 R30.0
M102
G1 X0.99 Y9.24 Z0.55 F6000.0
M108 R11.1
M103
(</perimeter>)
(</boundaryPerimeter>)
(<surroundingLoop>)
(<boundaryPerimeter>)
(<boundaryPoint> X5.897 Y11.219 Z0.55 </boundaryPoint>)
(<boundaryPoint> X5.961 Y11.431 Z0.55 </boundaryPoint>)
(<boundaryPoint> X6.065 Y11.625 Z0.55 </boundaryPoint>)
(<boundaryPoint> X6.205 Y11.796 Z0.55 </boundaryPoint>)
(<boundaryPoint> X6.375 Y11.935 Z0.55 </boundaryPoint>)
(<boundaryPoint> X6.569 Y12.039 Z0.55 </boundaryPoint>)
(<boundaryPoint> X6.781 Y12.103 Z0.55 </boundaryPoint>)
(<boundaryPoint> X7.0 Y12.125 Z0.55 </boundaryPoint>)
(<boundaryPoint> X7.219 Y12.103 Z0.55 </boundaryPoint>)
(<boundaryPoint> X7.431 Y12.039 Z0.55 </boundaryPoint>)
(<boundaryPoint> X7.625 Y11.935 Z0.55 </boundaryPoint>)
(<boundaryPoint> X7.795 Y11.796 Z0.55 </boundaryPoint>)
(<boundaryPoint> X7.935 Y11.625 Z0.55 </boundaryPoint>)
(<boundaryPoint> X8.039 Y11.431 Z0.55 </boundaryPoint>)
(<boundaryPoint> X8.103 Y11.219 Z0.55 </boundaryPoint>)
(<boundaryPoint> X8.125 Y11.0 Z0.55 </boundaryPoint>)
(<boundaryPoint> X8.103 Y10.781 Z0.55 </boundaryPoint>)
(<boundaryPoint> X8.039 Y10.569 Z0.55 </boundaryPoint>)
(<boundaryPoint> X7.935 Y10.375 Z0.55 </boundaryPoint>)
(<boundaryPoint> X7.795 Y10.204 Z0.55 </boundaryPoint>)
(<boundaryPoint> X7.625 Y10.065 Z0.55 </boundaryPoint>)
(<boundaryPoint> X7.431 Y9.961 Z0.55 </boundaryPoint>)
(<boundaryPoint> X7.219 Y9.897 Z0.55 </boundaryPoint>)
(<boundaryPoint> X7.0 Y9.875 Z0.55 </boundaryPoint>)
(<boundaryPoint> X6.781 Y9.897 Z0.55 </boundaryPoint>)
(<boundaryPoint> X6.569 Y9.961 Z0.55 </boundaryPoint>)
(<boundaryPoint> X6.375 Y10.065 Z0.55 </boundaryPoint>)
(<boundaryPoint> X6.205 Y10.204 Z0.55 </boundaryPoint>)
(<boundaryPoint> X6.065 Y10.375 Z0.55 </boundaryPoint>)
(<boundaryPoint> X5.961 Y10.569 Z0.55 </boundaryPoint>)
(<boundaryPoint> X5.897 Y10.781 Z0.55 </boundaryPoint>)
(<boundaryPoint> X5.875 Y11.0 Z0.55 </boundaryPoint>)
(<perimeter> inner )
G1 X4.17 Y10.26 Z0.55 F6000.0
M108 R30.0
M101
G1 X5.69 Y10.74 Z0.55 F6000.0
M108 R11.1
G1 X5.66 Y11.0 Z0.55 F6000.0
G1 X5.69 Y11.26 Z0.55 F6000.0
G1 X5.77 Y11.51 Z0.55 F6000.0
G1 X5.89 Y11.74 Z0.55 F6000.0
G1 X6.06 Y11.95 Z0.55 F6000.0
G1 X6.26 Y12.11 Z0.55 F6000.0
G1 X6.49 Y12.23 Z0.55 F6000.0
G1 X6.74 Y12.31 Z0.55 F6000.0
G1 X7.0 Y12.34 Z0.55 F6000.0
G1 X7.26 Y12.31 Z0.55 F6000.0
G1 X7.51 Y12.23 Z0.55 F6000.0
G1 X7.74 Y12.11 Z0.55 F6000.0
G1 X7.94 Y11.95 Z0.55 F6000.0
G1 X8.11 Y11.74 Z0.55 F6000.0
G1 X8.23 Y11.51 Z0.55 F6000.0
G1 X8.31 Y11.26 Z0.55 F6000.0
G1 X8.34 Y11.0 Z0.55 F6000.0
G1 X8.31 Y10.74 Z0.55 F6000.0
G1 X8.23 Y10.49 Z0.55 F6000.0
G1 X8.11 Y10.26 Z0.55 F6000.0
G1 X7.94 Y10.05 Z0.55 F6000.0
G1 X7.74 Y9.89 Z0.55 F6000.0
G1 X7.51 Y9.77 Z0.55 F6000.0
G1 X7.26 Y9.69 Z0.55 F6000.0
G1 X7.0 Y9.66 Z0.55 F6000.0
G1 X6.74 Y9.69 Z0.55 F6000.0
G1 X6.67 Y9.71 Z0.55 F6000.0
M108 R30.0
M102
G1 X6.49 Y9.77 Z0.55 F6000.0
G1 X6.26 Y9.89 Z0.55 F6000.0
G1 X6.06 Y10.05 Z0.55 F6000.0
G1 X5.89 Y10.26 Z0.55 F6000.0
G1 X5.77 Y10.49 Z0.55 F6000.0
G1 X5.69 Y10.74 Z0.55 F6000.0
M108 R11.1
M103
(</perimeter>)
(</boundaryPerimeter>)
(</surroundingLoop>)
(<surroundingLoop>)
(<boundaryPerimeter>)
(<boundaryPoint> X5.897 Y-10.781 Z0.55 </boundaryPoint>)
(<boundaryPoint> X5.961 Y-10.569 Z0.55 </boundaryPoint>)
(<boundaryPoint> X6.065 Y-10.375 Z0.55 </boundaryPoint>)
(<boundaryPoint> X6.205 Y-10.204 Z0.55 </boundaryPoint>)
(<boundaryPoint> X6.375 Y-10.065 Z0.55 </boundaryPoint>)
(<boundaryPoint> X6.569 Y-9.961 Z0.55 </boundaryPoint>)
(<boundaryPoint> X6.781 Y-9.897 Z0.55 </boundaryPoint>)
(<boundaryPoint> X7.0 Y-9.875 Z0.55 </boundaryPoint>)
(<boundaryPoint> X7.219 Y-9.897 Z0.55 </boundaryPoint>)
(<boundaryPoint> X7.431 Y-9.961 Z0.55 </boundaryPoint>)
(<boundaryPoint> X7.625 Y-10.065 Z0.55 </boundaryPoint>)
(<boundaryPoint> X7.795 Y-10.204 Z0.55 </boundaryPoint>)
(<boundaryPoint> X7.935 Y-10.375 Z0.55 </boundaryPoint>)
(<boundaryPoint> X8.039 Y-10.569 Z0.55 </boundaryPoint>)
(<boundaryPoint> X8.103 Y-10.781 Z0.55 </boundaryPoint>)
(<boundaryPoint> X8.125 Y-11.0 Z0.55 </boundaryPoint>)
(<boundaryPoint> X8.103 Y-11.219 Z0.55 </boundaryPoint>)
(<boundaryPoint> X8.039 Y-11.431 Z0.55 </boundaryPoint>)
(<boundaryPoint> X7.935 Y-11.625 Z0.55 </boundaryPoint>)
(<boundaryPoint> X7.795 Y-11.796 Z0.55 </boundaryPoint>)
(<boundaryPoint> X7.625 Y-11.935 Z0.55 </boundaryPoint>)
(<boundaryPoint> X7.431 Y-12.039 Z0.55 </boundaryPoint>)
(<boundaryPoint> X7.219 Y-12.103 Z0.55 </boundaryPoint>)
(<boundaryPoint> X7.0 Y-12.125 Z0.55 </boundaryPoint>)
(<boundaryPoint> X6.781 Y-12.103 Z0.55 </boundaryPoint>)
(<boundaryPoint> X6.569 Y-12.039 Z0.55 </boundaryPoint>)
(<boundaryPoint> X6.375 Y-11.935 Z0.55 </boundaryPoint>)
(<boundaryPoint> X6.205 Y-11.796 Z0.55 </boundaryPoint>)
(<boundaryPoint> X6.065 Y-11.625 Z0.55 </boundaryPoint>)
(<boundaryPoint> X5.961 Y-11.431 Z0.55 </boundaryPoint>)
(<boundaryPoint> X5.897 Y-11.219 Z0.55 </boundaryPoint>)
(<boundaryPoint> X5.875 Y-11.0 Z0.55 </boundaryPoint>)
(<perimeter> inner )
G1 X6.9 Y-8.07 Z0.55 F6000.0
M108 R30.0
M101
G1 X7.0 Y-9.66 Z0.55 F6000.0
M108 R11.1
G1 X7.26 Y-9.69 Z0.55 F6000.0
G1 X7.51 Y-9.77 Z0.55 F6000.0
G1 X7.74 Y-9.89 Z0.55 F6000.0
G1 X7.94 Y-10.05 Z0.55 F6000.0
G1 X8.11 Y-10.26 Z0.55 F6000.0
G1 X8.23 Y-10.49 Z0.55 F6000.0
G1 X8.31 Y-10.74 Z0.55 F6000.0
G1 X8.34 Y-11.0 Z0.55 F6000.0
G1 X8.31 Y-11.26 Z0.55 F6000.0
G1 X8.23 Y-11.51 Z0.55 F6000.0
G1 X8.11 Y-11.74 Z0.55 F6000.0
G1 X7.94 Y-11.95 Z0.55 F6000.0
G1 X7.74 Y-12.11 Z0.55 F6000.0
G1 X7.51 Y-12.23 Z0.55 F6000.0
G1 X7.26 Y-12.31 Z0.55 F6000.0
G1 X7.0 Y-12.34 Z0.55 F6000.0
G1 X6.74 Y-12.31 Z0.55 F6000.0
G1 X6.49 Y-12.23 Z0.55 F6000.0
G1 X6.26 Y-12.11 Z0.55 F6000.0
G1 X6.06 Y-11.95 Z0.55 F6000.0
G1 X5.89 Y-11.74 Z0.55 F6000.0
G1 X5.77 Y-11.51 Z0.55 F6000.0
G1 X5.69 Y-11.26 Z0.55 F6000.0
G1 X5.66 Y-11.0 Z0.55 F6000.0
G1 X5.69 Y-10.74 Z0.55 F6000.0
G1 X5.77 Y-10.49 Z0.55 F6000.0
G1 X5.8 Y-10.43 Z0.55 F6000.0
M108 R30.0
M102
G1 X5.89 Y-10.26 Z0.55 F6000.0
G1 X6.06 Y-10.05 Z0.55 F6000.0
G1 X6.26 Y-9.89 Z0.55 F6000.0
G1 X6.49 Y-9.77 Z0.55 F6000.0
G1 X6.74 Y-9.69 Z0.55 F6000.0
G1 X7.0 Y-9.66 Z0.55 F6000.0
M108 R11.1
M103
(</perimeter>)
(</boundaryPerimeter>)
(</surroundingLoop>)
M108 R30.0
M101
G1 X6.05 Y-9.21 Z0.55 F3926.802
M108 R11.1
G1 X1.68 Y-9.21 Z0.55 F6000.0
G1 X1.68 Y-9.63 Z0.55 F6000.0
G1 X5.51 Y-9.63 Z0.55 F6000.0
G1 X5.22 Y-10.05 Z0.55 F6000.0
G1 X1.68 Y-10.05 Z0.55 F6000.0
G1 X1.68 Y-10.47 Z0.55 F6000.0
G1 X5.05 Y-10.47 Z0.55 F6000.0
M103
G1 X4.98 Y-10.89 Z0.55 F6000.0
M101
G1 X1.68 Y-10.89 Z0.55 F6000.0
G1 X1.68 Y-11.31 Z0.55 F6000.0
G1 X5.0 Y-11.31 Z0.55 F6000.0
M103
G1 X5.11 Y-11.73 Z0.55 F6000.0
M101
G1 X1.68 Y-11.73 Z0.55 F6000.0
G1 X1.68 Y-12.15 Z0.55 F6000.0
G1 X5.33 Y-12.15 Z0.55 F6000.0
G1 X5.72 Y-12.57 Z0.55 F6000.0
G1 X3.18 Y-12.57 Z0.55 F6000.0
M108 R30.0
M102
G1 X1.68 Y-12.57 Z0.55 F6000.0
M108 R11.1
M103
G1 X1.68 Y-10.4 Z0.55 F6000.0
M108 R30.0
M101
G1 X1.68 Y-8.8 Z0.55 F6000.0
M108 R11.1
G1 X12.32 Y-8.8 Z0.55 F6000.0
G1 X12.32 Y-8.38 Z0.55 F6000.0
G1 X1.68 Y-8.38 Z0.55 F6000.0
G1 X1.68 Y-7.96 Z0.55 F6000.0
G1 X12.32 Y-7.96 Z0.55 F6000.0
G1 X12.32 Y-7.54 Z0.55 F6000.0
G1 X1.68 Y-7.54 Z0.55 F6000.0
G1 X1.68 Y-7.12 Z0.55 F6000.0
G1 X12.32 Y-7.12 Z0.55 F6000.0
G1 X12.32 Y-6.7 Z0.55 F6000.0
G1 X1.68 Y-6.7 Z0.55 F6000.0
G1 X1.68 Y-6.28 Z0.55 F6000.0
G1 X12.32 Y-6.28 Z0.55 F6000.0
G1 X12.32 Y-5.86 Z0.55 F6000.0
G1 X1.68 Y-5.86 Z0.55 F6000.0
G1 X1.68 Y-5.45 Z0.55 F6000.0
G1 X12.32 Y-5.45 Z0.55 F6000.0
G1 X12.32 Y-5.03 Z0.55 F6000.0
G1 X1.68 Y-5.03 Z0.55 F6000.0
G1 X1.68 Y-4.61 Z0.55 F6000.0
G1 X12.32 Y-4.61 Z0.55 F6000.0
G1 X12.32 Y-4.19 Z0.55 F6000.0
G1 X1.68 Y-4.19 Z0.55 F6000.0
G1 X1.68 Y-3.77 Z0.55 F6000.0
G1 X12.32 Y-3.77 Z0.55 F6000.0
G1 X12.32 Y-3.35 Z0.55 F6000.0
G1 X1.68 Y-3.35 Z0.55 F6000.0
G1 X1.68 Y-2.93 Z0.55 F6000.0
G1 X12.32 Y-2.93 Z0.55 F6000.0
G1 X12.32 Y-2.51 Z0.55 F6000.0
G1 X1.68 Y-2.51 Z0.55 F6000.0
G1 X1.68 Y-2.09 Z0.55 F6000.0
G1 X12.32 Y-2.09 Z0.55 F6000.0
G1 X12.32 Y-1.68 Z0.55 F6000.0
G1 X1.68 Y-1.68 Z0.55 F6000.0
G1 X1.68 Y-1.26 Z0.55 F6000.0
G1 X12.32 Y-1.26 Z0.55 F6000.0
G1 X12.32 Y-0.84 Z0.55 F6000.0
G1 X1.68 Y-0.84 Z0.55 F6000.0
G1 X1.68 Y-0.42 Z0.55 F6000.0
G1 X12.32 Y-0.42 Z0.55 F6000.0
G1 X12.32 Y-0.0 Z0.55 F6000.0
G1 X1.68 Y-0.0 Z0.55 F6000.0
G1 X1.68 Y0.42 Z0.55 F6000.0
G1 X12.32 Y0.42 Z0.55 F6000.0
G1 X12.32 Y0.84 Z0.55 F6000.0
G1 X1.68 Y0.84 Z0.55 F6000.0
G1 X1.68 Y1.26 Z0.55 F6000.0
G1 X12.32 Y1.26 Z0.55 F6000.0
G1 X12.32 Y1.68 Z0.55 F6000.0
G1 X1.68 Y1.68 Z0.55 F6000.0
G1 X1.68 Y2.09 Z0.55 F6000.0
G1 X12.32 Y2.09 Z0.55 F6000.0
G1 X12.32 Y2.51 Z0.55 F6000.0
G1 X1.68 Y2.51 Z0.55 F6000.0
G1 X1.68 Y2.93 Z0.55 F6000.0
G1 X12.32 Y2.93 Z0.55 F6000.0
G1 X12.32 Y3.35 Z0.55 F6000.0
G1 X1.68 Y3.35 Z0.55 F6000.0
G1 X1.68 Y3.77 Z0.55 F6000.0
G1 X12.32 Y3.77 Z0.55 F6000.0
G1 X12.32 Y4.19 Z0.55 F6000.0
G1 X1.68 Y4.19 Z0.55 F6000.0
G1 X1.68 Y4.61 Z0.55 F6000.0
G1 X12.32 Y4.61 Z0.55 F6000.0
G1 X12.32 Y5.03 Z0.55 F6000.0
G1 X1.68 Y5.03 Z0.55 F6000.0
G1 X1.68 Y5.45 Z0.55 F6000.0
G1 X12.32 Y5.45 Z0.55 F6000.0
G1 X12.32 Y5.86 Z0.55 F6000.0
G1 X1.68 Y5.86 Z0.55 F6000.0
G1 X1.68 Y6.28 Z0.55 F6000.0
G1 X12.32 Y6.28 Z0.55 F6000.0
G1 X12.32 Y6.7 Z0.55 F6000.0
G1 X1.68 Y6.7 Z0.55 F6000.0
G1 X1.68 Y7.12 Z0.55 F6000.0
G1 X12.32 Y7.12 Z0.55 F6000.0
G1 X12.32 Y7.54 Z0.55 F6000.0
G1 X1.68 Y7.54 Z0.55 F6000.0
G1 X1.68 Y7.96 Z0.55 F6000.0
G1 X12.32 Y7.96 Z0.55 F6000.0
G1 X12.32 Y8.38 Z0.55 F6000.0
G1 X1.68 Y8.38 Z0.55 F6000.0
G1 X1.68 Y8.8 Z0.55 F6000.0
G1 X12.32 Y8.8 Z0.55 F6000.0
G1 X12.32 Y9.21 Z0.55 F6000.0
G1 X7.95 Y9.21 Z0.55 F6000.0
G1 X8.49 Y9.63 Z0.55 F6000.0
G1 X12.32 Y9.63 Z0.55 F6000.0
G1 X12.32 Y10.05 Z0.55 F6000.0
G1 X8.78 Y10.05 Z0.55 F6000.0
G1 X8.95 Y10.47 Z0.55 F6000.0
G1 X12.32 Y10.47 Z0.55 F6000.0
G1 X12.32 Y10.89 Z0.55 F6000.0
G1 X9.02 Y10.89 Z0.55 F6000.0
M103
G1 X9.0 Y11.31 Z0.55 F6000.0
M101
G1 X12.32 Y11.31 Z0.55 F6000.0
G1 X12.32 Y11.73 Z0.55 F6000.0
G1 X8.89 Y11.73 Z0.55 F6000.0
M103
G1 X8.67 Y12.15 Z0.55 F6000.0
M101
G1 X12.32 Y12.15 Z0.55 F6000.0
G1 X12.32 Y12.57 Z0.55 F6000.0
G1 X8.28 Y12.57 Z0.55 F6000.0
M103
G1 X7.41 Y12.98 Z0.55 F6000.0
M101
G1 X12.32 Y12.98 Z0.55 F6000.0
G1 X12.32 Y13.4 Z0.55 F6000.0
G1 X1.68 Y13.4 Z0.55 F6000.0
G1 X1.68 Y13.82 Z0.55 F6000.0
G1 X12.32 Y13.82 Z0.55 F6000.0
G1 X12.32 Y14.24 Z0.55 F6000.0
G1 X3.18 Y14.24 Z0.55 F6000.0
M108 R30.0
M102
G1 X1.68 Y14.24 Z0.55 F6000.0
M108 R11.1
M103
M108 R30.0
M101
G1 X1.68 Y12.98 Z0.55 F4713.75
M108 R11.1
G1 X6.59 Y12.98 Z0.55 F6000.0
M103
G1 X5.72 Y12.57 Z0.55 F6000.0
M101
G1 X1.68 Y12.57 Z0.55 F6000.0
G1 X1.68 Y12.15 Z0.55 F6000.0
G1 X5.33 Y12.15 Z0.55 F6000.0
G1 X5.11 Y11.73 Z0.55 F6000.0
G1 X1.68 Y11.73 Z0.55 F6000.0
G1 X1.68 Y11.31 Z0.55 F6000.0
G1 X5.0 Y11.31 Z0.55 F6000.0
G1 X4.98 Y10.89 Z0.55 F6000.0
G1 X1.68 Y10.89 Z0.55 F6000.0
G1 X1.68 Y10.47 Z0.55 F6000.0
G1 X5.05 Y10.47 Z0.55 F6000.0
M103
G1 X5.22 Y10.05 Z0.55 F6000.0
M101
G1 X1.68 Y10.05 Z0.55 F6000.0
G1 X1.68 Y9.63 Z0.55 F6000.0
G1 X5.51 Y9.63 Z0.55 F6000.0
M103
G1 X6.05 Y9.21 Z0.55 F6000.0
M101
G1 X3.18 Y9.21 Z0.55 F6000.0
M108 R30.0
M102
G1 X1.68 Y9.21 Z0.55 F6000.0
M108 R11.1
M103
G1 X8.4 Y-8.97 Z0.55 F6000.0
M108 R30.0
M101
G1 X8.95 Y-10.47 Z0.55 F6000.0
M108 R11.1
G1 X12.32 Y-10.47 Z0.55 F6000.0
G1 X12.32 Y-10.05 Z0.55 F6000.0
G1 X8.78 Y-10.05 Z0.55 F6000.0
G1 X8.49 Y-9.63 Z0.55 F6000.0
G1 X12.32 Y-9.63 Z0.55 F6000.0
G1 X12.32 Y-9.21 Z0.55 F6000.0
G1 X9.45 Y-9.21 Z0.55 F6000.0
M108 R30.0
M102
G1 X7.95 Y-9.21 Z0.55 F6000.0
M108 R11.1
M103
G1 X11.27 Y-13.04 Z0.55 F6000.0
M108 R30.0
M101
G1 X12.32 Y-14.24 Z0.55 F6000.0
M108 R11.1
G1 X1.68 Y-14.24 Z0.55 F6000.0
G1 X1.68 Y-13.82 Z0.55 F6000.0
G1 X12.32 Y-13.82 Z0.55 F6000.0
G1 X12.32 Y-13.4 Z0.55 F6000.0
G1 X1.68 Y-13.4 Z0.55 F6000.0
G1 X1.68 Y-12.98 Z0.55 F6000.0
G1 X12.32 Y-12.98 Z0.55 F6000.0
G1 X12.32 Y-12.57 Z0.55 F6000.0
G1 X8.28 Y-12.57 Z0.55 F6000.0
G1 X8.67 Y-12.15 Z0.55 F6000.0
G1 X12.32 Y-12.15 Z0.55 F6000.0
G1 X12.32 Y-11.73 Z0.55 F6000.0
G1 X8.89 Y-11.73 Z0.55 F6000.0
G1 X9.0 Y-11.31 Z0.55 F6000.0
G1 X12.32 Y-11.31 Z0.55 F6000.0
G1 X12.32 Y-10.89 Z0.55 F6000.0
G1 X10.52 Y-10.89 Z0.55 F6000.0
M108 R30.0
M102
G1 X9.02 Y-10.89 Z0.55 F6000.0
M108 R11.1
M103
(</surroundingLoop>)
(<surroundingLoop>)
(<boundaryPerimeter>)
(<boundaryPoint> X-1.382 Y-8.382 Z0.55 </boundaryPoint>)
(<boundaryPoint> X-18.05 Y-8.382 Z0.55 </boundaryPoint>)
(<boundaryPoint> X-18.05 Y-11.05 Z0.55 </boundaryPoint>)
(<boundaryPoint> X-4.05 Y-11.05 Z0.55 </boundaryPoint>)
(<boundaryPoint> X-4.05 Y-15.55 Z0.55 </boundaryPoint>)
(<boundaryPoint> X-1.382 Y-15.55 Z0.55 </boundaryPoint>)
(<loop> outer )
G1 X7.54 Y-9.69 Z0.55 F6000.0
G1 X7.28 Y-9.61 Z0.55 F6000.0
G1 X7.0 Y-9.58 Z0.55 F6000.0
G1 X6.72 Y-9.61 Z0.55 F6000.0
G1 X6.46 Y-9.69 Z0.55 F6000.0
G1 X6.21 Y-9.82 Z0.55 F6000.0
G1 X6.0 Y-10.0 Z0.55 F6000.0
G1 X5.82 Y-10.21 Z0.55 F6000.0
G1 X5.69 Y-10.46 Z0.55 F6000.0
G1 X5.61 Y-10.72 Z0.55 F6000.0
G1 X5.59 Y-10.93 Z0.55 F6000.0
G1 X-0.41 Y-11.07 Z0.55 F6000.0
M108 R30.0
M101
G1 X-2.01 Y-11.11 Z0.55 F6000.0
M108 R11.1
G1 X-2.01 Y-10.89 Z0.55 F6000.0
G1 X-2.01 Y-9.01 Z0.55 F6000.0
G1 X-17.42 Y-9.01 Z0.55 F6000.0
G1 X-17.42 Y-10.42 Z0.55 F6000.0
G1 X-3.42 Y-10.42 Z0.55 F6000.0
G1 X-3.42 Y-14.92 Z0.55 F6000.0
G1 X-2.01 Y-14.92 Z0.55 F6000.0
G1 X-2.01 Y-11.11 Z0.55 F6000.0
M103
(</loop>)
(<perimeter> outer )
G1 X-1.59 Y-11.11 Z0.55 F6000.0
M101
G1 X-1.59 Y-10.89 Z0.55 F6000.0
G1 X-1.59 Y-8.59 Z0.55 F6000.0
G1 X-17.84 Y-8.59 Z0.55 F6000.0
G1 X-17.84 Y-10.84 Z0.55 F6000.0
G1 X-3.84 Y-10.84 Z0.55 F6000.0
G1 X-3.84 Y-15.34 Z0.55 F6000.0
G1 X-1.59 Y-15.34 Z0.55 F6000.0
G1 X-1.59 Y-11.11 Z0.55 F6000.0
M103
(</perimeter>)
(</boundaryPerimeter>)
G1 X-2.28 Y-10.89 Z0.55 F6000.0
M101
G1 X-3.15 Y-10.89 Z0.55 F6000.0
M103
G1 X-3.15 Y-11.31 Z0.55 F6000.0
M101
G1 X-2.28 Y-11.31 Z0.55 F6000.0
M103
G1 X-2.28 Y-11.73 Z0.55 F6000.0
M101
G1 X-3.15 Y-11.73 Z0.55 F6000.0
M103
G1 X-3.15 Y-12.15 Z0.55 F6000.0
M101
G1 X-2.28 Y-12.15 Z0.55 F6000.0
M103
G1 X-2.28 Y-12.57 Z0.55 F6000.0
M101
G1 X-3.15 Y-12.57 Z0.55 F6000.0
M103
G1 X-3.15 Y-12.98 Z0.55 F6000.0
M101
G1 X-2.28 Y-12.98 Z0.55 F6000.0
M103
G1 X-2.28 Y-13.4 Z0.55 F6000.0
M101
G1 X-3.15 Y-13.4 Z0.55 F6000.0
M103
G1 X-3.15 Y-13.82 Z0.55 F6000.0
M101
G1 X-2.28 Y-13.82 Z0.55 F6000.0
M103
G1 X-2.28 Y-14.24 Z0.55 F6000.0
M101
M108 R30.0
M102
G1 X-3.15 Y-14.24 Z0.55 F3464.0
M108 R11.1
M103
G1 X-3.15 Y-10.47 Z0.55 F6000.0
M101
G1 X-2.28 Y-10.47 Z0.55 F6000.0
M103
M108 R30.0
M101
G1 X-2.28 Y-9.63 Z0.55 F3142.5
M108 R11.1
G1 X-17.15 Y-9.63 Z0.55 F6000.0
G1 X-17.15 Y-10.05 Z0.55 F6000.0
G1 X-3.78 Y-10.05 Z0.55 F6000.0
M108 R30.0
M102
G1 X-2.28 Y-10.05 Z0.55 F6000.0
M108 R11.1
M103
(</surroundingLoop>)
(<surroundingLoop>)
(<boundaryPerimeter>)
(<boundaryPoint> X-1.382 Y-6.223 Z0.55 </boundaryPoint>)
(<boundaryPoint> X-1.382 Y6.223 Z0.55 </boundaryPoint>)
(<boundaryPoint> X-18.05 Y6.223 Z0.55 </boundaryPoint>)
(<boundaryPoint> X-18.05 Y-6.223 Z0.55 </boundaryPoint>)
(<loop> inner )
G1 X-7.33 Y-2.64 Z0.55 F6000.0
M108 R30.0
M101
G1 X-8.23 Y-1.32 Z0.55 F6000.0
M108 R11.1
G1 X-8.4 Y-1.46 Z0.55 F6000.0
G1 X-8.71 Y-1.62 Z0.55 F6000.0
G1 X-9.04 Y-1.72 Z0.55 F6000.0
G1 X-9.38 Y-1.76 Z0.55 F6000.0
G1 X-9.72 Y-1.72 Z0.55 F6000.0
G1 X-10.05 Y-1.62 Z0.55 F6000.0
G1 X-10.36 Y-1.46 Z0.55 F6000.0
G1 X-10.63 Y-1.24 Z0.55 F6000.0
G1 X-10.84 Y-0.98 Z0.55 F6000.0
G1 X-11.0 Y-0.67 Z0.55 F6000.0
G1 X-11.1 Y-0.34 Z0.55 F6000.0
G1 X-11.14 Y0.0 Z0.55 F6000.0
G1 X-11.1 Y0.34 Z0.55 F6000.0
G1 X-11.0 Y0.67 Z0.55 F6000.0
G1 X-10.84 Y0.98 Z0.55 F6000.0
G1 X-10.63 Y1.24 Z0.55 F6000.0
G1 X-10.36 Y1.46 Z0.55 F6000.0
G1 X-10.05 Y1.62 Z0.55 F6000.0
G1 X-9.72 Y1.72 Z0.55 F6000.0
G1 X-9.38 Y1.76 Z0.55 F6000.0
G1 X-9.04 Y1.72 Z0.55 F6000.0
G1 X-8.71 Y1.62 Z0.55 F6000.0
G1 X-8.4 Y1.46 Z0.55 F6000.0
G1 X-8.14 Y1.24 Z0.55 F6000.0
G1 X-7.92 Y0.98 Z0.55 F6000.0
G1 X-7.76 Y0.67 Z0.55 F6000.0
G1 X-7.66 Y0.34 Z0.55 F6000.0
G1 X-7.63 Y0.0 Z0.55 F6000.0
M108 R30.0
M102
G1 X-7.63 Y0.0 Z0.55 F6000.0
G1 X-7.66 Y-0.34 Z0.55 F6000.0
G1 X-7.76 Y-0.67 Z0.55 F6000.0
G1 X-7.92 Y-0.98 Z0.55 F6000.0
G1 X-8.14 Y-1.24 Z0.55 F6000.0
G1 X-8.23 Y-1.32 Z0.55 F6000.0
M108 R11.1
M103
(</loop>)
(<loop> outer )
G1 X-8.34 Y-4.0 Z0.55 F6000.0
M108 R30.0
M101
G1 X-8.4 Y-5.59 Z0.55 F6000.0
M108 R11.1
G1 X-2.01 Y-5.59 Z0.55 F6000.0
G1 X-2.01 Y5.59 Z0.55 F6000.0
G1 X-17.42 Y5.59 Z0.55 F6000.0
G1 X-17.42 Y-5.59 Z0.55 F6000.0
G1 X-8.4 Y-5.59 Z0.55 F6000.0
M103
(</loop>)
(<perimeter> outer )
G1 X-8.4 Y-6.01 Z0.55 F6000.0
M101
G1 X-1.59 Y-6.01 Z0.55 F6000.0
G1 X-1.59 Y6.01 Z0.55 F6000.0
G1 X-17.84 Y6.01 Z0.55 F6000.0
G1 X-17.84 Y-6.01 Z0.55 F6000.0
G1 X-9.9 Y-6.01 Z0.55 F6000.0
M108 R30.0
M102
G1 X-8.4 Y-6.01 Z0.55 F6000.0
M108 R11.1
M103
(</perimeter>)
(</boundaryPerimeter>)
(<surroundingLoop>)
(<boundaryPerimeter>)
(<boundaryPoint> X-10.485 Y0.219 Z0.55 </boundaryPoint>)
(<boundaryPoint> X-10.421 Y0.431 Z0.55 </boundaryPoint>)
(<boundaryPoint> X-10.317 Y0.625 Z0.55 </boundaryPoint>)
(<boundaryPoint> X-10.178 Y0.795 Z0.55 </boundaryPoint>)
(<boundaryPoint> X-10.007 Y0.935 Z0.55 </boundaryPoint>)
(<boundaryPoint> X-9.813 Y1.039 Z0.55 </boundaryPoint>)
(<boundaryPoint> X-9.601 Y1.103 Z0.55 </boundaryPoint>)
(<boundaryPoint> X-9.382 Y1.125 Z0.55 </boundaryPoint>)
(<boundaryPoint> X-9.163 Y1.103 Z0.55 </boundaryPoint>)
(<boundaryPoint> X-8.951 Y1.039 Z0.55 </boundaryPoint>)
(<boundaryPoint> X-8.757 Y0.935 Z0.55 </boundaryPoint>)
(<boundaryPoint> X-8.587 Y0.795 Z0.55 </boundaryPoint>)
(<boundaryPoint> X-8.447 Y0.625 Z0.55 </boundaryPoint>)
(<boundaryPoint> X-8.343 Y0.431 Z0.55 </boundaryPoint>)
(<boundaryPoint> X-8.279 Y0.219 Z0.55 </boundaryPoint>)
(<boundaryPoint> X-8.257 Y0.0 Z0.55 </boundaryPoint>)
(<boundaryPoint> X-8.279 Y-0.219 Z0.55 </boundaryPoint>)
(<boundaryPoint> X-8.343 Y-0.431 Z0.55 </boundaryPoint>)
(<boundaryPoint> X-8.447 Y-0.625 Z0.55 </boundaryPoint>)
(<boundaryPoint> X-8.587 Y-0.795 Z0.55 </boundaryPoint>)
(<boundaryPoint> X-8.757 Y-0.935 Z0.55 </boundaryPoint>)
(<boundaryPoint> X-8.951 Y-1.039 Z0.55 </boundaryPoint>)
(<boundaryPoint> X-9.163 Y-1.103 Z0.55 </boundaryPoint>)
(<boundaryPoint> X-9.382 Y-1.125 Z0.55 </boundaryPoint>)
(<boundaryPoint> X-9.601 Y-1.103 Z0.55 </boundaryPoint>)
(<boundaryPoint> X-9.813 Y-1.039 Z0.55 </boundaryPoint>)
(<boundaryPoint> X-10.007 Y-0.935 Z0.55 </boundaryPoint>)
(<boundaryPoint> X-10.178 Y-0.795 Z0.55 </boundaryPoint>)
(<boundaryPoint> X-10.317 Y-0.625 Z0.55 </boundaryPoint>)
(<boundaryPoint> X-10.421 Y-0.431 Z0.55 </boundaryPoint>)
(<boundaryPoint> X-10.485 Y-0.219 Z0.55 </boundaryPoint>)
(<boundaryPoint> X-10.507 Y0.0 Z0.55 </boundaryPoint>)
(<perimeter> inner )
G1 X-8.88 Y-2.89 Z0.55 F6000.0
M108 R30.0
M101
G1 X-9.12 Y-1.31 Z0.55 F6000.0
M108 R11.1
G1 X-9.38 Y-1.34 Z0.55 F6000.0
G1 X-9.64 Y-1.31 Z0.55 F6000.0
G1 X-9.89 Y-1.23 Z0.55 F6000.0
G1 X-10.12 Y-1.11 Z0.55 F6000.0
G1 X-10.33 Y-0.94 Z0.55 F6000.0
G1 X-10.49 Y-0.74 Z0.55 F6000.0
G1 X-10.62 Y-0.51 Z0.55 F6000.0
G1 X-10.69 Y-0.26 Z0.55 F6000.0
G1 X-10.72 Y0.0 Z0.55 F6000.0
G1 X-10.69 Y0.26 Z0.55 F6000.0
G1 X-10.62 Y0.51 Z0.55 F6000.0
G1 X-10.49 Y0.74 Z0.55 F6000.0
G1 X-10.33 Y0.94 Z0.55 F6000.0
G1 X-10.12 Y1.11 Z0.55 F6000.0
G1 X-9.89 Y1.23 Z0.55 F6000.0
G1 X-9.64 Y1.31 Z0.55 F6000.0
G1 X-9.38 Y1.34 Z0.55 F6000.0
G1 X-9.12 Y1.31 Z0.55 F6000.0
G1 X-8.87 Y1.23 Z0.55 F6000.0
G1 X-8.64 Y1.11 Z0.55 F6000.0
G1 X-8.44 Y0.94 Z0.55 F6000.0
G1 X-8.27 Y0.74 Z0.55 F6000.0
G1 X-8.15 Y0.51 Z0.55 F6000.0
G1 X-8.07 Y0.26 Z0.55 F6000.0
G1 X-8.05 Y0.0 Z0.55 F6000.0
G1 X-8.07 Y-0.26 Z0.55 F6000.0
G1 X-8.09 Y-0.33 Z0.55 F6000.0
M108 R30.0
M102
G1 X-8.15 Y-0.51 Z0.55 F6000.0
G1 X-8.27 Y-0.74 Z0.55 F6000.0
G1 X-8.44 Y-0.94 Z0.55 F6000.0
G1 X-8.64 Y-1.11 Z0.55 F6000.0
G1 X-8.87 Y-1.23 Z0.55 F6000.0
G1 X-9.12 Y-1.31 Z0.55 F6000.0
M108 R11.1
M103
(</perimeter>)
(</boundaryPerimeter>)
(</surroundingLoop>)
G1 X-3.88 Y-1.59 Z0.55 F6000.0
M108 R30.0
M101
G1 X-2.28 Y-1.68 Z0.55 F6000.0
M108 R11.1
G1 X-6.74 Y-1.68 Z0.55 F6000.0
M108 R30.0
M102
G1 X-8.24 Y-1.68 Z0.55 F6000.0
M108 R11.1
M103
M108 R30.0
M101
G1 X-7.4 Y-0.42 Z0.55 F5671.471
M108 R11.1
G1 X-2.28 Y-0.42 Z0.55 F6000.0
M103
G1 X-2.28 Y-0.84 Z0.55 F6000.0
M101
G1 X-7.54 Y-0.84 Z0.55 F6000.0
G1 X-7.8 Y-1.26 Z0.55 F6000.0
G1 X-3.78 Y-1.26 Z0.55 F6000.0
M108 R30.0
M102
G1 X-2.28 Y-1.26 Z0.55 F6000.0
M108 R11.1
M103
G1 X-15.55 Y-2.0 Z0.55 F6000.0
M108 R30.0
M101
G1 X-17.15 Y-2.09 Z0.55 F6000.0
M108 R11.1
G1 X-2.28 Y-2.09 Z0.55 F6000.0
M103
G1 X-2.28 Y-2.51 Z0.55 F6000.0
M101
G1 X-17.15 Y-2.51 Z0.55 F6000.0
G1 X-17.15 Y-2.93 Z0.55 F6000.0
G1 X-2.28 Y-2.93 Z0.55 F6000.0
M103
G1 X-2.28 Y-3.35 Z0.55 F6000.0
M101
G1 X-17.15 Y-3.35 Z0.55 F6000.0
G1 X-17.15 Y-3.77 Z0.55 F6000.0
G1 X-2.28 Y-3.77 Z0.55 F6000.0
M103
G1 X-2.28 Y-4.19 Z0.55 F6000.0
M101
G1 X-17.15 Y-4.19 Z0.55 F6000.0
G1 X-17.15 Y-4.61 Z0.55 F6000.0
G1 X-2.28 Y-4.61 Z0.55 F6000.0
M103
G1 X-2.28 Y-5.03 Z0.55 F6000.0
M101
G1 X-15.65 Y-5.03 Z0.55 F6000.0
M108 R30.0
M102
G1 X-17.15 Y-5.03 Z0.55 F6000.0
M108 R11.1
M103
G1 X-12.36 Y-0.29 Z0.55 F6000.0
M108 R30.0
M101
G1 X-11.22 Y0.84 Z0.55 F6000.0
M108 R11.1
G1 X-17.15 Y0.84 Z0.55 F6000.0
G1 X-17.15 Y1.26 Z0.55 F6000.0
G1 X-10.96 Y1.26 Z0.55 F6000.0
G1 X-10.52 Y1.68 Z0.55 F6000.0
G1 X-15.65 Y1.68 Z0.55 F6000.0
M108 R30.0
M102
G1 X-17.15 Y1.68 Z0.55 F6000.0
M108 R11.1
M103
G1 X-12.95 Y0.45 Z0.55 F6000.0
M108 R30.0
M101
G1 X-11.41 Y0.0 Z0.55 F6000.0
M108 R11.1
G1 X-17.15 Y0.0 Z0.55 F6000.0
G1 X-17.15 Y0.42 Z0.55 F6000.0
G1 X-12.87 Y0.42 Z0.55 F6000.0
M108 R30.0
M102
G1 X-11.37 Y0.42 Z0.55 F6000.0
M108 R11.1
M103
G1 X-11.12 Y-0.19 Z0.55 F6000.0
M108 R30.0
M101
G1 X-10.52 Y-1.68 Z0.55 F6000.0
M108 R11.1
G1 X-17.15 Y-1.68 Z0.55 F6000.0
G1 X-17.15 Y-1.26 Z0.55 F6000.0
G1 X-10.96 Y-1.26 Z0.55 F6000.0
G1 X-11.22 Y-0.84 Z0.55 F6000.0
G1 X-17.15 Y-0.84 Z0.55 F6000.0
G1 X-17.15 Y-0.42 Z0.55 F6000.0
G1 X-12.87 Y-0.42 Z0.55 F6000.0
M108 R30.0
M102
G1 X-11.37 Y-0.42 Z0.55 F6000.0
M108 R11.1
M103
G1 X-9.66 Y-1.39 Z0.55 F6000.0
G1 X-9.38 Y-1.42 Z0.55 F6000.0
G1 X-3.81 Y0.35 Z0.55 F6000.0
M108 R30.0
M101
G1 X-2.28 Y0.84 Z0.55 F6000.0
M108 R11.1
G1 X-7.54 Y0.84 Z0.55 F6000.0
M103
G1 X-7.4 Y0.42 Z0.55 F6000.0
M101
G1 X-2.28 Y0.42 Z0.55 F6000.0
M103
G1 X-2.28 Y0.0 Z0.55 F6000.0
M101
G1 X-5.85 Y0.0 Z0.55 F6000.0
M108 R30.0
M102
G1 X-7.35 Y0.0 Z0.55 F6000.0
M108 R11.1
M103
G1 X-3.8 Y1.17 Z0.55 F6000.0
M108 R30.0
M101
G1 X-2.28 Y1.68 Z0.55 F6000.0
M108 R11.1
G1 X-8.24 Y1.68 Z0.55 F6000.0
G1 X-7.8 Y1.26 Z0.55 F6000.0
G1 X-3.78 Y1.26 Z0.55 F6000.0
M108 R30.0
M102
G1 X-2.28 Y1.26 Z0.55 F6000.0
M108 R11.1
M103
M108 R30.0
M101
G1 X-2.28 Y2.51 Z0.55 F4710.0
M108 R11.1
G1 X-17.15 Y2.51 Z0.55 F6000.0
G1 X-17.15 Y2.09 Z0.55 F6000.0
G1 X-3.78 Y2.09 Z0.55 F6000.0
M108 R30.0
M102
G1 X-2.28 Y2.09 Z0.55 F6000.0
M108 R11.1
M103
M108 R30.0
M101
G1 X-2.28 Y3.35 Z0.55 F4713.75
M108 R11.1
G1 X-17.15 Y3.35 Z0.55 F6000.0
G1 X-17.15 Y2.93 Z0.55 F6000.0
G1 X-3.78 Y2.93 Z0.55 F6000.0
M108 R30.0
M102
G1 X-2.28 Y2.93 Z0.55 F6000.0
M108 R11.1
M103
M108 R30.0
M101
G1 X-2.28 Y4.19 Z0.55 F4713.75
M108 R11.1
G1 X-17.15 Y4.19 Z0.55 F6000.0
G1 X-17.15 Y3.77 Z0.55 F6000.0
G1 X-3.78 Y3.77 Z0.55 F6000.0
M108 R30.0
M102
G1 X-2.28 Y3.77 Z0.55 F6000.0
M108 R11.1
M103
M108 R30.0
M101
G1 X-2.28 Y5.03 Z0.55 F4713.75
M108 R11.1
G1 X-17.15 Y5.03 Z0.55 F6000.0
G1 X-17.15 Y4.61 Z0.55 F6000.0
G1 X-3.78 Y4.61 Z0.55 F6000.0
M108 R30.0
M102
G1 X-2.28 Y4.61 Z0.55 F6000.0
M108 R11.1
M103
(</surroundingLoop>)
(<surroundingLoop>)
(<boundaryPerimeter>)
(<boundaryPoint> X-4.05 Y11.05 Z0.55 </boundaryPoint>)
(<boundaryPoint> X-18.05 Y11.05 Z0.55 </boundaryPoint>)
(<boundaryPoint> X-18.05 Y8.382 Z0.55 </boundaryPoint>)
(<boundaryPoint> X-1.382 Y8.382 Z0.55 </boundaryPoint>)
(<boundaryPoint> X-1.382 Y15.55 Z0.55 </boundaryPoint>)
(<boundaryPoint> X-4.05 Y15.55 Z0.55 </boundaryPoint>)
(<loop> outer )
G1 X-2.42 Y7.41 Z0.55 F6000.0
M108 R30.0
M101
G1 X-2.5 Y9.01 Z0.55 F6000.0
M108 R11.1
G1 X-2.28 Y9.01 Z0.55 F6000.0
G1 X-2.01 Y9.01 Z0.55 F6000.0
G1 X-2.01 Y14.92 Z0.55 F6000.0
G1 X-3.42 Y14.92 Z0.55 F6000.0
G1 X-3.42 Y10.42 Z0.55 F6000.0
G1 X-17.42 Y10.42 Z0.55 F6000.0
G1 X-17.42 Y9.01 Z0.55 F6000.0
G1 X-2.5 Y9.01 Z0.55 F6000.0
M103
(</loop>)
(<perimeter> outer )
G1 X-2.5 Y8.59 Z0.55 F6000.0
M101
G1 X-2.28 Y8.59 Z0.55 F6000.0
G1 X-1.59 Y8.59 Z0.55 F6000.0
G1 X-1.59 Y15.34 Z0.55 F6000.0
G1 X-3.84 Y15.34 Z0.55 F6000.0
G1 X-3.84 Y10.84 Z0.55 F6000.0
G1 X-17.84 Y10.84 Z0.55 F6000.0
G1 X-17.84 Y8.59 Z0.55 F6000.0
G1 X-4.0 Y8.59 Z0.55 F6000.0
M108 R30.0
M102
G1 X-2.5 Y8.59 Z0.55 F6000.0
M108 R11.1
M103
(</perimeter>)
(</boundaryPerimeter>)
M108 R30.0
M101
G1 X-2.28 Y9.63 Z0.55 F3998.087
M108 R11.1
G1 X-17.15 Y9.63 Z0.55 F6000.0
G1 X-17.15 Y10.05 Z0.55 F6000.0
G1 X-2.28 Y10.05 Z0.55 F6000.0
M103
G1 X-2.28 Y10.47 Z0.55 F6000.0
M101
G1 X-3.15 Y10.47 Z0.55 F6000.0
M103
G1 X-3.15 Y10.89 Z0.55 F6000.0
M101
G1 X-2.28 Y10.89 Z0.55 F6000.0
M103
G1 X-2.28 Y11.31 Z0.55 F6000.0
M101
G1 X-3.15 Y11.31 Z0.55 F6000.0
M103
G1 X-3.15 Y11.73 Z0.55 F6000.0
M101
G1 X-2.28 Y11.73 Z0.55 F6000.0
M103
G1 X-2.28 Y12.15 Z0.55 F6000.0
M101
G1 X-3.15 Y12.15 Z0.55 F6000.0
M103
G1 X-3.15 Y12.57 Z0.55 F6000.0
M101
G1 X-2.28 Y12.57 Z0.55 F6000.0
M103
G1 X-2.28 Y12.98 Z0.55 F6000.0
M101
G1 X-3.15 Y12.98 Z0.55 F6000.0
M103
G1 X-3.15 Y13.4 Z0.55 F6000.0
M101
G1 X-2.28 Y13.4 Z0.55 F6000.0
M103
G1 X-2.28 Y13.82 Z0.55 F6000.0
M101
G1 X-3.15 Y13.82 Z0.55 F6000.0
M103
G1 X-3.15 Y14.24 Z0.55 F6000.0
M101
G1 X-2.28 Y14.24 Z0.55 F6000.0
M103
(</surroundingLoop>)
(</layer>)
(<operatingLayerEnd> </operatingLayerEnd>)
(<layer> 0.85 )
(<surroundingLoop>)
(<boundaryPerimeter>)
(<boundaryPoint> X-4.05 Y11.05 Z0.85 </boundaryPoint>)
(<boundaryPoint> X-18.05 Y11.05 Z0.85 </boundaryPoint>)
(<boundaryPoint> X-18.05 Y8.382 Z0.85 </boundaryPoint>)
(<boundaryPoint> X-1.382 Y8.382 Z0.85 </boundaryPoint>)
(<boundaryPoint> X-1.382 Y15.55 Z0.85 </boundaryPoint>)
(<boundaryPoint> X-4.05 Y15.55 Z0.85 </boundaryPoint>)
(<loop> outer )
G1 X-2.01 Y14.54 Z0.85 F6000.0
M101
G1 X-2.01 Y14.92 Z0.85 F6000.0
G1 X-3.42 Y14.92 Z0.85 F6000.0
G1 X-3.42 Y10.42 Z0.85 F6000.0
G1 X-17.42 Y10.42 Z0.85 F6000.0
G1 X-17.42 Y9.01 Z0.85 F6000.0
G1 X-2.01 Y9.01 Z0.85 F6000.0
G1 X-2.01 Y14.24 Z0.85 F6000.0
G1 X-2.01 Y14.54 Z0.85 F6000.0
M103
(</loop>)
(<perimeter> outer )
G1 X-1.59 Y14.54 Z0.85 F6000.0
M101
G1 X-1.59 Y15.34 Z0.85 F6000.0
G1 X-3.84 Y15.34 Z0.85 F6000.0
G1 X-3.84 Y10.84 Z0.85 F6000.0
G1 X-17.84 Y10.84 Z0.85 F6000.0
G1 X-17.84 Y8.59 Z0.85 F6000.0
G1 X-1.59 Y8.59 Z0.85 F6000.0
G1 X-1.59 Y13.04 Z0.85 F6000.0
M108 R30.0
M102
G1 X-1.59 Y14.24 Z0.85 F6000.0
G1 X-1.59 Y14.54 Z0.85 F6000.0
M108 R11.1
M103
(</perimeter>)
(</boundaryPerimeter>)
M108 R30.0
M101
G1 X-2.79 Y14.65 Z0.85 F4522.601
M108 R11.1
G1 X-2.33 Y14.65 Z0.85 F6000.0
G1 X-2.33 Y10.78 Z0.85 F6000.0
M108 R30.0
M102
G1 X-2.33 Y9.28 Z0.85 F6000.0
M108 R11.1
M103
G1 X-3.05 Y9.28 Z0.85 F6000.0
M108 R30.0
M101
G1 X-4.65 Y9.28 Z0.85 F6000.0
M108 R11.1
G1 X-4.19 Y9.75 Z0.85 F6000.0
G1 X-3.72 Y9.28 Z0.85 F6000.0
G1 X-3.26 Y9.75 Z0.85 F6000.0
G1 X-3.26 Y10.15 Z0.85 F6000.0
G1 X-5.58 Y10.15 Z0.85 F6000.0
G1 X-5.58 Y9.68 Z0.85 F6000.0
G1 X-6.05 Y9.28 Z0.85 F6000.0
G1 X-6.05 Y10.15 Z0.85 F6000.0
G1 X-7.47 Y10.15 Z0.85 F6000.0
M108 R30.0
M102
G1 X-7.91 Y10.15 Z0.85 F6000.0
G1 X-7.91 Y9.75 Z0.85 F6000.0
G1 X-7.45 Y9.28 Z0.85 F6000.0
M108 R11.1
M103
G1 X-9.11 Y9.28 Z0.85 F6000.0
M108 R30.0
M101
G1 X-10.71 Y9.28 Z0.85 F6000.0
M108 R11.1
G1 X-10.24 Y9.75 Z0.85 F6000.0
G1 X-9.77 Y9.28 Z0.85 F6000.0
G1 X-9.31 Y9.75 Z0.85 F6000.0
G1 X-8.84 Y9.28 Z0.85 F6000.0
G1 X-8.38 Y9.75 Z0.85 F6000.0
G1 X-8.38 Y10.15 Z0.85 F6000.0
G1 X-11.64 Y10.15 Z0.85 F6000.0
G1 X-11.69 Y9.93 Z0.85 F6000.0
G1 X-11.64 Y9.28 Z0.85 F6000.0
G1 X-12.1 Y9.75 Z0.85 F6000.0
G1 X-12.57 Y9.28 Z0.85 F6000.0
G1 X-12.57 Y10.15 Z0.85 F6000.0
G1 X-13.33 Y10.15 Z0.85 F6000.0
M108 R30.0
M102
G1 X-13.96 Y10.15 Z0.85 F6000.0
G1 X-13.96 Y9.28 Z0.85 F6000.0
M108 R11.1
M103
G1 X-15.15 Y9.28 Z0.85 F6000.0
M108 R30.0
M101
G1 X-16.75 Y9.28 Z0.85 F6000.0
M108 R11.1
G1 X-16.75 Y10.15 Z0.85 F6000.0
G1 X-14.43 Y10.15 Z0.85 F6000.0
G1 X-14.43 Y9.75 Z0.85 F6000.0
G1 X-14.76 Y9.41 Z0.85 F6000.0
M108 R30.0
M102
G1 X-14.89 Y9.28 Z0.85 F6000.0
G1 X-15.36 Y9.75 Z0.85 F6000.0
G1 X-15.82 Y9.28 Z0.85 F6000.0
M108 R11.1
M103
(</surroundingLoop>)
(<surroundingLoop>)
(<boundaryPerimeter>)
(<boundaryPoint> X-1.382 Y-6.223 Z0.85 </boundaryPoint>)
(<boundaryPoint> X-1.382 Y6.223 Z0.85 </boundaryPoint>)
(<boundaryPoint> X-18.05 Y6.223 Z0.85 </boundaryPoint>)
(<boundaryPoint> X-18.05 Y-6.223 Z0.85 </boundaryPoint>)
(<loop> inner )
G1 X-11.05 Y2.88 Z0.85 F6000.0
M108 R30.0
M101
G1 X-10.1 Y1.6 Z0.85 F6000.0
M108 R11.1
G1 X-10.05 Y1.62 Z0.85 F6000.0
G1 X-9.72 Y1.72 Z0.85 F6000.0
G1 X-9.38 Y1.76 Z0.85 F6000.0
G1 X-9.04 Y1.72 Z0.85 F6000.0
G1 X-8.71 Y1.62 Z0.85 F6000.0
G1 X-8.4 Y1.46 Z0.85 F6000.0
G1 X-8.14 Y1.24 Z0.85 F6000.0
G1 X-7.92 Y0.98 Z0.85 F6000.0
G1 X-7.76 Y0.67 Z0.85 F6000.0
G1 X-7.66 Y0.34 Z0.85 F6000.0
G1 X-7.63 Y0.0 Z0.85 F6000.0
G1 X-7.66 Y-0.34 Z0.85 F6000.0
G1 X-7.76 Y-0.67 Z0.85 F6000.0
G1 X-7.92 Y-0.98 Z0.85 F6000.0
G1 X-8.14 Y-1.24 Z0.85 F6000.0
G1 X-8.4 Y-1.46 Z0.85 F6000.0
G1 X-8.71 Y-1.62 Z0.85 F6000.0
G1 X-9.04 Y-1.72 Z0.85 F6000.0
G1 X-9.38 Y-1.76 Z0.85 F6000.0
G1 X-9.72 Y-1.72 Z0.85 F6000.0
G1 X-10.05 Y-1.62 Z0.85 F6000.0
G1 X-10.36 Y-1.46 Z0.85 F6000.0
G1 X-10.63 Y-1.24 Z0.85 F6000.0
G1 X-10.84 Y-0.98 Z0.85 F6000.0
G1 X-11.0 Y-0.67 Z0.85 F6000.0
G1 X-11.1 Y-0.34 Z0.85 F6000.0
G1 X-11.14 Y0.0 Z0.85 F6000.0
G1 X-11.1 Y0.34 Z0.85 F6000.0
G1 X-11.05 Y0.51 Z0.85 F6000.0
M108 R30.0
M102
G1 X-11.0 Y0.67 Z0.85 F6000.0
G1 X-10.84 Y0.98 Z0.85 F6000.0
G1 X-10.63 Y1.24 Z0.85 F6000.0
G1 X-10.36 Y1.46 Z0.85 F6000.0
G1 X-10.1 Y1.6 Z0.85 F6000.0
M108 R11.1
M103
(</loop>)
(<loop> outer )
G1 X-10.1 Y4.0 Z0.85 F6000.0
M108 R30.0
M101
G1 X-10.1 Y5.59 Z0.85 F6000.0
M108 R11.1
G1 X-10.36 Y5.59 Z0.85 F6000.0
G1 X-17.42 Y5.59 Z0.85 F6000.0
G1 X-17.42 Y-5.59 Z0.85 F6000.0
G1 X-2.01 Y-5.59 Z0.85 F6000.0
G1 X-2.01 Y5.59 Z0.85 F6000.0
G1 X-10.1 Y5.59 Z0.85 F6000.0
M103
(</loop>)
(<perimeter> outer )
G1 X-10.1 Y6.01 Z0.85 F6000.0
M101
G1 X-10.36 Y6.01 Z0.85 F6000.0
G1 X-17.84 Y6.01 Z0.85 F6000.0
G1 X-17.84 Y-6.01 Z0.85 F6000.0
G1 X-1.59 Y-6.01 Z0.85 F6000.0
G1 X-1.59 Y6.01 Z0.85 F6000.0
G1 X-8.6 Y6.01 Z0.85 F6000.0
M108 R30.0
M102
G1 X-10.1 Y6.01 Z0.85 F6000.0
M108 R11.1
M103
(</perimeter>)
(</boundaryPerimeter>)
(<surroundingLoop>)
(<boundaryPerimeter>)
(<boundaryPoint> X-10.485 Y0.219 Z0.85 </boundaryPoint>)
(<boundaryPoint> X-10.421 Y0.431 Z0.85 </boundaryPoint>)
(<boundaryPoint> X-10.317 Y0.625 Z0.85 </boundaryPoint>)
(<boundaryPoint> X-10.178 Y0.795 Z0.85 </boundaryPoint>)
(<boundaryPoint> X-10.007 Y0.935 Z0.85 </boundaryPoint>)
(<boundaryPoint> X-9.813 Y1.039 Z0.85 </boundaryPoint>)
(<boundaryPoint> X-9.601 Y1.103 Z0.85 </boundaryPoint>)
(<boundaryPoint> X-9.382 Y1.125 Z0.85 </boundaryPoint>)
(<boundaryPoint> X-9.163 Y1.103 Z0.85 </boundaryPoint>)
(<boundaryPoint> X-8.951 Y1.039 Z0.85 </boundaryPoint>)
(<boundaryPoint> X-8.757 Y0.935 Z0.85 </boundaryPoint>)
(<boundaryPoint> X-8.587 Y0.795 Z0.85 </boundaryPoint>)
(<boundaryPoint> X-8.447 Y0.625 Z0.85 </boundaryPoint>)
(<boundaryPoint> X-8.343 Y0.431 Z0.85 </boundaryPoint>)
(<boundaryPoint> X-8.279 Y0.219 Z0.85 </boundaryPoint>)
(<boundaryPoint> X-8.257 Y0.0 Z0.85 </boundaryPoint>)
(<boundaryPoint> X-8.279 Y-0.219 Z0.85 </boundaryPoint>)
(<boundaryPoint> X-8.343 Y-0.431 Z0.85 </boundaryPoint>)
(<boundaryPoint> X-8.447 Y-0.625 Z0.85 </boundaryPoint>)
(<boundaryPoint> X-8.587 Y-0.795 Z0.85 </boundaryPoint>)
(<boundaryPoint> X-8.757 Y-0.935 Z0.85 </boundaryPoint>)
(<boundaryPoint> X-8.951 Y-1.039 Z0.85 </boundaryPoint>)
(<boundaryPoint> X-9.163 Y-1.103 Z0.85 </boundaryPoint>)
(<boundaryPoint> X-9.382 Y-1.125 Z0.85 </boundaryPoint>)
(<boundaryPoint> X-9.601 Y-1.103 Z0.85 </boundaryPoint>)
(<boundaryPoint> X-9.813 Y-1.039 Z0.85 </boundaryPoint>)
(<boundaryPoint> X-10.007 Y-0.935 Z0.85 </boundaryPoint>)
(<boundaryPoint> X-10.178 Y-0.795 Z0.85 </boundaryPoint>)
(<boundaryPoint> X-10.317 Y-0.625 Z0.85 </boundaryPoint>)
(<boundaryPoint> X-10.421 Y-0.431 Z0.85 </boundaryPoint>)
(<boundaryPoint> X-10.485 Y-0.219 Z0.85 </boundaryPoint>)
(<boundaryPoint> X-10.507 Y0.0 Z0.85 </boundaryPoint>)
(<perimeter> inner )
G1 X-9.8 Y2.9 Z0.85 F6000.0
M108 R30.0
M101
G1 X-9.64 Y1.31 Z0.85 F6000.0
M108 R11.1
G1 X-9.38 Y1.34 Z0.85 F6000.0
G1 X-9.12 Y1.31 Z0.85 F6000.0
G1 X-8.87 Y1.23 Z0.85 F6000.0
G1 X-8.64 Y1.11 Z0.85 F6000.0
G1 X-8.44 Y0.94 Z0.85 F6000.0
G1 X-8.27 Y0.74 Z0.85 F6000.0
G1 X-8.15 Y0.51 Z0.85 F6000.0
G1 X-8.07 Y0.26 Z0.85 F6000.0
G1 X-8.05 Y0.0 Z0.85 F6000.0
G1 X-8.07 Y-0.26 Z0.85 F6000.0
G1 X-8.15 Y-0.51 Z0.85 F6000.0
G1 X-8.27 Y-0.74 Z0.85 F6000.0
G1 X-8.44 Y-0.94 Z0.85 F6000.0
G1 X-8.64 Y-1.11 Z0.85 F6000.0
G1 X-8.87 Y-1.23 Z0.85 F6000.0
G1 X-9.12 Y-1.31 Z0.85 F6000.0
G1 X-9.38 Y-1.34 Z0.85 F6000.0
G1 X-9.64 Y-1.31 Z0.85 F6000.0
G1 X-9.89 Y-1.23 Z0.85 F6000.0
G1 X-10.12 Y-1.11 Z0.85 F6000.0
G1 X-10.33 Y-0.94 Z0.85 F6000.0
G1 X-10.49 Y-0.74 Z0.85 F6000.0
G1 X-10.62 Y-0.51 Z0.85 F6000.0
G1 X-10.69 Y-0.26 Z0.85 F6000.0
G1 X-10.72 Y0.0 Z0.85 F6000.0
G1 X-10.69 Y0.26 Z0.85 F6000.0
G1 X-10.67 Y0.33 Z0.85 F6000.0
M108 R30.0
M102
G1 X-10.62 Y0.51 Z0.85 F6000.0
G1 X-10.49 Y0.74 Z0.85 F6000.0
G1 X-10.33 Y0.94 Z0.85 F6000.0
G1 X-10.12 Y1.11 Z0.85 F6000.0
G1 X-9.89 Y1.23 Z0.85 F6000.0
G1 X-9.64 Y1.31 Z0.85 F6000.0
M108 R11.1
M103
(</perimeter>)
(</boundaryPerimeter>)
(</surroundingLoop>)
M108 R30.0
M101
G1 X-11.17 Y0.94 Z0.85 F5894.715
M108 R11.1
G1 X-10.71 Y1.53 Z0.85 F6000.0
G1 X-10.24 Y1.83 Z0.85 F6000.0
G1 X-9.92 Y2.43 Z0.85 F6000.0
G1 X-10.74 Y4.52 Z0.85 F6000.0
G1 X-10.71 Y5.32 Z0.85 F6000.0
G1 X-9.88 Y5.32 Z0.85 F6000.0
M108 R30.0
M102
G1 X-8.38 Y5.32 Z0.85 F6000.0
M108 R11.1
M103
G1 X-7.75 Y2.15 Z0.85 F6000.0
M108 R30.0
M101
G1 X-7.45 Y0.58 Z0.85 F6000.0
M108 R11.1
G1 X-7.58 Y1.07 Z0.85 F6000.0
G1 X-7.91 Y1.39 Z0.85 F6000.0
G1 X-7.76 Y1.55 Z0.85 F6000.0
G1 X-8.38 Y1.75 Z0.85 F6000.0
G1 X-8.68 Y2.38 Z0.85 F6000.0
G1 X-7.91 Y5.32 Z0.85 F6000.0
G1 X-5.58 Y5.32 Z0.85 F6000.0
G1 X-7.45 Y-0.58 Z0.85 F6000.0
G1 X-7.63 Y-4.79 Z0.85 F6000.0
G1 X-7.91 Y-5.32 Z0.85 F6000.0
G1 X-3.26 Y-5.32 Z0.85 F6000.0
G1 X-4.65 Y-1.69 Z0.85 F6000.0
G1 X-4.65 Y4.79 Z0.85 F6000.0
G1 X-5.12 Y5.32 Z0.85 F6000.0
G1 X-2.33 Y5.32 Z0.85 F6000.0
G1 X-2.33 Y-4.29 Z0.85 F6000.0
M108 R30.0
M102
G1 X-2.33 Y-5.32 Z0.85 F6000.0
G1 X-2.79 Y-5.32 Z0.85 F6000.0
M108 R11.1
M103
G1 X-12.83 Y-5.32 Z0.85 F6000.0
M108 R30.0
M101
G1 X-14.43 Y-5.32 Z0.85 F6000.0
M108 R11.1
G1 X-16.75 Y-5.32 Z0.85 F6000.0
G1 X-16.75 Y5.32 Z0.85 F6000.0
G1 X-11.17 Y5.32 Z0.85 F6000.0
G1 X-10.98 Y4.79 Z0.85 F6000.0
G1 X-10.98 Y4.52 Z0.85 F6000.0
G1 X-13.96 Y1.69 Z0.85 F6000.0
G1 X-13.96 Y-5.32 Z0.85 F6000.0
G1 X-8.38 Y-5.32 Z0.85 F6000.0
G1 X-7.88 Y-4.79 Z0.85 F6000.0
G1 X-7.88 Y-4.52 Z0.85 F6000.0
G1 X-8.77 Y-2.41 Z0.85 F6000.0
G1 X-9.31 Y-2.02 Z0.85 F6000.0
G1 X-9.92 Y-2.43 Z0.85 F6000.0
G1 X-10.15 Y-2.0 Z0.85 F6000.0
M108 R30.0
M102
G1 X-10.24 Y-1.83 Z0.85 F6000.0
G1 X-10.71 Y-1.53 Z0.85 F6000.0
G1 X-11.17 Y-0.94 Z0.85 F6000.0
M108 R11.1
M103
(</surroundingLoop>)
(<surroundingLoop>)
(<boundaryPerimeter>)
(<boundaryPoint> X-1.382 Y-8.382 Z0.85 </boundaryPoint>)
(<boundaryPoint> X-18.05 Y-8.382 Z0.85 </boundaryPoint>)
(<boundaryPoint> X-18.05 Y-11.05 Z0.85 </boundaryPoint>)
(<boundaryPoint> X-4.05 Y-11.05 Z0.85 </boundaryPoint>)
(<boundaryPoint> X-4.05 Y-15.55 Z0.85 </boundaryPoint>)
(<boundaryPoint> X-1.382 Y-15.55 Z0.85 </boundaryPoint>)
(<loop> outer )
G1 X-11.41 Y-7.41 Z0.85 F6000.0
M108 R30.0
M101
G1 X-11.47 Y-9.01 Z0.85 F6000.0
M108 R11.1
G1 X-17.42 Y-9.01 Z0.85 F6000.0
G1 X-17.42 Y-10.42 Z0.85 F6000.0
G1 X-3.42 Y-10.42 Z0.85 F6000.0
G1 X-3.42 Y-14.92 Z0.85 F6000.0
G1 X-2.01 Y-14.92 Z0.85 F6000.0
G1 X-2.01 Y-9.01 Z0.85 F6000.0
G1 X-11.17 Y-9.01 Z0.85 F6000.0
G1 X-11.47 Y-9.01 Z0.85 F6000.0
M103
(</loop>)
(<perimeter> outer )
G1 X-11.47 Y-8.59 Z0.85 F6000.0
M101
G1 X-17.84 Y-8.59 Z0.85 F6000.0
G1 X-17.84 Y-10.84 Z0.85 F6000.0
G1 X-3.84 Y-10.84 Z0.85 F6000.0
G1 X-3.84 Y-15.34 Z0.85 F6000.0
G1 X-1.59 Y-15.34 Z0.85 F6000.0
G1 X-1.59 Y-8.59 Z0.85 F6000.0
G1 X-9.97 Y-8.59 Z0.85 F6000.0
M108 R30.0
M102
G1 X-11.17 Y-8.59 Z0.85 F6000.0
G1 X-11.47 Y-8.59 Z0.85 F6000.0
M108 R11.1
M103
(</perimeter>)
(</boundaryPerimeter>)
M108 R30.0
M101
G1 X-10.71 Y-9.28 Z0.85 F3859.965
M108 R11.1
G1 X-10.24 Y-9.75 Z0.85 F6000.0
G1 X-9.77 Y-9.75 Z0.85 F6000.0
G1 X-9.31 Y-9.28 Z0.85 F6000.0
G1 X-8.84 Y-9.75 Z0.85 F6000.0
G1 X-8.84 Y-10.15 Z0.85 F6000.0
G1 X-11.17 Y-10.15 Z0.85 F6000.0
G1 X-11.17 Y-9.75 Z0.85 F6000.0
G1 X-11.64 Y-9.28 Z0.85 F6000.0
G1 X-11.69 Y-9.5 Z0.85 F6000.0
G1 X-11.64 Y-10.15 Z0.85 F6000.0
G1 X-12.57 Y-10.15 Z0.85 F6000.0
G1 X-12.57 Y-9.75 Z0.85 F6000.0
G1 X-13.03 Y-9.28 Z0.85 F6000.0
G1 X-13.03 Y-10.15 Z0.85 F6000.0
G1 X-13.33 Y-10.15 Z0.85 F6000.0
M108 R30.0
M102
G1 X-13.96 Y-10.15 Z0.85 F6000.0
G1 X-13.96 Y-9.28 Z0.85 F6000.0
M108 R11.1
M103
G1 X-15.15 Y-9.28 Z0.85 F6000.0
M108 R30.0
M101
G1 X-16.75 Y-9.28 Z0.85 F6000.0
M108 R11.1
G1 X-16.75 Y-10.15 Z0.85 F6000.0
G1 X-14.66 Y-10.15 Z0.85 F6000.0
M108 R30.0
M102
G1 X-14.43 Y-10.15 Z0.85 F6000.0
G1 X-15.36 Y-9.28 Z0.85 F6000.0
M108 R11.1
M103
G1 X-6.25 Y-9.28 Z0.85 F6000.0
M108 R30.0
M101
G1 X-4.65 Y-9.28 Z0.85 F6000.0
M108 R11.1
G1 X-4.19 Y-9.75 Z0.85 F6000.0
G1 X-3.72 Y-9.75 Z0.85 F6000.0
G1 X-3.26 Y-9.28 Z0.85 F6000.0
G1 X-2.79 Y-9.75 Z0.85 F6000.0
G1 X-3.26 Y-10.15 Z0.85 F6000.0
G1 X-6.05 Y-10.15 Z0.85 F6000.0
G1 X-6.05 Y-9.75 Z0.85 F6000.0
G1 X-6.52 Y-9.28 Z0.85 F6000.0
G1 X-6.52 Y-10.15 Z0.85 F6000.0
G1 X-7.45 Y-10.15 Z0.85 F6000.0
G1 X-7.45 Y-9.28 Z0.85 F6000.0
G1 X-7.46 Y-9.3 Z0.85 F6000.0
M108 R30.0
M102
G1 X-7.91 Y-9.75 Z0.85 F6000.0
G1 X-7.91 Y-10.15 Z0.85 F6000.0
G1 X-8.38 Y-10.15 Z0.85 F6000.0
M108 R11.1
M103
G1 X-7.26 Y-10.76 Z0.85 F6000.0
G1 X-3.9 Y-10.9 Z0.85 F6000.0
G1 X-3.77 Y-13.44 Z0.85 F6000.0
M108 R30.0
M101
G1 X-3.76 Y-13.64 Z0.85 F6000.0
G1 X-2.79 Y-14.65 Z0.85 F6000.0
M108 R11.1
G1 X-2.33 Y-14.65 Z0.85 F6000.0
G1 X-2.33 Y-10.78 Z0.85 F6000.0
M108 R30.0
M102
G1 X-2.33 Y-9.28 Z0.85 F6000.0
M108 R11.1
M103
(</surroundingLoop>)
(<surroundingLoop>)
(<boundaryPerimeter>)
(<boundaryPoint> X0.777 Y-15.55 Z0.85 </boundaryPoint>)
(<boundaryPoint> X13.223 Y-15.55 Z0.85 </boundaryPoint>)
(<boundaryPoint> X13.223 Y15.55 Z0.85 </boundaryPoint>)
(<boundaryPoint> X0.777 Y15.55 Z0.85 </boundaryPoint>)
(<loop> inner )
G1 X3.78 Y-10.15 Z0.85 F6000.0
M108 R30.0
M101
G1 X5.36 Y-10.37 Z0.85 F6000.0
M108 R11.1
G1 X5.38 Y-10.33 Z0.85 F6000.0
G1 X5.54 Y-10.02 Z0.85 F6000.0
G1 X5.76 Y-9.76 Z0.85 F6000.0
G1 X6.02 Y-9.54 Z0.85 F6000.0
G1 X6.33 Y-9.38 Z0.85 F6000.0
G1 X6.66 Y-9.28 Z0.85 F6000.0
G1 X7.0 Y-9.24 Z0.85 F6000.0
G1 X7.34 Y-9.28 Z0.85 F6000.0
G1 X7.67 Y-9.38 Z0.85 F6000.0
G1 X7.98 Y-9.54 Z0.85 F6000.0
G1 X8.24 Y-9.76 Z0.85 F6000.0
G1 X8.46 Y-10.02 Z0.85 F6000.0
G1 X8.62 Y-10.33 Z0.85 F6000.0
G1 X8.72 Y-10.66 Z0.85 F6000.0
G1 X8.76 Y-11.0 Z0.85 F6000.0
G1 X8.72 Y-11.34 Z0.85 F6000.0
G1 X8.62 Y-11.67 Z0.85 F6000.0
G1 X8.46 Y-11.98 Z0.85 F6000.0
G1 X8.24 Y-12.24 Z0.85 F6000.0
G1 X7.98 Y-12.46 Z0.85 F6000.0
G1 X7.67 Y-12.62 Z0.85 F6000.0
G1 X7.34 Y-12.72 Z0.85 F6000.0
G1 X7.0 Y-12.76 Z0.85 F6000.0
G1 X6.66 Y-12.72 Z0.85 F6000.0
G1 X6.33 Y-12.62 Z0.85 F6000.0
G1 X6.02 Y-12.46 Z0.85 F6000.0
G1 X5.76 Y-12.24 Z0.85 F6000.0
G1 X5.54 Y-11.98 Z0.85 F6000.0
G1 X5.46 Y-11.82 Z0.85 F6000.0
M108 R30.0
M102
G1 X5.38 Y-11.67 Z0.85 F6000.0
G1 X5.28 Y-11.34 Z0.85 F6000.0
G1 X5.24 Y-11.0 Z0.85 F6000.0
G1 X5.28 Y-10.66 Z0.85 F6000.0
G1 X5.36 Y-10.37 Z0.85 F6000.0
M108 R11.1
M103
(</loop>)
(<loop> inner )
G1 X6.87 Y7.65 Z0.85 F6000.0
M108 R30.0
M101
G1 X7.0 Y9.24 Z0.85 F6000.0
M108 R11.1
G1 X6.66 Y9.28 Z0.85 F6000.0
G1 X6.33 Y9.38 Z0.85 F6000.0
G1 X6.02 Y9.54 Z0.85 F6000.0
G1 X5.76 Y9.76 Z0.85 F6000.0
G1 X5.54 Y10.02 Z0.85 F6000.0
G1 X5.38 Y10.33 Z0.85 F6000.0
G1 X5.28 Y10.66 Z0.85 F6000.0
G1 X5.24 Y11.0 Z0.85 F6000.0
G1 X5.28 Y11.34 Z0.85 F6000.0
G1 X5.38 Y11.67 Z0.85 F6000.0
G1 X5.54 Y11.98 Z0.85 F6000.0
G1 X5.76 Y12.24 Z0.85 F6000.0
G1 X6.02 Y12.46 Z0.85 F6000.0
G1 X6.33 Y12.62 Z0.85 F6000.0
G1 X6.66 Y12.72 Z0.85 F6000.0
G1 X7.0 Y12.76 Z0.85 F6000.0
G1 X7.34 Y12.72 Z0.85 F6000.0
G1 X7.67 Y12.62 Z0.85 F6000.0
G1 X7.98 Y12.46 Z0.85 F6000.0
G1 X8.24 Y12.24 Z0.85 F6000.0
G1 X8.46 Y11.98 Z0.85 F6000.0
G1 X8.62 Y11.67 Z0.85 F6000.0
G1 X8.72 Y11.34 Z0.85 F6000.0
G1 X8.76 Y11.0 Z0.85 F6000.0
G1 X8.72 Y10.66 Z0.85 F6000.0
G1 X8.62 Y10.33 Z0.85 F6000.0
G1 X8.46 Y10.02 Z0.85 F6000.0
G1 X8.32 Y9.85 Z0.85 F6000.0
M108 R30.0
M102
G1 X8.24 Y9.76 Z0.85 F6000.0
G1 X7.98 Y9.54 Z0.85 F6000.0
G1 X7.67 Y9.38 Z0.85 F6000.0
G1 X7.34 Y9.28 Z0.85 F6000.0
G1 X7.0 Y9.24 Z0.85 F6000.0
M108 R11.1
M103
(</loop>)
(<loop> outer )
G1 X3.0 Y9.24 Z0.85 F6000.0
M108 R30.0
M101
G1 X1.41 Y9.24 Z0.85 F6000.0
M108 R11.1
G1 X1.41 Y-14.92 Z0.85 F6000.0
G1 X12.6 Y-14.92 Z0.85 F6000.0
G1 X12.6 Y14.92 Z0.85 F6000.0
G1 X1.41 Y14.92 Z0.85 F6000.0
G1 X1.41 Y9.24 Z0.85 F6000.0
M103
(</loop>)
(<perimeter> outer )
G1 X0.99 Y9.24 Z0.85 F6000.0
M101
G1 X0.99 Y-15.34 Z0.85 F6000.0
G1 X13.01 Y-15.34 Z0.85 F6000.0
G1 X13.01 Y15.34 Z0.85 F6000.0
G1 X0.99 Y15.34 Z0.85 F6000.0
G1 X0.99 Y10.74 Z0.85 F6000.0
M108 R30.0
M102
G1 X0.99 Y9.24 Z0.85 F6000.0
M108 R11.1
M103
(</perimeter>)
(</boundaryPerimeter>)
(<surroundingLoop>)
(<boundaryPerimeter>)
(<boundaryPoint> X5.897 Y11.219 Z0.85 </boundaryPoint>)
(<boundaryPoint> X5.961 Y11.431 Z0.85 </boundaryPoint>)
(<boundaryPoint> X6.065 Y11.625 Z0.85 </boundaryPoint>)
(<boundaryPoint> X6.205 Y11.796 Z0.85 </boundaryPoint>)
(<boundaryPoint> X6.375 Y11.935 Z0.85 </boundaryPoint>)
(<boundaryPoint> X6.569 Y12.039 Z0.85 </boundaryPoint>)
(<boundaryPoint> X6.781 Y12.103 Z0.85 </boundaryPoint>)
(<boundaryPoint> X7.0 Y12.125 Z0.85 </boundaryPoint>)
(<boundaryPoint> X7.219 Y12.103 Z0.85 </boundaryPoint>)
(<boundaryPoint> X7.431 Y12.039 Z0.85 </boundaryPoint>)
(<boundaryPoint> X7.625 Y11.935 Z0.85 </boundaryPoint>)
(<boundaryPoint> X7.795 Y11.796 Z0.85 </boundaryPoint>)
(<boundaryPoint> X7.935 Y11.625 Z0.85 </boundaryPoint>)
(<boundaryPoint> X8.039 Y11.431 Z0.85 </boundaryPoint>)
(<boundaryPoint> X8.103 Y11.219 Z0.85 </boundaryPoint>)
(<boundaryPoint> X8.125 Y11.0 Z0.85 </boundaryPoint>)
(<boundaryPoint> X8.103 Y10.781 Z0.85 </boundaryPoint>)
(<boundaryPoint> X8.039 Y10.569 Z0.85 </boundaryPoint>)
(<boundaryPoint> X7.935 Y10.375 Z0.85 </boundaryPoint>)
(<boundaryPoint> X7.795 Y10.204 Z0.85 </boundaryPoint>)
(<boundaryPoint> X7.625 Y10.065 Z0.85 </boundaryPoint>)
(<boundaryPoint> X7.431 Y9.961 Z0.85 </boundaryPoint>)
(<boundaryPoint> X7.219 Y9.897 Z0.85 </boundaryPoint>)
(<boundaryPoint> X7.0 Y9.875 Z0.85 </boundaryPoint>)
(<boundaryPoint> X6.781 Y9.897 Z0.85 </boundaryPoint>)
(<boundaryPoint> X6.569 Y9.961 Z0.85 </boundaryPoint>)
(<boundaryPoint> X6.375 Y10.065 Z0.85 </boundaryPoint>)
(<boundaryPoint> X6.205 Y10.204 Z0.85 </boundaryPoint>)
(<boundaryPoint> X6.065 Y10.375 Z0.85 </boundaryPoint>)
(<boundaryPoint> X5.961 Y10.569 Z0.85 </boundaryPoint>)
(<boundaryPoint> X5.897 Y10.781 Z0.85 </boundaryPoint>)
(<boundaryPoint> X5.875 Y11.0 Z0.85 </boundaryPoint>)
(<perimeter> inner )
G1 X4.17 Y10.26 Z0.85 F6000.0
M108 R30.0
M101
G1 X5.69 Y10.74 Z0.85 F6000.0
M108 R11.1
G1 X5.66 Y11.0 Z0.85 F6000.0
G1 X5.69 Y11.26 Z0.85 F6000.0
G1 X5.77 Y11.51 Z0.85 F6000.0
G1 X5.89 Y11.74 Z0.85 F6000.0
G1 X6.06 Y11.95 Z0.85 F6000.0
G1 X6.26 Y12.11 Z0.85 F6000.0
G1 X6.49 Y12.23 Z0.85 F6000.0
G1 X6.74 Y12.31 Z0.85 F6000.0
G1 X7.0 Y12.34 Z0.85 F6000.0
G1 X7.26 Y12.31 Z0.85 F6000.0
G1 X7.51 Y12.23 Z0.85 F6000.0
G1 X7.74 Y12.11 Z0.85 F6000.0
G1 X7.94 Y11.95 Z0.85 F6000.0
G1 X8.11 Y11.74 Z0.85 F6000.0
G1 X8.23 Y11.51 Z0.85 F6000.0
G1 X8.31 Y11.26 Z0.85 F6000.0
G1 X8.34 Y11.0 Z0.85 F6000.0
G1 X8.31 Y10.74 Z0.85 F6000.0
G1 X8.23 Y10.49 Z0.85 F6000.0
G1 X8.11 Y10.26 Z0.85 F6000.0
G1 X7.94 Y10.05 Z0.85 F6000.0
G1 X7.74 Y9.89 Z0.85 F6000.0
G1 X7.51 Y9.77 Z0.85 F6000.0
G1 X7.26 Y9.69 Z0.85 F6000.0
G1 X7.0 Y9.66 Z0.85 F6000.0
G1 X6.74 Y9.69 Z0.85 F6000.0
G1 X6.67 Y9.71 Z0.85 F6000.0
M108 R30.0
M102
G1 X6.49 Y9.77 Z0.85 F6000.0
G1 X6.26 Y9.89 Z0.85 F6000.0
G1 X6.06 Y10.05 Z0.85 F6000.0
G1 X5.89 Y10.26 Z0.85 F6000.0
G1 X5.77 Y10.49 Z0.85 F6000.0
G1 X5.69 Y10.74 Z0.85 F6000.0
M108 R11.1
M103
(</perimeter>)
(</boundaryPerimeter>)
(</surroundingLoop>)
(<surroundingLoop>)
(<boundaryPerimeter>)
(<boundaryPoint> X5.897 Y-10.781 Z0.85 </boundaryPoint>)
(<boundaryPoint> X5.961 Y-10.569 Z0.85 </boundaryPoint>)
(<boundaryPoint> X6.065 Y-10.375 Z0.85 </boundaryPoint>)
(<boundaryPoint> X6.205 Y-10.204 Z0.85 </boundaryPoint>)
(<boundaryPoint> X6.375 Y-10.065 Z0.85 </boundaryPoint>)
(<boundaryPoint> X6.569 Y-9.961 Z0.85 </boundaryPoint>)
(<boundaryPoint> X6.781 Y-9.897 Z0.85 </boundaryPoint>)
(<boundaryPoint> X7.0 Y-9.875 Z0.85 </boundaryPoint>)
(<boundaryPoint> X7.219 Y-9.897 Z0.85 </boundaryPoint>)
(<boundaryPoint> X7.431 Y-9.961 Z0.85 </boundaryPoint>)
(<boundaryPoint> X7.625 Y-10.065 Z0.85 </boundaryPoint>)
(<boundaryPoint> X7.795 Y-10.204 Z0.85 </boundaryPoint>)
(<boundaryPoint> X7.935 Y-10.375 Z0.85 </boundaryPoint>)
(<boundaryPoint> X8.039 Y-10.569 Z0.85 </boundaryPoint>)
(<boundaryPoint> X8.103 Y-10.781 Z0.85 </boundaryPoint>)
(<boundaryPoint> X8.125 Y-11.0 Z0.85 </boundaryPoint>)
(<boundaryPoint> X8.103 Y-11.219 Z0.85 </boundaryPoint>)
(<boundaryPoint> X8.039 Y-11.431 Z0.85 </boundaryPoint>)
(<boundaryPoint> X7.935 Y-11.625 Z0.85 </boundaryPoint>)
(<boundaryPoint> X7.795 Y-11.796 Z0.85 </boundaryPoint>)
(<boundaryPoint> X7.625 Y-11.935 Z0.85 </boundaryPoint>)
(<boundaryPoint> X7.431 Y-12.039 Z0.85 </boundaryPoint>)
(<boundaryPoint> X7.219 Y-12.103 Z0.85 </boundaryPoint>)
(<boundaryPoint> X7.0 Y-12.125 Z0.85 </boundaryPoint>)
(<boundaryPoint> X6.781 Y-12.103 Z0.85 </boundaryPoint>)
(<boundaryPoint> X6.569 Y-12.039 Z0.85 </boundaryPoint>)
(<boundaryPoint> X6.375 Y-11.935 Z0.85 </boundaryPoint>)
(<boundaryPoint> X6.205 Y-11.796 Z0.85 </boundaryPoint>)
(<boundaryPoint> X6.065 Y-11.625 Z0.85 </boundaryPoint>)
(<boundaryPoint> X5.961 Y-11.431 Z0.85 </boundaryPoint>)
(<boundaryPoint> X5.897 Y-11.219 Z0.85 </boundaryPoint>)
(<boundaryPoint> X5.875 Y-11.0 Z0.85 </boundaryPoint>)
(<perimeter> inner )
G1 X6.9 Y-8.07 Z0.85 F6000.0
M108 R30.0
M101
G1 X7.0 Y-9.66 Z0.85 F6000.0
M108 R11.1
G1 X7.26 Y-9.69 Z0.85 F6000.0
G1 X7.51 Y-9.77 Z0.85 F6000.0
G1 X7.74 Y-9.89 Z0.85 F6000.0
G1 X7.94 Y-10.05 Z0.85 F6000.0
G1 X8.11 Y-10.26 Z0.85 F6000.0
G1 X8.23 Y-10.49 Z0.85 F6000.0
G1 X8.31 Y-10.74 Z0.85 F6000.0
G1 X8.34 Y-11.0 Z0.85 F6000.0
G1 X8.31 Y-11.26 Z0.85 F6000.0
G1 X8.23 Y-11.51 Z0.85 F6000.0
G1 X8.11 Y-11.74 Z0.85 F6000.0
G1 X7.94 Y-11.95 Z0.85 F6000.0
G1 X7.74 Y-12.11 Z0.85 F6000.0
G1 X7.51 Y-12.23 Z0.85 F6000.0
G1 X7.26 Y-12.31 Z0.85 F6000.0
G1 X7.0 Y-12.34 Z0.85 F6000.0
G1 X6.74 Y-12.31 Z0.85 F6000.0
G1 X6.49 Y-12.23 Z0.85 F6000.0
G1 X6.26 Y-12.11 Z0.85 F6000.0
G1 X6.06 Y-11.95 Z0.85 F6000.0
G1 X5.89 Y-11.74 Z0.85 F6000.0
G1 X5.77 Y-11.51 Z0.85 F6000.0
G1 X5.69 Y-11.26 Z0.85 F6000.0
G1 X5.66 Y-11.0 Z0.85 F6000.0
G1 X5.69 Y-10.74 Z0.85 F6000.0
G1 X5.77 Y-10.49 Z0.85 F6000.0
G1 X5.8 Y-10.43 Z0.85 F6000.0
M108 R30.0
M102
G1 X5.89 Y-10.26 Z0.85 F6000.0
G1 X6.06 Y-10.05 Z0.85 F6000.0
G1 X6.26 Y-9.89 Z0.85 F6000.0
G1 X6.49 Y-9.77 Z0.85 F6000.0
G1 X6.74 Y-9.69 Z0.85 F6000.0
G1 X7.0 Y-9.66 Z0.85 F6000.0
M108 R11.1
M103
(</perimeter>)
(</boundaryPerimeter>)
(</surroundingLoop>)
G1 X7.79 Y-9.82 Z0.85 F6000.0
G1 X10.64 Y-13.4 Z0.85 F6000.0
M108 R30.0
M101
G1 X11.64 Y-14.65 Z0.85 F6000.0
M108 R11.1
G1 X12.1 Y-14.65 Z0.85 F6000.0
G1 X12.1 Y14.65 Z0.85 F6000.0
G1 X11.17 Y14.65 Z0.85 F6000.0
G1 X11.17 Y-14.65 Z0.85 F6000.0
G1 X9.31 Y-14.65 Z0.85 F6000.0
G1 X8.38 Y9.52 Z0.85 F6000.0
G1 X7.91 Y9.2 Z0.85 F6000.0
G1 X7.76 Y-7.89 Z0.85 F6000.0
G1 X7.8 Y-8.27 Z0.85 F6000.0
M108 R30.0
M102
G1 X7.91 Y-9.2 Z0.85 F6000.0
G1 X8.38 Y-9.52 Z0.85 F6000.0
M108 R11.1
M103
G1 X8.29 Y-11.59 Z0.85 F6000.0
G1 X7.87 Y-13.11 Z0.85 F6000.0
M108 R30.0
M101
G1 X7.45 Y-14.65 Z0.85 F6000.0
M108 R11.1
G1 X8.84 Y-14.65 Z0.85 F6000.0
G1 X7.76 Y-14.1 Z0.85 F6000.0
G1 X7.76 Y-13.83 Z0.85 F6000.0
G1 X8.38 Y-12.48 Z0.85 F6000.0
G1 X7.91 Y-12.8 Z0.85 F6000.0
G1 X7.45 Y-12.97 Z0.85 F6000.0
G1 X7.3 Y-13.36 Z0.85 F6000.0
G1 X6.57 Y-13.43 Z0.85 F6000.0
G1 X6.98 Y-14.65 Z0.85 F6000.0
G1 X4.65 Y-14.65 Z0.85 F6000.0
G1 X5.2 Y-12.71 Z0.85 F6000.0
G1 X5.12 Y-11.76 Z0.85 F6000.0
G1 X4.66 Y-11.69 Z0.85 F6000.0
G1 X4.66 Y-10.22 Z0.85 F6000.0
G1 X5.16 Y-9.36 Z0.85 F6000.0
G1 X6.05 Y-9.22 Z0.85 F6000.0
G1 X6.52 Y-9.04 Z0.85 F6000.0
G1 X6.98 Y-8.97 Z0.85 F6000.0
G1 X7.45 Y-9.03 Z0.85 F6000.0
G1 X4.65 Y-4.79 Z0.85 F6000.0
G1 X4.65 Y-4.52 Z0.85 F6000.0
G1 X7.63 Y-1.69 Z0.85 F6000.0
G1 X7.63 Y-1.42 Z0.85 F6000.0
G1 X4.65 Y1.42 Z0.85 F6000.0
G1 X4.65 Y1.69 Z0.85 F6000.0
G1 X7.63 Y4.52 Z0.85 F6000.0
G1 X7.63 Y4.79 Z0.85 F6000.0
G1 X4.65 Y7.62 Z0.85 F6000.0
G1 X4.65 Y7.89 Z0.85 F6000.0
G1 X7.5 Y8.56 Z0.85 F6000.0
G1 X6.98 Y8.97 Z0.85 F6000.0
G1 X6.52 Y9.04 Z0.85 F6000.0
G1 X6.05 Y9.22 Z0.85 F6000.0
G1 X4.68 Y10.1 Z0.85 F6000.0
G1 X4.67 Y11.66 Z0.85 F6000.0
G1 X5.58 Y12.45 Z0.85 F6000.0
G1 X5.78 Y13.16 Z0.85 F6000.0
G1 X4.65 Y13.83 Z0.85 F6000.0
G1 X4.65 Y14.1 Z0.85 F6000.0
G1 X7.45 Y14.18 Z0.85 F6000.0
G1 X6.98 Y14.65 Z0.85 F6000.0
G1 X1.86 Y14.65 Z0.85 F6000.0
G1 X1.86 Y-14.65 Z0.85 F6000.0
G1 X2.69 Y-14.65 Z0.85 F6000.0
M108 R30.0
M102
G1 X4.19 Y-14.65 Z0.85 F6000.0
M108 R11.1
M103
G1 X8.13 Y10.9 Z0.85 F6000.0
M108 R30.0
M101
G1 X8.38 Y12.48 Z0.85 F6000.0
M108 R11.1
G1 X7.91 Y12.8 Z0.85 F6000.0
G1 X7.45 Y12.97 Z0.85 F6000.0
G1 X6.98 Y13.03 Z0.85 F6000.0
G1 X7.91 Y14.65 Z0.85 F6000.0
G1 X9.21 Y14.65 Z0.85 F6000.0
M108 R30.0
M102
G1 X10.71 Y14.65 Z0.85 F6000.0
M108 R11.1
M103
(</surroundingLoop>)
(<surroundingLoop>)
(<boundaryPerimeter>)
(<boundaryPoint> X15.382 Y-15.55 Z0.85 </boundaryPoint>)
(<boundaryPoint> X18.05 Y-15.55 Z0.85 </boundaryPoint>)
(<boundaryPoint> X18.05 Y15.55 Z0.85 </boundaryPoint>)
(<boundaryPoint> X15.382 Y15.55 Z0.85 </boundaryPoint>)
(<loop> outer )
G1 X14.41 Y14.44 Z0.85 F6000.0
M108 R30.0
M101
G1 X16.01 Y14.35 Z0.85 F6000.0
M108 R11.1
G1 X16.01 Y-14.92 Z0.85 F6000.0
G1 X17.42 Y-14.92 Z0.85 F6000.0
G1 X17.42 Y14.92 Z0.85 F6000.0
G1 X16.01 Y14.92 Z0.85 F6000.0
G1 X16.01 Y14.65 Z0.85 F6000.0
G1 X16.01 Y14.35 Z0.85 F6000.0
M103
(</loop>)
(<perimeter> outer )
G1 X15.59 Y14.35 Z0.85 F6000.0
M101
G1 X15.59 Y-15.34 Z0.85 F6000.0
G1 X17.84 Y-15.34 Z0.85 F6000.0
G1 X17.84 Y15.34 Z0.85 F6000.0
G1 X16.1 Y15.34 Z0.85 F6000.0
M108 R30.0
M102
G1 X15.59 Y15.34 Z0.85 F6000.0
G1 X15.59 Y14.65 Z0.85 F6000.0
G1 X15.59 Y14.35 Z0.85 F6000.0
M108 R11.1
M103
(</perimeter>)
(</boundaryPerimeter>)
G1 X16.69 Y-13.05 Z0.85 F6000.0
M108 R30.0
M101
G1 X16.75 Y-14.65 Z0.85 F6000.0
M108 R11.1
G1 X16.75 Y14.65 Z0.85 F6000.0
G1 X16.29 Y14.65 Z0.85 F6000.0
G1 X16.29 Y-14.65 Z0.85 F6000.0
M103
(</surroundingLoop>)
(</layer>)
(<layer> 1.15 )
(<surroundingLoop>)
(<boundaryPerimeter>)
(<boundaryPoint> X15.382 Y-15.55 Z1.15 </boundaryPoint>)
(<boundaryPoint> X18.05 Y-15.55 Z1.15 </boundaryPoint>)
(<boundaryPoint> X18.05 Y15.55 Z1.15 </boundaryPoint>)
(<boundaryPoint> X15.382 Y15.55 Z1.15 </boundaryPoint>)
(<loop> outer )
G1 X16.27 Y-14.92 Z1.15 F6000.0
M101
G1 X16.29 Y-14.92 Z1.15 F6000.0
G1 X17.42 Y-14.92 Z1.15 F6000.0
G1 X17.42 Y14.92 Z1.15 F6000.0
G1 X16.01 Y14.92 Z1.15 F6000.0
G1 X16.01 Y-14.92 Z1.15 F6000.0
G1 X16.27 Y-14.92 Z1.15 F6000.0
M103
(</loop>)
(<perimeter> outer )
G1 X16.29 Y-15.34 Z1.15 F6000.0
M101
G1 X17.84 Y-15.34 Z1.15 F6000.0
G1 X17.84 Y15.34 Z1.15 F6000.0
G1 X15.59 Y15.34 Z1.15 F6000.0
G1 X15.59 Y-14.54 Z1.15 F6000.0
M108 R30.0
M102
G1 X15.59 Y-15.34 Z1.15 F6000.0
G1 X16.29 Y-15.34 Z1.15 F6000.0
M108 R11.1
M103
(</perimeter>)
(</boundaryPerimeter>)
G1 X16.79 Y-13.2 Z1.15 F6000.0
M108 R30.0
M101
G1 X17.15 Y-11.64 Z1.15 F6000.0
M108 R11.1
G1 X17.15 Y-11.17 Z1.15 F6000.0
G1 X16.28 Y-11.17 Z1.15 F6000.0
G1 X16.28 Y-13.5 Z1.15 F6000.0
G1 X17.15 Y-12.1 Z1.15 F6000.0
G1 X17.15 Y-14.26 Z1.15 F6000.0
M108 R30.0
M102
G1 X17.15 Y-14.43 Z1.15 F6000.0
G1 X16.28 Y-14.43 Z1.15 F6000.0
G1 X16.28 Y-13.96 Z1.15 F6000.0
M108 R11.1
M103
G1 X17.0 Y-6.25 Z1.15 F6000.0
M108 R30.0
M101
G1 X17.15 Y-4.65 Z1.15 F6000.0
M108 R11.1
G1 X17.15 Y-1.86 Z1.15 F6000.0
G1 X16.28 Y-1.86 Z1.15 F6000.0
G1 X16.28 Y-5.12 Z1.15 F6000.0
G1 X17.15 Y-5.12 Z1.15 F6000.0
G1 X17.15 Y-6.05 Z1.15 F6000.0
G1 X16.28 Y-5.58 Z1.15 F6000.0
G1 X16.28 Y-7.91 Z1.15 F6000.0
G1 X17.15 Y-6.52 Z1.15 F6000.0
G1 X17.15 Y-8.84 Z1.15 F6000.0
G1 X16.28 Y-8.38 Z1.15 F6000.0
G1 X16.28 Y-9.77 Z1.15 F6000.0
G1 X17.15 Y-9.31 Z1.15 F6000.0
G1 X17.15 Y-10.65 Z1.15 F6000.0
M108 R30.0
M102
G1 X17.15 Y-10.71 Z1.15 F6000.0
G1 X16.28 Y-10.24 Z1.15 F6000.0
G1 X16.28 Y-10.71 Z1.15 F6000.0
M108 R11.1
M103
G1 X16.28 Y3.05 Z1.15 F6000.0
M108 R30.0
M101
G1 X16.28 Y4.65 Z1.15 F6000.0
M108 R11.1
G1 X16.28 Y7.91 Z1.15 F6000.0
G1 X17.15 Y7.91 Z1.15 F6000.0
G1 X17.15 Y3.72 Z1.15 F6000.0
G1 X16.28 Y4.19 Z1.15 F6000.0
G1 X16.28 Y2.79 Z1.15 F6000.0
G1 X17.15 Y3.26 Z1.15 F6000.0
G1 X17.15 Y1.86 Z1.15 F6000.0
G1 X16.28 Y2.33 Z1.15 F6000.0
G1 X16.28 Y-1.4 Z1.15 F6000.0
G1 X17.15 Y-1.4 Z1.15 F6000.0
G1 X17.15 Y-0.1 Z1.15 F6000.0
M108 R30.0
M102
G1 X17.15 Y1.4 Z1.15 F6000.0
M108 R11.1
M103
G1 X17.15 Y12.36 Z1.15 F6000.0
M108 R30.0
M101
G1 X17.15 Y13.96 Z1.15 F6000.0
M108 R11.1
G1 X17.15 Y14.43 Z1.15 F6000.0
G1 X16.28 Y14.43 Z1.15 F6000.0
G1 X16.28 Y13.5 Z1.15 F6000.0
G1 X17.15 Y13.5 Z1.15 F6000.0
G1 X17.15 Y12.57 Z1.15 F6000.0
G1 X16.28 Y13.03 Z1.15 F6000.0
G1 X16.28 Y11.17 Z1.15 F6000.0
G1 X17.15 Y12.1 Z1.15 F6000.0
G1 X17.15 Y8.38 Z1.15 F6000.0
G1 X16.28 Y8.38 Z1.15 F6000.0
G1 X16.28 Y9.21 Z1.15 F6000.0
M108 R30.0
M102
G1 X16.28 Y10.71 Z1.15 F6000.0
M108 R11.1
M103
(</surroundingLoop>)
(<surroundingLoop>)
(<boundaryPerimeter>)
(<boundaryPoint> X0.777 Y-15.55 Z1.15 </boundaryPoint>)
(<boundaryPoint> X13.223 Y-15.55 Z1.15 </boundaryPoint>)
(<boundaryPoint> X13.223 Y15.55 Z1.15 </boundaryPoint>)
(<boundaryPoint> X0.777 Y15.55 Z1.15 </boundaryPoint>)
(<loop> inner )
G1 X8.28 Y-7.9 Z1.15 F6000.0
M108 R30.0
M101
G1 X7.65 Y-9.37 Z1.15 F6000.0
M108 R11.1
G1 X7.67 Y-9.38 Z1.15 F6000.0
G1 X7.98 Y-9.54 Z1.15 F6000.0
G1 X8.24 Y-9.76 Z1.15 F6000.0
G1 X8.46 Y-10.02 Z1.15 F6000.0
G1 X8.62 Y-10.33 Z1.15 F6000.0
G1 X8.72 Y-10.66 Z1.15 F6000.0
G1 X8.76 Y-11.0 Z1.15 F6000.0
G1 X8.72 Y-11.34 Z1.15 F6000.0
G1 X8.62 Y-11.67 Z1.15 F6000.0
G1 X8.46 Y-11.98 Z1.15 F6000.0
G1 X8.24 Y-12.24 Z1.15 F6000.0
G1 X7.98 Y-12.46 Z1.15 F6000.0
G1 X7.67 Y-12.62 Z1.15 F6000.0
G1 X7.34 Y-12.72 Z1.15 F6000.0
G1 X7.0 Y-12.76 Z1.15 F6000.0
G1 X6.66 Y-12.72 Z1.15 F6000.0
G1 X6.33 Y-12.62 Z1.15 F6000.0
G1 X6.02 Y-12.46 Z1.15 F6000.0
G1 X5.76 Y-12.24 Z1.15 F6000.0
G1 X5.54 Y-11.98 Z1.15 F6000.0
G1 X5.38 Y-11.67 Z1.15 F6000.0
G1 X5.28 Y-11.34 Z1.15 F6000.0
G1 X5.24 Y-11.0 Z1.15 F6000.0
G1 X5.28 Y-10.66 Z1.15 F6000.0
G1 X5.38 Y-10.33 Z1.15 F6000.0
G1 X5.54 Y-10.02 Z1.15 F6000.0
G1 X5.76 Y-9.76 Z1.15 F6000.0
G1 X6.02 Y-9.54 Z1.15 F6000.0
G1 X6.2 Y-9.45 Z1.15 F6000.0
M108 R30.0
M102
G1 X6.33 Y-9.38 Z1.15 F6000.0
G1 X6.66 Y-9.28 Z1.15 F6000.0
G1 X7.0 Y-9.24 Z1.15 F6000.0
G1 X7.34 Y-9.28 Z1.15 F6000.0
G1 X7.65 Y-9.37 Z1.15 F6000.0
M108 R11.1
M103
(</loop>)
(<loop> inner )
G1 X7.06 Y7.64 Z1.15 F6000.0
M108 R30.0
M101
G1 X7.0 Y9.24 Z1.15 F6000.0
M108 R11.1
G1 X6.66 Y9.28 Z1.15 F6000.0
G1 X6.33 Y9.38 Z1.15 F6000.0
G1 X6.02 Y9.54 Z1.15 F6000.0
G1 X5.76 Y9.76 Z1.15 F6000.0
G1 X5.54 Y10.02 Z1.15 F6000.0
G1 X5.38 Y10.33 Z1.15 F6000.0
G1 X5.28 Y10.66 Z1.15 F6000.0
G1 X5.24 Y11.0 Z1.15 F6000.0
G1 X5.28 Y11.34 Z1.15 F6000.0
G1 X5.38 Y11.67 Z1.15 F6000.0
G1 X5.54 Y11.98 Z1.15 F6000.0
G1 X5.76 Y12.24 Z1.15 F6000.0
G1 X6.02 Y12.46 Z1.15 F6000.0
G1 X6.33 Y12.62 Z1.15 F6000.0
G1 X6.66 Y12.72 Z1.15 F6000.0
G1 X7.0 Y12.76 Z1.15 F6000.0
G1 X7.34 Y12.72 Z1.15 F6000.0
G1 X7.67 Y12.62 Z1.15 F6000.0
G1 X7.98 Y12.46 Z1.15 F6000.0
G1 X8.24 Y12.24 Z1.15 F6000.0
G1 X8.46 Y11.98 Z1.15 F6000.0
G1 X8.62 Y11.67 Z1.15 F6000.0
G1 X8.72 Y11.34 Z1.15 F6000.0
G1 X8.76 Y11.0 Z1.15 F6000.0
G1 X8.72 Y10.66 Z1.15 F6000.0
G1 X8.62 Y10.33 Z1.15 F6000.0
G1 X8.46 Y10.02 Z1.15 F6000.0
G1 X8.32 Y9.85 Z1.15 F6000.0
M108 R30.0
M102
G1 X8.24 Y9.76 Z1.15 F6000.0
G1 X7.98 Y9.54 Z1.15 F6000.0
G1 X7.67 Y9.38 Z1.15 F6000.0
G1 X7.34 Y9.28 Z1.15 F6000.0
G1 X7.0 Y9.24 Z1.15 F6000.0
M108 R11.1
M103
(</loop>)
(<loop> outer )
G1 X3.0 Y9.24 Z1.15 F6000.0
M108 R30.0
M101
G1 X1.41 Y9.24 Z1.15 F6000.0
M108 R11.1
G1 X1.41 Y-14.92 Z1.15 F6000.0
G1 X12.6 Y-14.92 Z1.15 F6000.0
G1 X12.6 Y14.92 Z1.15 F6000.0
G1 X1.41 Y14.92 Z1.15 F6000.0
G1 X1.41 Y9.24 Z1.15 F6000.0
M103
(</loop>)
(<perimeter> outer )
G1 X0.99 Y9.24 Z1.15 F6000.0
M101
G1 X0.99 Y-15.34 Z1.15 F6000.0
G1 X13.01 Y-15.34 Z1.15 F6000.0
G1 X13.01 Y15.34 Z1.15 F6000.0
G1 X0.99 Y15.34 Z1.15 F6000.0
G1 X0.99 Y10.74 Z1.15 F6000.0
M108 R30.0
M102
G1 X0.99 Y9.24 Z1.15 F6000.0
M108 R11.1
M103
(</perimeter>)
(</boundaryPerimeter>)
(<surroundingLoop>)
(<boundaryPerimeter>)
(<boundaryPoint> X5.897 Y11.219 Z1.15 </boundaryPoint>)
(<boundaryPoint> X5.961 Y11.431 Z1.15 </boundaryPoint>)
(<boundaryPoint> X6.065 Y11.625 Z1.15 </boundaryPoint>)
(<boundaryPoint> X6.205 Y11.796 Z1.15 </boundaryPoint>)
(<boundaryPoint> X6.375 Y11.935 Z1.15 </boundaryPoint>)
(<boundaryPoint> X6.569 Y12.039 Z1.15 </boundaryPoint>)
(<boundaryPoint> X6.781 Y12.103 Z1.15 </boundaryPoint>)
(<boundaryPoint> X7.0 Y12.125 Z1.15 </boundaryPoint>)
(<boundaryPoint> X7.219 Y12.103 Z1.15 </boundaryPoint>)
(<boundaryPoint> X7.431 Y12.039 Z1.15 </boundaryPoint>)
(<boundaryPoint> X7.625 Y11.935 Z1.15 </boundaryPoint>)
(<boundaryPoint> X7.795 Y11.796 Z1.15 </boundaryPoint>)
(<boundaryPoint> X7.935 Y11.625 Z1.15 </boundaryPoint>)
(<boundaryPoint> X8.039 Y11.431 Z1.15 </boundaryPoint>)
(<boundaryPoint> X8.103 Y11.219 Z1.15 </boundaryPoint>)
(<boundaryPoint> X8.125 Y11.0 Z1.15 </boundaryPoint>)
(<boundaryPoint> X8.103 Y10.781 Z1.15 </boundaryPoint>)
(<boundaryPoint> X8.039 Y10.569 Z1.15 </boundaryPoint>)
(<boundaryPoint> X7.935 Y10.375 Z1.15 </boundaryPoint>)
(<boundaryPoint> X7.795 Y10.204 Z1.15 </boundaryPoint>)
(<boundaryPoint> X7.625 Y10.065 Z1.15 </boundaryPoint>)
(<boundaryPoint> X7.431 Y9.961 Z1.15 </boundaryPoint>)
(<boundaryPoint> X7.219 Y9.897 Z1.15 </boundaryPoint>)
(<boundaryPoint> X7.0 Y9.875 Z1.15 </boundaryPoint>)
(<boundaryPoint> X6.781 Y9.897 Z1.15 </boundaryPoint>)
(<boundaryPoint> X6.569 Y9.961 Z1.15 </boundaryPoint>)
(<boundaryPoint> X6.375 Y10.065 Z1.15 </boundaryPoint>)
(<boundaryPoint> X6.205 Y10.204 Z1.15 </boundaryPoint>)
(<boundaryPoint> X6.065 Y10.375 Z1.15 </boundaryPoint>)
(<boundaryPoint> X5.961 Y10.569 Z1.15 </boundaryPoint>)
