; generated by Slic3r 0.7.1 on 2012-06-02 at 12:48:39

; layer_height = .25
; perimeters = 2
; solid_layers = 3
; fill_density = .20
; nozzle_diameter = .35
; filament_diameter = 1.75
; extrusion_multiplier = 1
; perimeter_speed = 100
; infill_speed = 125
; travel_speed = 150
; extrusion_width_ratio = 0
; scale = 1.0
; single wall width = 0.39mm

M190 S100 ; set bed temperature
M104 S225 ; set temperature
G28 ; home all axes
M109 S225 ; wait for temperature to be reached
G90 ; use absolute coordinates
G21 ; set units to millimeters
G92 E0 ; reset extrusion distance
M82 ; use absolute distances for extrusion
G1 Z0.400 F9000.000
G1 X65.230 Y98.914
G1 F1800.000 E1.50000
G1 X65.760 Y98.454 F4200.000 E1.52807
G1 X67.920 Y96.814 E1.63655
G1 X68.550 Y96.394 E1.66684
G1 X70.910 Y95.034 E1.77579
G1 X71.590 Y94.704 E1.80603
G1 X74.750 Y93.414 E1.94255
G1 X77.360 Y92.664 E2.05118
G1 X78.090 Y92.504 E2.08107
G1 X80.780 Y92.084 E2.18997
G1 X134.270 Y88.194 E4.33523
G1 X135.050 Y88.224 E4.36645
G1 X135.830 Y88.314 E4.39786
G1 X136.590 Y88.444 E4.42870
G1 X137.290 Y88.604 E4.45742
G1 X138.030 Y88.824 E4.48830
G1 X138.850 Y89.134 E4.52336
G1 X139.560 Y89.464 E4.55468
G1 X140.290 Y89.864 E4.58798
G1 X140.940 Y90.284 E4.61893
G1 X141.520 Y90.714 E4.64781
G1 X142.120 Y91.214 E4.67906
G1 X142.710 Y91.784 E4.71187
G1 X143.230 Y92.354 E4.74273
G1 X143.740 Y92.994 E4.77547
G1 X144.180 Y93.634 E4.80653
G1 X144.590 Y94.324 E4.83864
G1 X144.940 Y95.014 E4.86959
G1 X145.270 Y95.804 E4.90383
G1 X145.520 Y96.544 E4.93508
G1 X145.710 Y97.224 E4.96332
G1 X145.870 Y97.984 E4.99438
G1 X145.990 Y98.834 E5.02872
G1 X146.040 Y140.374 E6.69032
G1 X145.990 Y141.154 E6.72159
G1 X145.870 Y142.014 E6.75632
G1 X145.710 Y142.774 E6.78739
G1 X145.520 Y143.474 E6.81640
G1 X145.270 Y144.204 E6.84726
G1 X144.940 Y144.974 E6.88077
G1 X144.590 Y145.664 E6.91172
G1 X144.180 Y146.354 E6.94383
G1 X143.740 Y146.994 E6.97489
G1 X143.270 Y147.604 E7.00569
G1 X142.750 Y148.184 E7.03685
G1 X142.120 Y148.784 E7.07165
G1 X141.520 Y149.284 E7.10289
G1 X140.880 Y149.744 E7.13442
G1 X140.230 Y150.154 E7.16516
G1 X139.560 Y150.524 E7.19578
G1 X138.850 Y150.854 E7.22709
G1 X138.100 Y151.144 E7.25926
G1 X137.360 Y151.374 E7.29026
G1 X136.590 Y151.554 E7.32189
G1 X135.830 Y151.684 E7.35273
G1 X134.970 Y151.774 E7.38732
G1 X134.190 Y151.794 E7.41853
G1 X80.780 Y147.904 E9.56058
G1 X78.090 Y147.484 E9.66949
G1 X77.380 Y147.324 E9.69860
G1 X74.770 Y146.584 E9.80712
G1 X74.070 Y146.334 E9.83685
G1 X70.910 Y144.954 E9.97477
G1 X68.550 Y143.594 E10.08373
G1 X67.920 Y143.174 E10.11401
G1 X65.760 Y141.534 E10.22250
G1 X65.230 Y141.074 E10.25057
G1 X63.270 Y139.184 E10.35948
G1 X62.750 Y138.614 E10.39034
G1 X61.050 Y136.494 E10.49904
G1 X60.630 Y135.904 E10.52801
G1 X59.200 Y133.594 E10.63668
G1 X58.850 Y132.944 E10.66621
G1 X57.710 Y130.474 E10.77503
G1 X57.440 Y129.774 E10.80504
G1 X56.620 Y127.184 E10.91370
G1 X56.440 Y126.474 E10.94300
G1 X55.940 Y123.804 E11.05166
G1 X55.850 Y123.084 E11.08068
G1 X55.680 Y120.374 E11.18930
G1 X55.680 Y119.614 E11.21970
G1 X55.850 Y116.904 E11.32831
G1 X55.940 Y116.184 E11.35733
G1 X56.440 Y113.514 E11.46599
G1 X56.620 Y112.804 E11.49529
G1 X57.440 Y110.214 E11.60396
G1 X57.710 Y109.514 E11.63397
G1 X58.850 Y107.044 E11.74278
G1 X59.200 Y106.394 E11.77231
G1 X60.630 Y104.084 E11.88098
G1 X61.050 Y103.494 E11.90995
G1 X62.750 Y101.374 E12.01865
G1 X63.270 Y100.804 E12.04951
G1 X65.187 Y98.955 E12.15606
G1 F1800.000 E10.65606
G92 E0
G1 X70.785 Y104.867 F9000.000
G1 F1800.000 E1.50000
G1 X72.743 Y103.389 F4200.000 E1.59814
G1 X74.868 Y102.162 E1.69627
G1 X77.127 Y101.206 E1.79441
G1 X79.487 Y100.535 E1.89255
G1 X81.911 Y100.158 E1.99069
G1 X84.364 Y100.083 E2.08882
G1 X86.807 Y100.309 E2.18696
G1 X89.203 Y100.834 E2.28510
G1 X91.517 Y101.649 E2.38323
G1 X93.713 Y102.743 E2.48137
G1 X95.759 Y104.098 E2.57951
G1 X97.622 Y105.694 E2.67764
G1 X99.275 Y107.507 E2.77578
G1 X100.692 Y109.510 E2.87392
G1 X101.853 Y111.671 E2.97206
G1 X102.739 Y113.959 E3.07019
G1 X103.338 Y116.338 E3.16833
G1 X103.639 Y118.773 E3.26647
G1 X103.639 Y121.227 E3.36460
G1 X103.338 Y123.662 E3.46274
G1 X102.739 Y126.041 E3.56088
G1 X101.853 Y128.329 E3.65901
G1 X100.692 Y130.490 E3.75715
G1 X99.275 Y132.493 E3.85529
G1 X97.622 Y134.306 E3.95343
G1 X95.759 Y135.902 E4.05156
G1 X93.713 Y137.257 E4.14970
G1 X91.517 Y138.351 E4.24784
G1 X89.203 Y139.166 E4.34597
G1 X86.807 Y139.691 E4.44411
G1 X84.364 Y139.917 E4.54225
G1 X81.911 Y139.842 E4.64039
G1 X79.487 Y139.465 E4.73852
G1 X77.127 Y138.794 E4.83666
G1 X74.868 Y137.838 E4.93480
G1 X72.743 Y136.611 E5.03293
G1 X70.785 Y135.133 E5.13107
G1 X69.024 Y133.425 E5.22921
G1 X67.486 Y131.513 E5.32734
G1 X66.194 Y129.427 E5.42548
G1 X65.169 Y127.198 E5.52362
G1 X64.425 Y124.860 E5.62176
G1 X63.974 Y122.449 E5.71989
G1 X63.823 Y120.000 E5.81803
G1 X63.974 Y117.551 E5.91617
G1 X64.425 Y115.140 E6.01430
G1 X65.169 Y112.802 E6.11244
G1 X66.194 Y110.573 E6.21058
G1 X67.486 Y108.487 E6.30872
G1 X69.024 Y106.575 E6.40685
G1 X70.743 Y104.909 E6.50262
G1 X70.540 Y104.581 F9000.000
G1 X72.535 Y103.074 F4200.000 E6.60262
G1 X74.700 Y101.824 E6.70262
G1 X77.002 Y100.850 E6.80261
G1 X79.406 Y100.166 E6.90261
G1 X81.877 Y99.782 E7.00261
G1 X84.375 Y99.705 E7.10260
G1 X86.865 Y99.936 E7.20260
G1 X89.307 Y100.471 E7.30260
G1 X91.664 Y101.301 E7.40260
G1 X93.902 Y102.416 E7.50259
G1 X95.986 Y103.797 E7.60259
G1 X97.885 Y105.423 E7.70259
G1 X99.569 Y107.271 E7.80258
G1 X101.013 Y109.311 E7.90258
G1 X102.196 Y111.514 E8.00258
G1 X103.099 Y113.845 E8.10257
G1 X103.709 Y116.269 E8.20257
G1 X104.016 Y118.750 E8.30257
G1 X104.016 Y121.250 E8.40257
G1 X103.709 Y123.731 E8.50256
G1 X103.099 Y126.155 E8.60256
G1 X102.196 Y128.486 E8.70256
G1 X101.013 Y130.689 E8.80255
G1 X99.569 Y132.729 E8.90255
G1 X97.885 Y134.577 E9.00255
G1 X95.986 Y136.203 E9.10254
G1 X93.902 Y137.584 E9.20254
G1 X91.664 Y138.699 E9.30254
G1 X89.307 Y139.529 E9.40254
G1 X86.865 Y140.064 E9.50253
G1 X84.375 Y140.295 E9.60253
G1 X81.877 Y140.218 E9.70253
G1 X79.406 Y139.834 E9.80252
G1 X77.002 Y139.150 E9.90252
G1 X74.700 Y138.176 E10.00252
G1 X72.535 Y136.926 E10.10251
G1 X70.540 Y135.419 E10.20251
G1 X68.745 Y133.679 E10.30251
G1 X67.178 Y131.731 E10.40251
G1 X65.862 Y129.606 E10.50250
G1 X64.817 Y127.335 E10.60250
G1 X64.059 Y124.953 E10.70250
G1 X63.599 Y122.495 E10.80249
G1 X63.446 Y120.000 E10.90249
G1 X63.599 Y117.505 E11.00249
G1 X64.059 Y115.047 E11.10248
G1 X64.817 Y112.665 E11.20248
G1 X65.862 Y110.394 E11.30248
G1 X67.178 Y108.269 E11.40247
G1 X68.745 Y106.321 E11.50247
G1 X70.497 Y104.622 E11.60010
G1 X69.636 Y103.526 F9000.000
G1 X71.768 Y101.917 F4200.000 E11.70694
G1 X74.081 Y100.581 E11.81377
G1 X76.540 Y99.540 E11.92061
G1 X79.109 Y98.809 E12.02744
G1 X81.748 Y98.400 E12.13428
G1 X84.418 Y98.317 E12.24111
G1 X87.078 Y98.564 E12.34794
G1 X89.687 Y99.135 E12.45478
G1 X92.206 Y100.023 E12.56161
G1 X94.596 Y101.213 E12.66845
G1 X96.823 Y102.689 E12.77528
G1 X98.854 Y104.429 E12.88226
G1 X100.239 Y105.911 E12.96341
G1 X107.551 Y105.911 E13.25589
G1 X107.551 Y108.119 E13.34422
G1 X107.644 Y108.456 E13.35818
G1 X107.644 Y109.418 E13.39665
G1 X107.797 Y109.835 E13.41445
G1 X107.797 Y110.872 E13.45592
G1 X109.267 Y112.020 E13.53051
G1 X109.841 Y112.094 E13.55366
G1 X109.909 Y112.126 E13.55667
G1 X110.756 Y112.167 E13.59057
G1 X111.083 Y112.140 E13.60372
G1 X111.524 Y112.140 E13.62135
G1 X111.944 Y112.105 E13.63820
G1 X112.066 Y112.228 E13.64513
G1 X113.280 Y112.104 E13.69394
G1 X113.724 Y112.131 E13.71174
G1 X114.092 Y112.177 E13.72657
G1 X114.140 Y112.187 E13.72853
G1 X114.335 Y112.237 E13.73657
G1 X116.644 Y112.022 E13.82933
G1 X117.239 Y112.080 E13.85324
G1 X119.901 Y111.828 E13.96020
G1 X120.195 Y111.842 E13.97195
G1 X122.960 Y111.553 E14.08319
G1 X123.201 Y111.551 E14.09282
G1 X126.012 Y111.221 E14.20602
G1 X126.224 Y111.210 E14.21453
G1 X132.324 Y110.397 E14.46068
G1 X132.324 Y105.113 E14.67207
G1 X131.352 Y104.586 E14.71630
G1 X130.766 Y104.158 E14.74532
G1 X130.242 Y103.656 E14.77434
G1 X129.790 Y103.088 E14.80336
G1 X129.418 Y102.466 E14.83237
G1 X129.132 Y101.799 E14.86139
G1 X128.938 Y101.100 E14.89041
G1 X128.839 Y100.381 E14.91943
G1 X128.836 Y99.656 E14.94844
G1 X128.931 Y98.937 E14.97746
G1 X129.120 Y98.236 E15.00648
G1 X129.401 Y97.568 E15.03550
G1 X129.769 Y96.942 E15.06451
G1 X130.217 Y96.372 E15.09353
G1 X130.737 Y95.866 E15.12255
G1 X131.320 Y95.435 E15.15157
G1 X131.956 Y95.084 E15.18058
G1 X132.632 Y94.822 E15.20960
G1 X133.338 Y94.653 E15.23862
G1 X134.059 Y94.579 E15.26764
G1 X134.784 Y94.602 E15.29665
G1 X135.500 Y94.721 E15.32567
G1 X136.193 Y94.935 E15.35469
G1 X136.851 Y95.240 E15.38371
G1 X137.463 Y95.630 E15.41272
G1 X138.018 Y96.097 E15.44174
G1 X138.505 Y96.635 E15.47076
G1 X138.916 Y97.233 E15.49978
G1 X139.243 Y97.880 E15.52880
G1 X139.481 Y98.565 E15.55781
G1 X139.626 Y99.276 E15.58683
G1 X139.674 Y99.999 E15.61580
G1 X139.619 Y100.771 E15.64677
G1 X139.455 Y101.526 E15.67769
G1 X139.185 Y102.251 E15.70861
G1 X138.815 Y102.930 E15.73953
G1 X138.353 Y103.549 E15.77045
G1 X137.806 Y104.096 E15.80137
G1 X137.188 Y104.560 E15.83229
G1 X136.176 Y105.114 E15.87846
G1 X136.176 Y134.886 E17.06932
G1 X137.188 Y135.440 E17.11549
G1 X137.806 Y135.904 E17.14641
G1 X138.353 Y136.451 E17.17733
G1 X138.815 Y137.070 E17.20825
G1 X139.185 Y137.749 E17.23917
G1 X139.455 Y138.474 E17.27009
G1 X139.619 Y139.229 E17.30101
G1 X139.674 Y140.001 E17.33198
G1 X139.626 Y140.724 E17.36095
G1 X139.481 Y141.435 E17.38997
G1 X139.243 Y142.120 E17.41899
G1 X138.916 Y142.767 E17.44800
G1 X138.505 Y143.365 E17.47702
G1 X138.018 Y143.903 E17.50604
G1 X137.463 Y144.370 E17.53506
G1 X136.851 Y144.760 E17.56407
G1 X136.193 Y145.065 E17.59309
G1 X135.500 Y145.279 E17.62211
G1 X134.784 Y145.398 E17.65113
G1 X134.059 Y145.421 E17.68014
G1 X133.338 Y145.347 E17.70916
G1 X132.632 Y145.178 E17.73818
G1 X131.956 Y144.916 E17.76720
G1 X131.320 Y144.565 E17.79622
G1 X130.737 Y144.134 E17.82523
G1 X130.217 Y143.628 E17.85425
G1 X129.769 Y143.058 E17.88327
G1 X129.401 Y142.432 E17.91229
G1 X129.120 Y141.764 E17.94130
G1 X128.931 Y141.063 E17.97032
G1 X128.836 Y140.344 E17.99934
G1 X128.839 Y139.619 E18.02836
G1 X128.938 Y138.900 E18.05737
G1 X129.132 Y138.201 E18.08639
G1 X129.418 Y137.534 E18.11541
G1 X129.790 Y136.912 E18.14443
G1 X130.242 Y136.344 E18.17344
G1 X130.766 Y135.842 E18.20246
G1 X131.352 Y135.414 E18.23148
G1 X132.324 Y134.887 E18.27571
G1 X132.324 Y129.603 E18.48711
G1 X126.222 Y128.790 E18.73334
G1 X125.881 Y128.775 E18.74698
G1 X123.093 Y128.448 E18.85930
G1 X122.928 Y128.447 E18.86587
G1 X122.792 Y128.448 E18.87133
G1 X120.072 Y128.164 E18.98071
G1 X119.655 Y128.182 E18.99741
G1 X117.093 Y127.940 E19.10034
G1 X116.647 Y127.978 E19.11825
G1 X114.342 Y127.764 E19.21087
G1 X114.083 Y127.824 E19.22148
G1 X113.724 Y127.869 E19.23595
G1 X113.280 Y127.896 E19.25375
G1 X112.066 Y127.772 E19.30256
G1 X111.944 Y127.895 E19.30949
G1 X111.524 Y127.860 E19.32634
G1 X111.083 Y127.860 E19.34397
G1 X110.760 Y127.833 E19.35695
G1 X110.184 Y127.861 E19.38000
G1 X109.841 Y127.906 E19.39386
G1 X109.564 Y128.032 E19.40601
G1 X108.983 Y128.201 E19.43022
G1 X108.419 Y128.643 E19.45888
G1 X108.419 Y129.022 E19.47408
G1 X107.797 Y130.115 E19.52436
G1 X107.797 Y130.987 E19.55924
G1 X107.644 Y131.544 E19.58236
G1 X107.644 Y132.497 E19.62046
G1 X107.551 Y132.917 E19.63768
G1 X107.551 Y134.089 E19.68454
G1 X100.239 Y134.089 E19.97703
G1 X98.854 Y135.571 E20.05818
G1 X96.823 Y137.311 E20.16515
G1 X94.596 Y138.787 E20.27199
G1 X92.206 Y139.977 E20.37882
G1 X89.687 Y140.865 E20.48565
G1 X87.078 Y141.436 E20.59249
G1 X84.418 Y141.683 E20.69932
G1 X81.748 Y141.600 E20.80616
G1 X79.109 Y141.191 E20.91299
G1 X76.540 Y140.460 E21.01983
G1 X74.081 Y139.419 E21.12666
G1 X71.768 Y138.083 E21.23350
G1 X69.636 Y136.474 E21.34033
G1 X67.719 Y134.614 E21.44716
G1 X66.044 Y132.534 E21.55400
G1 X64.638 Y130.263 E21.66083
G1 X63.522 Y127.836 E21.76767
G1 X62.712 Y125.291 E21.87450
G1 X62.222 Y122.666 E21.98134
G1 X62.057 Y120.000 E22.08817
G1 X62.222 Y117.334 E22.19501
G1 X62.712 Y114.709 E22.30184
G1 X63.522 Y112.164 E22.40867
G1 X64.638 Y109.737 E22.51551
G1 X66.044 Y107.466 E22.62234
G1 X67.719 Y105.386 E22.72918
G1 X69.594 Y103.568 E22.83365
G1 X69.391 Y103.240 F9000.000
G1 X71.559 Y101.602 F4200.000 E22.94234
G1 X73.912 Y100.243 E23.05103
G1 X76.415 Y99.184 E23.15973
G1 X79.028 Y98.440 E23.26842
G1 X81.714 Y98.024 E23.37712
G1 X84.430 Y97.940 E23.48581
G1 X87.135 Y98.191 E23.59451
G1 X89.790 Y98.772 E23.70320
G1 X92.353 Y99.675 E23.81190
G1 X94.785 Y100.886 E23.92059
G1 X97.050 Y102.387 E24.02928
G1 X99.115 Y104.156 E24.13803
G1 X100.402 Y105.534 E24.21347
G1 X107.764 Y105.534 E24.50792
G1 X107.928 Y105.511 E24.51455
G1 X107.928 Y108.068 E24.61683
G1 X108.021 Y108.405 E24.63078
G1 X108.021 Y109.351 E24.66861
G1 X108.174 Y109.768 E24.68641
G1 X108.174 Y110.688 E24.72321
G1 X109.417 Y111.659 E24.78632
G1 X109.945 Y111.728 E24.80761
G1 X110.000 Y111.753 E24.81000
G1 X110.749 Y111.790 E24.84002
G1 X111.067 Y111.763 E24.85279
G1 X111.508 Y111.763 E24.87042
G1 X112.087 Y111.715 E24.89364
G1 X112.206 Y111.835 E24.90040
G1 X113.272 Y111.726 E24.94326
G1 X113.760 Y111.755 E24.96279
G1 X114.153 Y111.805 E24.97865
G1 X114.224 Y111.819 E24.98156
G1 X114.365 Y111.856 E24.98739
G1 X116.645 Y111.644 E25.07896
G1 X117.239 Y111.701 E25.10285
G1 X119.892 Y111.451 E25.20943
G1 X120.183 Y111.464 E25.22110
G1 X122.939 Y111.176 E25.33193
G1 X123.178 Y111.174 E25.34147
G1 X125.980 Y110.845 E25.45435
G1 X126.190 Y110.834 E25.46274
G1 X131.947 Y110.067 E25.69507
G1 X131.947 Y105.337 E25.88428
G1 X131.150 Y104.905 E25.92055
G1 X130.523 Y104.447 E25.95158
G1 X129.963 Y103.910 E25.98262
G1 X129.480 Y103.303 E26.01366
G1 X129.082 Y102.637 E26.04470
G1 X128.776 Y101.924 E26.07574
G1 X128.568 Y101.177 E26.10678
G1 X128.462 Y100.408 E26.13782
G1 X128.459 Y99.632 E26.16885
G1 X128.560 Y98.863 E26.19989
G1 X128.763 Y98.114 E26.23093
G1 X129.064 Y97.398 E26.26197
G1 X129.457 Y96.730 E26.29301
G1 X129.936 Y96.119 E26.32405
G1 X130.493 Y95.578 E26.35509
G1 X131.116 Y95.117 E26.38612
G1 X131.796 Y94.742 E26.41716
G1 X132.520 Y94.462 E26.44820
G1 X133.274 Y94.280 E26.47924
G1 X134.046 Y94.201 E26.51028
G1 X134.821 Y94.226 E26.54132
G1 X135.587 Y94.354 E26.57235
G1 X136.328 Y94.583 E26.60339
G1 X137.033 Y94.908 E26.63443
G1 X137.687 Y95.325 E26.66547
G1 X138.280 Y95.826 E26.69651
G1 X138.801 Y96.401 E26.72755
G1 X139.241 Y97.040 E26.75859
G1 X139.591 Y97.732 E26.78962
G1 X139.846 Y98.465 E26.82066
G1 X140.000 Y99.226 E26.85170
G1 X140.052 Y100.000 E26.88272
G1 X139.993 Y100.825 E26.91581
G1 X139.818 Y101.633 E26.94889
G1 X139.529 Y102.408 E26.98196
G1 X139.133 Y103.134 E27.01504
G1 X138.638 Y103.796 E27.04811
G1 X138.054 Y104.381 E27.08119
G1 X137.393 Y104.877 E27.11426
G1 X136.553 Y105.338 E27.15257
G1 X136.553 Y134.662 E28.32557
G1 X137.393 Y135.123 E28.36388
G1 X138.054 Y135.619 E28.39696
G1 X138.638 Y136.204 E28.43003
G1 X139.133 Y136.866 E28.46311
G1 X139.529 Y137.592 E28.49618
G1 X139.818 Y138.367 E28.52926
G1 X139.993 Y139.175 E28.56233
G1 X140.052 Y140.000 E28.59542
G1 X140.000 Y140.774 E28.62644
G1 X139.846 Y141.535 E28.65748
G1 X139.591 Y142.268 E28.68852
G1 X139.241 Y142.960 E28.71956
G1 X138.801 Y143.599 E28.75060
G1 X138.280 Y144.174 E28.78164
G1 X137.687 Y144.675 E28.81267
G1 X137.033 Y145.092 E28.84371
G1 X136.328 Y145.417 E28.87475
G1 X135.587 Y145.646 E28.90579
G1 X134.821 Y145.774 E28.93683
G1 X134.046 Y145.799 E28.96787
G1 X133.274 Y145.720 E28.99891
G1 X132.520 Y145.538 E29.02994
G1 X131.796 Y145.258 E29.06098
G1 X131.116 Y144.883 E29.09202
G1 X130.493 Y144.422 E29.12306
G1 X129.936 Y143.881 E29.15410
G1 X129.457 Y143.270 E29.18514
G1 X129.064 Y142.602 E29.21618
G1 X128.763 Y141.886 E29.24721
G1 X128.560 Y141.137 E29.27825
G1 X128.459 Y140.368 E29.30929
G1 X128.462 Y139.592 E29.34033
G1 X128.568 Y138.823 E29.37137
G1 X128.776 Y138.076 E29.40241
G1 X129.082 Y137.363 E29.43344
G1 X129.480 Y136.697 E29.46448
G1 X129.963 Y136.090 E29.49552
G1 X130.523 Y135.553 E29.52656
G1 X131.150 Y135.095 E29.55760
