; generated by Slic3r 0.7.1 on 2012-05-22 at 11:58:19

; layer_height = .25
; perimeters = 2
; solid_layers = 3
; fill_density = .20
; nozzle_diameter = .35
; filament_diameter = 1.75
; extrusion_multiplier = .95
; perimeter_speed = 100
; infill_speed = 125
; travel_speed = 150
; extrusion_width_ratio = 0
; scale = 1
; single wall width = 0.39mm

M190 S100 ; set bed temperature
M104 S225 ; set temperature
G28 ; home all axes
M109 S225 ; wait for temperature to be reached
G90 ; use absolute coordinates
G21 ; set units to millimeters
G92 E0 ; reset extrusion distance
M82 ; use absolute distances for extrusion
G1 Z0.750 F9000.000
G1 X62.830 Y98.784
G1 F1800.000 E1.50000
G1 X65.620 Y96.364 F4200.000 E1.64035
G1 X66.350 Y95.824 E1.67485
G1 X69.470 Y93.854 E1.81507
G1 X70.300 Y93.414 E1.85076
G1 X73.690 Y91.954 E1.99102
G1 X74.580 Y91.644 E2.02684
G1 X78.160 Y90.734 E2.16720
G1 X79.050 Y90.584 E2.20150
G1 X83.070 Y90.194 E2.35498
G1 X133.800 Y88.194 E4.28421
G1 X135.050 Y88.224 E4.33173
G1 X135.830 Y88.314 E4.36156
G1 X136.590 Y88.444 E4.39086
G1 X137.290 Y88.604 E4.41815
G1 X138.030 Y88.824 E4.44749
G1 X138.850 Y89.134 E4.48080
G1 X139.560 Y89.464 E4.51055
G1 X140.290 Y89.864 E4.54218
G1 X140.940 Y90.284 E4.57159
G1 X141.520 Y90.714 E4.59903
G1 X142.120 Y91.214 E4.62870
G1 X142.710 Y91.784 E4.65988
G1 X143.230 Y92.354 E4.68920
G1 X143.740 Y92.994 E4.72030
G1 X144.180 Y93.634 E4.74981
G1 X144.590 Y94.324 E4.78031
G1 X144.940 Y95.014 E4.80971
G1 X145.270 Y95.804 E4.84224
G1 X145.520 Y96.544 E4.87192
G1 X145.710 Y97.224 E4.89875
G1 X145.870 Y97.984 E4.92827
G1 X145.990 Y98.834 E4.96089
G1 X146.040 Y140.374 E6.53941
G1 X145.990 Y141.154 E6.56911
G1 X145.870 Y142.014 E6.60211
G1 X145.710 Y142.774 E6.63162
G1 X145.520 Y143.474 E6.65918
G1 X145.270 Y144.204 E6.68850
G1 X144.940 Y144.974 E6.72034
G1 X144.590 Y145.664 E6.74974
G1 X144.180 Y146.354 E6.78024
G1 X143.740 Y146.994 E6.80975
G1 X143.270 Y147.604 E6.83901
G1 X142.750 Y148.184 E6.86861
G1 X142.120 Y148.784 E6.90167
G1 X141.520 Y149.284 E6.93135
G1 X140.880 Y149.744 E6.96130
G1 X140.230 Y150.154 E6.99050
G1 X139.560 Y150.524 E7.01959
G1 X138.850 Y150.854 E7.04934
G1 X138.100 Y151.144 E7.07990
G1 X137.360 Y151.374 E7.10934
G1 X136.590 Y151.554 E7.13939
G1 X135.830 Y151.684 E7.16869
G1 X134.970 Y151.774 E7.20155
G1 X134.190 Y151.794 E7.23120
G1 X82.740 Y149.764 E9.18782
G1 X79.070 Y149.414 E9.32791
G1 X78.150 Y149.254 E9.36340
G1 X74.570 Y148.334 E9.50386
G1 X73.690 Y148.034 E9.53919
G1 X70.300 Y146.574 E9.67945
G1 X69.470 Y146.134 E9.71515
G1 X66.350 Y144.164 E9.85536
G1 X65.620 Y143.624 E9.88987
G1 X62.830 Y141.204 E10.03021
G1 X62.160 Y140.524 E10.06649
G1 X59.790 Y137.694 E10.20676
G1 X59.260 Y136.944 E10.24166
G1 X57.350 Y133.784 E10.38197
G1 X56.930 Y132.954 E10.41731
G1 X55.530 Y129.534 E10.55774
G1 X55.240 Y128.644 E10.59331
G1 X54.390 Y125.054 E10.73350
G1 X54.250 Y124.144 E10.76849
G1 X53.960 Y120.464 E10.90876
G1 X53.960 Y119.524 E10.94448
G1 X54.250 Y115.844 E11.08476
G1 X54.390 Y114.934 E11.11974
G1 X55.240 Y111.344 E11.25994
G1 X55.530 Y110.454 E11.29551
G1 X56.930 Y107.034 E11.43593
G1 X57.350 Y106.204 E11.47128
G1 X59.260 Y103.044 E11.61159
G1 X59.790 Y102.294 E11.64649
G1 X62.160 Y99.464 E11.78676
G1 X62.788 Y98.826 E11.82079
G1 F1800.000 E10.32079
G92 E0
G1 X73.693 Y109.980 F9000.000
G1 F1800.000 E1.50000
G1 X74.742 Y109.027 F4200.000 E1.55386
G1 X75.870 Y108.190 E1.60724
G1 X77.053 Y107.481 E1.65964
G1 X78.315 Y106.884 E1.71269
G1 X79.626 Y106.415 E1.76562
G1 X80.977 Y106.076 E1.81854
G1 X82.341 Y105.873 E1.87093
G1 X83.749 Y105.803 E1.92452
G1 X85.159 Y105.873 E1.97817
G1 X86.517 Y106.075 E2.03032
G1 X87.872 Y106.414 E2.08342
G1 X89.179 Y106.882 E2.13616
G1 X90.439 Y107.477 E2.18911
G1 X91.630 Y108.190 E2.24186
G1 X92.753 Y109.022 E2.29497
G1 X93.770 Y109.943 E2.34710
G1 X94.723 Y110.992 E2.40097
G1 X95.560 Y112.120 E2.45434
G1 X96.269 Y113.303 E2.50674
G1 X96.866 Y114.565 E2.55979
G1 X97.335 Y115.876 E2.61273
G1 X97.675 Y117.232 E2.66584
G1 X97.877 Y118.591 E2.71804
G1 X97.947 Y119.999 E2.77163
G1 X97.877 Y121.409 E2.82527
G1 X97.675 Y122.767 E2.87742
G1 X97.336 Y124.122 E2.93052
G1 X96.868 Y125.429 E2.98327
G1 X96.273 Y126.689 E3.03621
G1 X95.560 Y127.880 E3.08897
G1 X94.728 Y129.003 E3.14207
G1 X93.807 Y130.020 E3.19421
G1 X92.758 Y130.973 E3.24807
G1 X91.630 Y131.810 E3.30145
G1 X90.447 Y132.519 E3.35384
G1 X89.185 Y133.116 E3.40690
G1 X87.874 Y133.585 E3.45983
G1 X86.523 Y133.924 E3.51275
G1 X85.159 Y134.127 E3.56514
G1 X83.751 Y134.197 E3.61873
G1 X82.341 Y134.127 E3.67238
G1 X80.983 Y133.925 E3.72452
G1 X79.628 Y133.586 E3.77762
G1 X78.321 Y133.118 E3.83037
G1 X77.061 Y132.523 E3.88332
G1 X75.870 Y131.810 E3.93607
G1 X74.747 Y130.978 E3.98917
G1 X73.730 Y130.057 E4.04131
G1 X72.777 Y129.008 E4.09517
G1 X71.940 Y127.880 E4.14855
G1 X71.231 Y126.697 E4.20095
G1 X70.634 Y125.435 E4.25400
G1 X70.165 Y124.124 E4.30693
G1 X69.826 Y122.773 E4.35985
G1 X69.623 Y121.409 E4.41224
G1 X69.553 Y120.001 E4.46584
G1 X69.623 Y118.591 E4.51948
G1 X69.825 Y117.233 E4.57163
G1 X70.164 Y115.878 E4.62473
G1 X70.632 Y114.571 E4.67748
G1 X71.227 Y113.311 E4.73042
G1 X71.940 Y112.120 E4.78318
G1 X72.772 Y110.997 E4.83628
G1 X73.653 Y110.024 E4.88617
G1 X73.425 Y109.713 F9000.000
G1 X74.502 Y108.735 F4200.000 E4.94144
G1 X75.660 Y107.876 E4.99624
G1 X76.875 Y107.149 E5.05004
G1 X78.170 Y106.536 E5.10450
G1 X79.517 Y106.054 E5.15884
G1 X80.903 Y105.706 E5.21316
G1 X82.303 Y105.497 E5.26696
G1 X83.749 Y105.425 E5.32197
G1 X85.196 Y105.497 E5.37703
G1 X86.590 Y105.705 E5.43057
G1 X87.982 Y106.053 E5.48508
G1 X89.323 Y106.533 E5.53923
G1 X90.617 Y107.144 E5.59358
G1 X91.839 Y107.876 E5.64774
G1 X92.992 Y108.730 E5.70225
G1 X94.037 Y109.675 E5.75579
G1 X95.015 Y110.752 E5.81107
G1 X95.874 Y111.910 E5.86586
G1 X96.601 Y113.125 E5.91966
G1 X97.214 Y114.420 E5.97412
G1 X97.696 Y115.767 E6.02846
G1 X98.045 Y117.158 E6.08298
G1 X98.253 Y118.553 E6.13658
G1 X98.325 Y119.999 E6.19159
G1 X98.253 Y121.446 E6.24665
G1 X98.045 Y122.840 E6.30019
G1 X97.697 Y124.232 E6.35470
G1 X97.217 Y125.573 E6.40885
G1 X96.606 Y126.867 E6.46320
G1 X95.874 Y128.089 E6.51736
G1 X95.020 Y129.242 E6.57187
G1 X94.075 Y130.287 E6.62541
G1 X92.998 Y131.265 E6.68069
G1 X91.840 Y132.124 E6.73548
G1 X90.625 Y132.851 E6.78928
G1 X89.330 Y133.464 E6.84374
G1 X87.983 Y133.946 E6.89808
G1 X86.597 Y134.294 E6.95241
G1 X85.197 Y134.503 E7.00620
G1 X83.751 Y134.575 E7.06121
G1 X82.304 Y134.503 E7.11627
G1 X80.910 Y134.295 E7.16982
G1 X79.518 Y133.947 E7.22432
G1 X78.177 Y133.467 E7.27848
G1 X76.883 Y132.856 E7.33283
G1 X75.661 Y132.124 E7.38699
G1 X74.508 Y131.270 E7.44149
G1 X73.463 Y130.325 E7.49503
G1 X72.485 Y129.248 E7.55031
G1 X71.626 Y128.090 E7.60510
G1 X70.899 Y126.875 E7.65890
G1 X70.286 Y125.580 E7.71336
G1 X69.804 Y124.233 E7.76770
G1 X69.456 Y122.847 E7.82203
G1 X69.247 Y121.447 E7.87582
G1 X69.175 Y120.001 E7.93083
G1 X69.247 Y118.554 E7.98589
G1 X69.455 Y117.160 E8.03944
G1 X69.803 Y115.768 E8.09394
G1 X70.283 Y114.427 E8.14810
G1 X70.894 Y113.133 E8.20245
G1 X71.626 Y111.911 E8.25661
G1 X72.480 Y110.758 E8.31111
G1 X73.386 Y109.757 E8.36241
G1 F1800.000 E6.86241
G92 E0
G1 X67.037 Y103.587 F9000.000
G1 F1800.000 E1.50000
G1 X69.777 Y101.200 F4200.000 E1.63807
G1 X72.852 Y99.265 E1.77614
G1 X76.190 Y97.829 E1.91421
G1 X79.709 Y96.927 E2.05228
G1 X83.326 Y96.580 E2.19035
G1 X86.953 Y96.796 E2.32842
G1 X90.503 Y97.570 E2.46649
G1 X93.891 Y98.885 E2.60456
G1 X97.034 Y100.707 E2.74263
G1 X99.858 Y102.993 E2.88070
G1 X102.495 Y105.911 E3.03016
G1 X107.551 Y105.911 E3.22228
G1 X107.551 Y108.119 E3.30619
G1 X107.644 Y108.456 E3.31945
G1 X107.644 Y109.418 E3.35600
G1 X107.797 Y109.835 E3.37291
G1 X107.797 Y110.872 E3.41231
G1 X109.267 Y112.020 E3.48317
G1 X109.841 Y112.094 E3.50516
G1 X109.909 Y112.126 E3.50803
G1 X110.185 Y112.139 E3.51850
G1 X110.640 Y112.198 E3.53596
G1 X110.792 Y112.168 E3.54184
G1 X111.289 Y112.192 E3.56075
G1 X111.556 Y112.140 E3.57109
G1 X111.970 Y112.139 E3.58683
G1 X112.315 Y112.072 E3.60019
G1 X112.670 Y112.060 E3.61369
G1 X113.072 Y111.981 E3.62924
G1 X113.383 Y111.963 E3.64106
G1 X113.827 Y111.876 E3.65827
G1 X114.103 Y111.856 E3.66879
G1 X114.581 Y111.762 E3.68729
G1 X114.829 Y111.740 E3.69677
G1 X115.334 Y111.641 E3.71630
G1 X115.560 Y111.619 E3.72493
G1 X116.086 Y111.515 E3.74532
G1 X116.293 Y111.493 E3.75324
G1 X116.838 Y111.386 E3.77434
G1 X117.029 Y111.364 E3.78165
G1 X117.590 Y111.254 E3.80336
G1 X117.767 Y111.233 E3.81016
G1 X119.489 Y110.895 E3.87682
G1 X119.810 Y110.851 E3.88912
G1 X119.965 Y110.840 E3.89503
G1 X121.346 Y110.569 E3.94851
G1 X128.840 Y109.145 E4.23838
G1 X128.997 Y109.126 E4.24438
G1 X132.324 Y108.472 E4.37324
G1 X132.324 Y105.113 E4.50091
G1 X131.352 Y104.586 E4.54293
G1 X130.766 Y104.158 E4.57050
G1 X130.242 Y103.656 E4.59806
G1 X129.790 Y103.088 E4.62563
G1 X129.418 Y102.466 E4.65320
G1 X129.132 Y101.799 E4.68076
G1 X128.938 Y101.100 E4.70833
G1 X128.839 Y100.381 E4.73590
G1 X128.836 Y99.656 E4.76347
G1 X128.931 Y98.937 E4.79103
G1 X129.120 Y98.236 E4.81860
G1 X129.401 Y97.568 E4.84616
G1 X129.769 Y96.942 E4.87373
G1 X130.217 Y96.372 E4.90130
G1 X130.737 Y95.866 E4.92887
G1 X131.320 Y95.435 E4.95643
G1 X131.956 Y95.084 E4.98400
G1 X132.632 Y94.822 E5.01157
G1 X133.338 Y94.653 E5.03913
G1 X134.059 Y94.579 E5.06670
G1 X134.784 Y94.602 E5.09427
G1 X135.500 Y94.721 E5.12183
G1 X136.193 Y94.935 E5.14940
G1 X136.851 Y95.240 E5.17697
G1 X137.463 Y95.630 E5.20453
G1 X138.018 Y96.097 E5.23210
G1 X138.505 Y96.635 E5.25967
G1 X138.916 Y97.233 E5.28723
G1 X139.243 Y97.880 E5.31480
G1 X139.481 Y98.565 E5.34237
G1 X139.626 Y99.276 E5.36993
G1 X139.674 Y99.999 E5.39745
G1 X139.619 Y100.771 E5.42687
G1 X139.455 Y101.526 E5.45625
G1 X139.185 Y102.251 E5.48562
G1 X138.815 Y102.930 E5.51500
G1 X138.353 Y103.549 E5.54437
G1 X137.806 Y104.096 E5.57375
G1 X137.188 Y104.560 E5.60312
G1 X136.176 Y105.114 E5.64698
G1 X136.176 Y134.886 E6.77830
G1 X137.188 Y135.440 E6.82216
G1 X137.806 Y135.904 E6.85153
G1 X138.353 Y136.451 E6.88091
G1 X138.815 Y137.070 E6.91028
G1 X139.185 Y137.749 E6.93966
G1 X139.455 Y138.474 E6.96903
G1 X139.619 Y139.229 E6.99841
G1 X139.674 Y140.001 E7.02783
G1 X139.626 Y140.724 E7.05535
G1 X139.481 Y141.435 E7.08291
G1 X139.243 Y142.120 E7.11048
G1 X138.916 Y142.767 E7.13805
G1 X138.505 Y143.365 E7.16561
G1 X138.018 Y143.903 E7.19318
G1 X137.463 Y144.370 E7.22075
G1 X136.851 Y144.760 E7.24831
G1 X136.193 Y145.065 E7.27588
G1 X135.500 Y145.279 E7.30345
G1 X134.784 Y145.398 E7.33101
G1 X134.059 Y145.421 E7.35858
G1 X133.338 Y145.347 E7.38615
G1 X132.632 Y145.178 E7.41371
G1 X131.956 Y144.916 E7.44128
G1 X131.320 Y144.565 E7.46885
G1 X130.737 Y144.134 E7.49641
G1 X130.217 Y143.628 E7.52398
G1 X129.769 Y143.058 E7.55155
G1 X129.401 Y142.432 E7.57911
G1 X129.120 Y141.764 E7.60668
G1 X128.931 Y141.063 E7.63425
G1 X128.836 Y140.344 E7.66181
G1 X128.839 Y139.619 E7.68938
G1 X128.938 Y138.900 E7.71695
G1 X129.132 Y138.201 E7.74451
G1 X129.418 Y137.534 E7.77208
G1 X129.790 Y136.912 E7.79965
G1 X130.242 Y136.344 E7.82722
G1 X130.766 Y135.842 E7.85478
G1 X131.352 Y135.414 E7.88235
G1 X132.324 Y134.887 E7.92437
G1 X132.324 Y131.498 E8.05316
G1 X131.665 Y131.409 E8.07843
G1 X121.329 Y129.428 E8.47834
G1 X121.175 Y129.415 E8.48421
G1 X119.844 Y129.153 E8.53577
G1 X119.489 Y129.105 E8.54939
G1 X118.341 Y128.880 E8.59382
G1 X118.150 Y128.856 E8.60114
G1 X117.590 Y128.746 E8.62284
G1 X117.383 Y128.721 E8.63077
G1 X116.838 Y128.614 E8.65186
G1 X116.612 Y128.588 E8.66050
G1 X116.086 Y128.485 E8.68088
G1 X115.838 Y128.458 E8.69037
G1 X115.334 Y128.359 E8.70989
G1 X115.058 Y128.332 E8.72043
G1 X114.581 Y128.238 E8.73890
G1 X114.270 Y128.211 E8.75075
G1 X113.827 Y128.124 E8.76791
G1 X113.472 Y128.098 E8.78144
G1 X113.072 Y128.019 E8.79693
G1 X112.658 Y127.996 E8.81269
G1 X112.315 Y127.928 E8.82595
G1 X111.818 Y127.912 E8.84485
G1 X111.556 Y127.860 E8.85500
G1 X110.935 Y127.860 E8.87861
G1 X110.792 Y127.832 E8.88414
G1 X110.185 Y127.861 E8.90725
G1 X109.841 Y127.906 E8.92043
G1 X109.564 Y128.032 E8.93197
G1 X108.983 Y128.201 E8.95497
G1 X108.419 Y128.643 E8.98220
G1 X108.419 Y129.022 E8.99664
G1 X107.797 Y130.115 E9.04440
G1 X107.797 Y130.987 E9.07754
G1 X107.644 Y131.544 E9.09950
G1 X107.644 Y132.497 E9.13570
G1 X107.551 Y132.917 E9.15206
G1 X107.551 Y134.089 E9.19658
G1 X102.495 Y134.089 E9.38870
G1 X99.858 Y137.007 E9.53815
G1 X97.034 Y139.293 E9.67622
G1 X93.891 Y141.115 E9.81429
G1 X90.503 Y142.430 E9.95236
G1 X86.953 Y143.204 E10.09044
G1 X83.326 Y143.420 E10.22851
G1 X79.709 Y143.073 E10.36658
G1 X76.190 Y142.171 E10.50465
G1 X72.852 Y140.735 E10.64272
G1 X69.777 Y138.800 E10.78079
G1 X67.037 Y136.413 E10.91886
G1 X64.700 Y133.631 E11.05693
G1 X62.822 Y130.521 E11.19500
G1 X61.446 Y127.158 E11.33307
G1 X60.608 Y123.622 E11.47114
G1 X60.326 Y120.000 E11.60921
G1 X60.608 Y116.378 E11.74728
G1 X61.446 Y112.842 E11.88535
G1 X62.822 Y109.479 E12.02342
G1 X64.700 Y106.369 E12.16149
G1 X66.999 Y103.632 E12.29731
G1 X66.768 Y103.322 F9000.000
G1 X69.551 Y100.897 F4200.000 E12.43761
G1 X72.676 Y98.931 E12.57791
G1 X76.068 Y97.472 E12.71821
G1 X79.644 Y96.555 E12.85850
G1 X83.319 Y96.202 E12.99880
G1 X87.005 Y96.421 E13.13910
G1 X90.612 Y97.208 E13.27940
G1 X94.054 Y98.544 E13.41970
G1 X97.248 Y100.395 E13.56000
G1 X100.118 Y102.719 E13.70030
G1 X102.662 Y105.534 E13.84451
G1 X107.764 Y105.534 E14.03835
G1 X107.928 Y105.511 E14.04465
G1 X107.928 Y108.068 E14.14182
G1 X108.021 Y108.405 E14.15507
G1 X108.021 Y109.351 E14.19101
G1 X108.174 Y109.768 E14.20792
G1 X108.174 Y110.688 E14.24288
G1 X109.417 Y111.659 E14.30284
G1 X109.945 Y111.728 E14.32306
G1 X110.000 Y111.753 E14.32534
G1 X110.218 Y111.763 E14.33363
G1 X110.628 Y111.816 E14.34934
G1 X110.764 Y111.789 E14.35463
G1 X111.262 Y111.813 E14.37354
G1 X111.519 Y111.763 E14.38352
G1 X111.933 Y111.762 E14.39927
G1 X112.272 Y111.696 E14.41239
G1 X112.627 Y111.684 E14.42589
G1 X113.025 Y111.606 E14.44127
G1 X113.335 Y111.588 E14.45310
G1 X113.776 Y111.502 E14.47018
G1 X114.053 Y111.481 E14.48070
G1 X114.528 Y111.388 E14.49910
G1 X114.776 Y111.366 E14.50858
G1 X115.279 Y111.268 E14.52804
G1 X115.505 Y111.245 E14.53667
G1 X116.030 Y111.142 E14.55699
G1 X116.237 Y111.120 E14.56491
G1 X116.780 Y111.013 E14.58596
G1 X116.971 Y110.991 E14.59327
G1 X117.531 Y110.882 E14.61494
G1 X117.708 Y110.860 E14.62173
G1 X119.427 Y110.523 E14.68829
G1 X119.771 Y110.476 E14.70146
G1 X119.914 Y110.465 E14.70694
G1 X121.283 Y110.197 E14.75994
G1 X128.781 Y108.773 E15.04995
G1 X128.937 Y108.753 E15.05592
G1 X131.947 Y108.162 E15.17250
G1 X131.947 Y105.337 E15.27986
G1 X131.150 Y104.905 E15.31431
G1 X130.523 Y104.447 E15.34380
G1 X129.963 Y103.910 E15.37329
G1 X129.480 Y103.303 E15.40277
G1 X129.082 Y102.637 E15.43226
G1 X128.776 Y101.924 E15.46175
G1 X128.568 Y101.177 E15.49123
G1 X128.462 Y100.408 E15.52072
G1 X128.459 Y99.632 E15.55021
G1 X128.560 Y98.863 E15.57969
G1 X128.763 Y98.114 E15.60918
G1 X129.064 Y97.398 E15.63866
G1 X129.457 Y96.730 E15.66815
G1 X129.936 Y96.119 E15.69764
G1 X130.493 Y95.578 E15.72712
G1 X131.116 Y95.117 E15.75661
G1 X131.796 Y94.742 E15.78610
G1 X132.520 Y94.462 E15.81558
G1 X133.274 Y94.280 E15.84507
G1 X134.046 Y94.201 E15.87456
G1 X134.821 Y94.226 E15.90404
G1 X135.587 Y94.354 E15.93353
G1 X136.328 Y94.583 E15.96302
G1 X137.033 Y94.908 E15.99250
G1 X137.687 Y95.325 E16.02199
G1 X138.280 Y95.826 E16.05148
G1 X138.801 Y96.401 E16.08096
G1 X139.241 Y97.040 E16.11045
G1 X139.591 Y97.732 E16.13994
G1 X139.846 Y98.465 E16.16942
G1 X140.000 Y99.226 E16.19891
G1 X140.052 Y100.000 E16.22838
G1 X139.993 Y100.825 E16.25982
G1 X139.818 Y101.633 E16.29124
G1 X139.529 Y102.408 E16.32266
G1 X139.133 Y103.134 E16.35408
G1 X138.638 Y103.796 E16.38550
G1 X138.054 Y104.381 E16.41692
G1 X137.393 Y104.877 E16.44834
G1 X136.553 Y105.338 E16.48474
G1 X136.553 Y134.662 E17.59909
G1 X137.393 Y135.123 E17.63548
G1 X138.054 Y135.619 E17.66690
G1 X138.638 Y136.204 E17.69832
G1 X139.133 Y136.866 E17.72974
G1 X139.529 Y137.592 E17.76117
G1 X139.818 Y138.367 E17.79259
G1 X139.993 Y139.175 E17.82401
G1 X140.052 Y140.000 E17.85545
