; generated by Slic3r 0.8.4 on 2012-08-07 at 19:42:36

; layer_height = 0.25
; perimeters = 3
; solid_layers = 3
; fill_density = .2
; nozzle_diameter = .35
; filament_diameter = 1.75
; extrusion_multiplier = 1.2
; perimeter_speed = 100
; infill_speed = 120
; travel_speed = 180
; scale = 1
; single wall width = 0.39mm

M190 S110 ; wait for bed temperature to be reached
M104 S220 ; set temperature
M104 S220 ;start extruder
G28 ; home all axes
M109 S220 ; wait for temperature to be reached
G90 ; use absolute coordinates
G21 ; set units to millimeters
G92 E0 ; reset extrusion distance
M82 ; use absolute distances for extrusion
G1 Z0.200 F10800.000
G1 X49.195 Y75.253
G1 F1800.000 E1.00000
G1 X49.395 Y74.943 F3000.000 E1.01417
G1 X49.635 Y74.673 E1.02804
G1 X49.765 Y74.543 E1.03510
G1 X49.905 Y74.423 E1.04218
G1 X50.055 Y74.313 E1.04932
G1 X50.215 Y74.213 E1.05657
G1 X50.545 Y74.053 E1.07065
G1 X50.715 Y73.983 E1.07771
G1 X50.885 Y73.933 E1.08451
G1 X51.065 Y73.893 E1.09159
G1 X51.245 Y73.863 E1.09860
G1 X51.435 Y73.843 E1.10594
G1 X131.795 Y74.163 E4.19179
G1 X131.975 Y74.183 E4.19874
G1 X132.145 Y74.213 E4.20537
G1 X132.475 Y74.293 E4.21841
G1 X132.635 Y74.353 E4.22497
G1 X132.955 Y74.503 E4.23854
G1 X133.245 Y74.693 E4.25186
G1 X133.635 Y75.033 E4.27172
G1 X133.745 Y75.163 E4.27826
G1 X133.945 Y75.443 E4.29148
G1 X134.035 Y75.593 E4.29819
G1 X134.115 Y75.753 E4.30506
G1 X134.235 Y76.073 E4.31819
G1 X134.285 Y76.243 E4.32499
G1 X134.325 Y76.413 E4.33170
G1 X134.365 Y76.753 E4.34484
G1 X134.275 Y98.983 E5.19848
G1 X134.215 Y100.023 E5.23848
G1 X134.155 Y100.433 E5.25440
G1 X121.495 Y159.913 E7.58959
G1 X121.455 Y160.053 E7.59518
G1 X121.405 Y160.193 E7.60089
G1 X120.335 Y162.313 E7.69208
G1 X120.135 Y162.603 E7.70561
G1 X118.415 Y164.323 E7.79901
G1 X118.285 Y164.433 E7.80555
G1 X117.995 Y164.623 E7.81887
G1 X115.995 Y165.633 E7.90490
G1 X115.665 Y165.753 E7.91839
G1 X115.495 Y165.793 E7.92509
G1 X113.435 Y166.113 E8.00515
G1 X113.005 Y166.143 E8.02170
G1 X69.505 Y165.973 E9.69211
G1 X69.065 Y165.943 E9.70905
G1 X67.185 Y165.633 E9.78221
G1 X66.855 Y165.553 E9.79525
G1 X66.695 Y165.503 E9.80169
G1 X64.525 Y164.413 E9.89494
G1 X64.105 Y164.103 E9.91498
G1 X62.425 Y162.393 E10.00704
G1 X41.105 Y135.473 E11.32569
G1 X40.915 Y135.153 E11.33998
G1 X40.835 Y134.983 E11.34719
G1 X40.715 Y134.633 E11.36140
G1 X40.675 Y134.453 E11.36848
G1 X40.645 Y134.273 E11.37549
G1 X40.625 Y134.083 E11.38283
G1 X40.795 Y90.903 E13.04095
G1 X40.855 Y90.513 E13.05610
G1 X40.905 Y90.323 E13.06365
G1 X41.045 Y89.953 E13.07884
G1 X49.166 Y75.305 E13.72200
G1 X49.525 Y75.443 F10800.000
G1 X49.615 Y75.293 F3000.000 E13.72872
G1 X49.815 Y75.023 E13.74162
G1 X50.055 Y74.783 E13.75465
G1 X50.335 Y74.583 E13.76787
G1 X50.625 Y74.423 E13.78058
G1 X50.785 Y74.363 E13.78715
G1 X50.945 Y74.313 E13.79358
G1 X51.275 Y74.243 E13.80654
G1 X51.445 Y74.223 E13.81311
G1 X51.615 Y74.213 E13.81965
G1 X131.625 Y74.533 E16.89206
G1 X131.785 Y74.543 E16.89821
G1 X132.105 Y74.583 E16.91060
G1 X132.265 Y74.623 E16.91693
G1 X132.575 Y74.733 E16.92956
G1 X132.715 Y74.803 E16.93557
G1 X132.995 Y74.973 E16.94815
G1 X133.125 Y75.073 E16.95445
G1 X133.355 Y75.293 E16.96667
G1 X133.565 Y75.553 E16.97950
G1 X133.655 Y75.683 E16.98558
G1 X133.795 Y75.973 E16.99794
G1 X133.855 Y76.123 E17.00414
G1 X133.905 Y76.283 E17.01058
G1 X133.945 Y76.443 E17.01692
G1 X133.975 Y76.603 E17.02317
G1 X133.995 Y76.923 E17.03548
G1 X133.905 Y98.833 E17.87683
G1 X133.835 Y100.003 E17.92184
G1 X133.785 Y100.353 E17.93541
G1 X121.155 Y159.693 E20.26511
G1 X121.135 Y159.823 E20.27016
G1 X121.055 Y160.053 E20.27951
G1 X120.955 Y160.283 E20.28914
G1 X120.005 Y162.123 E20.36866
G1 X119.835 Y162.373 E20.38027
G1 X119.635 Y162.593 E20.39169
G1 X118.055 Y164.133 E20.47641
G1 X117.805 Y164.293 E20.48781
G1 X115.845 Y165.283 E20.57213
G1 X115.705 Y165.343 E20.57798
G1 X115.555 Y165.393 E20.58405
G1 X113.375 Y165.743 E20.66883
G1 X113.005 Y165.773 E20.68309
G1 X69.505 Y165.603 E22.35350
G1 X69.125 Y165.573 E22.36814
G1 X67.105 Y165.233 E22.44680
G1 X66.965 Y165.193 E22.45239
G1 X66.685 Y165.093 E22.46381
G1 X64.855 Y164.163 E22.54263
G1 X64.595 Y164.003 E22.55436
G1 X64.355 Y163.823 E22.56588
G1 X62.725 Y162.163 E22.65521
G1 X41.405 Y135.243 E23.97386
G1 X41.225 Y134.933 E23.98763
G1 X41.155 Y134.773 E23.99434
G1 X41.055 Y134.433 E24.00794
G1 X41.025 Y134.263 E24.01457
G1 X41.005 Y134.083 E24.02153
G1 X40.995 Y133.903 E24.02845
G1 X41.175 Y90.903 E25.67967
G1 X41.205 Y90.703 E25.68743
G1 X41.245 Y90.513 E25.69489
G1 X41.375 Y90.133 E25.71031
G1 X49.496 Y75.495 E26.35313
G1 F1800.000 E25.35313
G92 E0
G1 X51.174 Y124.885 F10800.000
G1 F1800.000 E1.00000
G1 X51.145 Y132.217 F3000.000 E1.28156
G1 X46.443 Y132.199 E1.46213
G1 X46.472 Y124.867 E1.74369
G1 X51.115 Y124.885 E1.92198
G1 X50.795 Y125.261 F10800.000
G1 X50.769 Y131.839 F3000.000 E2.17459
G1 X46.821 Y131.823 E2.32621
G1 X46.847 Y125.245 E2.57881
G1 X50.736 Y125.261 E2.72816
G1 X50.417 Y125.636 F10800.000
G1 X50.394 Y131.461 F3000.000 E2.95181
G1 X47.199 Y131.448 E3.07448
G1 X47.222 Y125.623 E3.29814
G1 X50.357 Y125.636 E3.41853
G1 F1800.000 E2.41853
G92 E0
G1 X51.270 Y100.217 F10800.000
G1 F1800.000 E1.00000
G1 X46.568 Y100.199 F3000.000 E1.18056
G1 X46.600 Y92.867 E1.46212
G1 X51.302 Y92.885 E1.64268
G1 X51.271 Y100.158 E1.92197
G1 X50.895 Y99.839 F10800.000
G1 X46.947 Y99.823 F3000.000 E2.07358
G1 X46.975 Y93.245 E2.32619
G1 X50.923 Y93.261 E2.47780
G1 X50.895 Y99.780 E2.72814
G1 X50.520 Y99.461 F10800.000
G1 X47.325 Y99.448 F3000.000 E2.85080
G1 X47.350 Y93.623 E3.07446
G1 X50.545 Y93.636 E3.19712
G1 X50.520 Y99.401 E3.41851
G1 F1800.000 E2.41851
G92 E0
G1 X57.908 Y97.804 F10800.000
G1 F1800.000 E1.00000
G1 X57.925 Y93.792 F3000.000 E1.15407
G1 X63.627 Y93.815 E1.37303
G1 X63.610 Y97.827 E1.52710
G1 X57.967 Y97.805 E1.74379
G1 X58.287 Y97.429 F10800.000
G1 X58.301 Y94.171 F3000.000 E1.86890
G1 X63.249 Y94.191 E2.05892
G1 X63.235 Y97.449 E2.18403
G1 X58.346 Y97.429 E2.37177
G1 X58.665 Y97.054 F10800.000
G1 X58.676 Y94.549 F3000.000 E2.46794
G1 X62.870 Y94.566 E2.62901
G1 X62.860 Y97.070 E2.72517
G1 X58.724 Y97.054 E2.88397
G1 F1800.000 E1.88397
G92 E0
G1 X65.162 Y101.961 F10800.000
G1 F1800.000 E1.00000
G1 X67.004 Y100.099 F3000.000 E1.10055
G1 X69.623 Y100.088 E1.20112
G1 X71.485 Y101.930 E1.30167
G1 X71.491 Y103.573 E1.36476
G1 X71.726 Y103.623 E1.37396
G1 X72.588 Y101.708 E1.45460
G1 X75.417 Y97.846 E1.63843
G1 X81.679 Y97.871 E1.87892
G1 X81.698 Y93.264 E2.05581
G1 X82.283 Y92.927 E2.08175
G1 X82.283 Y92.927 E2.08175
G1 X82.659 Y92.710 E2.09840
G1 X87.012 Y91.315 E2.27395
G1 X91.167 Y90.895 E2.43429
G1 X91.167 Y90.812 E2.43746
G1 X91.547 Y90.854 E2.45216
G1 X91.547 Y90.854 E2.45216
G1 X96.100 Y91.353 E2.62805
G1 X100.440 Y92.780 E2.80346
G1 X101.400 Y93.338 E2.84611
G1 X101.381 Y97.950 E3.02319
G1 X107.644 Y97.976 E3.26368
G1 X107.939 Y98.385 E3.28306
G1 X107.939 Y98.385 E3.28306
G1 X110.442 Y101.860 E3.44749
G1 X111.289 Y103.783 E3.52818
G1 X111.524 Y103.735 E3.53738
G1 X111.544 Y102.090 E3.60056
G1 X113.419 Y100.262 E3.70111
G1 X116.036 Y100.294 E3.80161
G1 X117.864 Y102.169 E3.90217
G1 X117.832 Y104.788 E4.00274
G1 X115.957 Y106.616 E4.10330
G1 X113.337 Y106.584 E4.20389
G1 X112.360 Y105.579 E4.25771
G1 X112.145 Y105.724 E4.26766
G1 X112.284 Y106.040 E4.28089
G1 X113.216 Y110.513 E4.45636
G1 X113.211 Y111.781 E4.50505
G1 X113.455 Y111.831 E4.51461
G1 X114.062 Y110.383 E4.57489
G1 X116.485 Y109.390 E4.67543
G1 X118.899 Y110.402 E4.77596
G1 X119.892 Y112.825 E4.87649
G1 X118.880 Y115.239 E4.97702
G1 X116.457 Y116.232 E5.07756
G1 X114.043 Y115.220 E5.17809
G1 X113.447 Y113.766 E5.23841
G1 X113.203 Y113.814 E5.24796
G1 X113.198 Y115.082 E5.29665
G1 X112.230 Y119.549 E5.47215
G1 X112.088 Y119.864 E5.48544
G1 X112.301 Y120.011 E5.49538
G1 X113.288 Y119.013 E5.54927
G1 X115.907 Y119.002 E5.64984
G1 X117.769 Y120.844 E5.75039
G1 X117.780 Y123.463 E5.85096
G1 X115.938 Y125.325 E5.95151
G1 X113.319 Y125.336 E6.05208
G1 X111.457 Y123.494 E6.15263
G1 X111.451 Y121.849 E6.21577
G1 X111.216 Y121.800 E6.22497
G1 X110.354 Y123.714 E6.30558
G1 X107.526 Y127.576 E6.48942
G1 X105.991 Y127.571 E6.54837
G1 X105.991 Y127.570 E6.54839
G1 X100.763 Y127.549 E6.74914
G1 X100.747 Y131.534 E6.90214
G1 X100.528 Y131.533 E6.91056
G1 X100.528 Y131.533 E6.91056
G1 X95.045 Y131.511 E7.12110
G1 X95.061 Y127.527 E7.27410
G1 X87.763 Y127.497 E7.55434
G1 X87.747 Y131.482 E7.70734
G1 X87.528 Y131.481 E7.71575
G1 X87.528 Y131.481 E7.71575
G1 X82.045 Y131.459 E7.92630
G1 X82.061 Y127.475 E8.07930
G1 X75.298 Y127.448 E8.33898
G1 X72.500 Y123.564 E8.52279
G1 X71.653 Y121.640 E8.60350
G1 X71.418 Y121.688 E8.61270
G1 X71.398 Y123.334 E8.67591
G1 X69.522 Y125.163 E8.77648
G1 X66.905 Y125.127 E8.87698
G1 X65.078 Y123.253 E8.97752
G1 X65.110 Y120.636 E9.07802
G1 X66.985 Y118.808 E9.17858
G1 X69.605 Y118.840 E9.27917
G1 X70.584 Y119.846 E9.33307
G1 X70.799 Y119.701 E9.34302
G1 X70.658 Y119.382 E9.35641
G1 X69.711 Y114.841 E9.53453
G1 X69.726 Y114.841 E9.53508
G1 X69.731 Y113.643 E9.58110
G1 X69.487 Y113.593 E9.59066
G1 X68.880 Y115.041 E9.65094
G1 X66.457 Y116.034 E9.75147
G1 X64.043 Y115.022 E9.85200
G1 X63.050 Y112.600 E9.95253
G1 X64.062 Y110.183 E10.05315
G1 X66.484 Y109.192 E10.15364
G1 X68.901 Y110.202 E10.25422
G1 X69.494 Y111.654 E10.31446
G1 X69.739 Y111.607 E10.32402
G1 X69.744 Y110.340 E10.37266
G1 X70.784 Y105.545 E10.56108
G1 X70.605 Y105.448 E10.56890
G1 X69.654 Y106.408 E10.62081
G1 X67.035 Y106.422 E10.72139
G1 X65.173 Y104.577 E10.82202
G1 X65.163 Y102.020 E10.92023
G1 X65.540 Y102.115 F10800.000
G1 X67.162 Y100.476 F3000.000 E11.00879
G1 X69.469 Y100.466 E11.09737
G1 X71.108 Y102.088 E11.18593
G1 X71.118 Y104.393 E11.27443
G1 X69.496 Y106.032 E11.36298
G1 X67.189 Y106.044 E11.45157
G1 X65.550 Y104.419 E11.54020
G1 X65.540 Y102.174 E11.62642
G1 X65.918 Y102.269 F10800.000
G1 X67.320 Y100.852 F3000.000 E11.70299
G1 X69.315 Y100.844 E11.77958
G1 X70.732 Y102.246 E11.85615
G1 X70.740 Y104.239 E11.93266
G1 X69.338 Y105.656 E12.00923
G1 X67.343 Y105.666 E12.08582
G1 X65.926 Y104.262 E12.16244
G1 X65.918 Y102.328 E12.23668
G1 F1800.000 E11.23668
G92 E0
G1 X66.483 Y109.600 F10800.000
G1 F1800.000 E1.00000
G1 X68.611 Y110.489 F3000.000 E1.08858
G1 X69.484 Y112.625 E1.17719
G1 X68.592 Y114.751 E1.26571
G1 X66.459 Y115.626 E1.35426
G1 X64.333 Y114.734 E1.44280
G1 X63.458 Y112.601 E1.53134
G1 X64.350 Y110.473 E1.61996
G1 X66.428 Y109.622 E1.70619
G1 X66.481 Y110.008 F10800.000
G1 X68.322 Y110.777 F3000.000 E1.78278
G1 X69.076 Y112.623 E1.85938
G1 X68.305 Y114.462 E1.93593
G1 X66.461 Y115.218 E2.01248
G1 X64.622 Y114.447 E2.08903
G1 X63.866 Y112.603 E2.16559
G1 X64.637 Y110.762 E2.24221
G1 X66.427 Y110.030 E2.31646
G1 F1800.000 E1.31646
G92 E0
G1 X67.137 Y119.186 F10800.000
G1 F1800.000 E1.00000
G1 X69.444 Y119.215 F3000.000 E1.08859
G1 X71.052 Y120.867 E1.17710
G1 X71.023 Y123.173 E1.26568
G1 X69.371 Y124.784 E1.35426
G1 X67.066 Y124.752 E1.44277
G1 X65.456 Y123.101 E1.53132
G1 X65.485 Y120.797 E1.61983
G1 X67.094 Y119.228 E1.70612
G1 X67.288 Y119.565 F10800.000
G1 X69.283 Y119.590 F3000.000 E1.78272
G1 X70.673 Y121.018 E1.85924
G1 X70.648 Y123.012 E1.93583
G1 X69.220 Y124.405 E2.01241
G1 X67.227 Y124.378 E2.08893
G1 X65.835 Y122.950 E2.16550
G1 X65.860 Y120.958 E2.24202
G1 X67.246 Y119.607 E2.31632
G1 F1800.000 E1.31632
G92 E0
G1 X69.597 Y144.004 F10800.000
G1 F1800.000 E1.00000
G1 X71.799 Y144.926 F3000.000 E1.09169
G1 X72.704 Y147.136 E1.18340
G1 X71.782 Y149.341 E1.27516
G1 X69.572 Y150.246 E1.36688
G1 X67.367 Y149.324 E1.45865
G1 X66.462 Y147.111 E1.55047
G1 X67.387 Y144.909 E1.64218
G1 X69.542 Y144.026 E1.73161
G1 X69.595 Y144.412 F10800.000
G1 X71.509 Y145.214 F3000.000 E1.81130
G1 X72.296 Y147.135 E1.89103
G1 X71.495 Y149.051 E1.97080
G1 X69.573 Y149.838 E2.05053
G1 X67.657 Y149.037 E2.13030
G1 X66.870 Y147.113 E2.21012
G1 X67.674 Y145.199 E2.28984
G1 X69.540 Y144.434 E2.36729
G1 X69.593 Y144.820 F10800.000
G1 X71.220 Y145.501 F3000.000 E2.43499
G1 X71.888 Y147.133 E2.50273
G1 X71.207 Y148.762 E2.57051
G1 X69.575 Y149.430 E2.63825
G1 X67.946 Y148.749 E2.70602
G1 X67.278 Y147.114 E2.77384
G1 X67.961 Y145.488 E2.84157
G1 X69.539 Y144.842 E2.90704
G1 F1800.000 E1.90704
G92 E0
G1 X69.557 Y154.004 F10800.000
G1 F1800.000 E1.00000
G1 X71.759 Y154.926 F3000.000 E1.09169
G1 X72.664 Y157.136 E1.18340
G1 X71.742 Y159.341 E1.27516
G1 X69.531 Y160.246 E1.36689
G1 X67.329 Y159.324 E1.45858
G1 X66.424 Y157.111 E1.55038
G1 X67.346 Y154.909 E1.64206
G1 X69.502 Y154.026 E1.73151
G1 X69.555 Y154.412 F10800.000
G1 X71.469 Y155.214 F3000.000 E1.81120
G1 X72.256 Y157.135 E1.89093
G1 X71.455 Y159.051 E1.97070
G1 X69.533 Y159.838 E2.05043
G1 X67.619 Y159.036 E2.13013
G1 X66.832 Y157.113 E2.20994
G1 X67.634 Y155.199 E2.28963
G1 X69.500 Y154.434 E2.36709
G1 X69.553 Y154.820 F10800.000
G1 X71.180 Y155.501 F3000.000 E2.43479
G1 X71.848 Y157.133 E2.50253
G1 X71.167 Y158.762 E2.57031
G1 X69.535 Y159.430 E2.63805
G1 X67.908 Y158.749 E2.70575
G1 X67.240 Y157.115 E2.77356
G1 X67.921 Y155.488 E2.84127
G1 X69.499 Y154.842 E2.90674
G1 F1800.000 E1.90674
G92 E0
G1 X109.922 Y157.285 F10800.000
G1 F1800.000 E1.00000
G1 X110.846 Y155.083 F3000.000 E1.09170
G1 X113.057 Y154.175 E1.18345
G1 X115.259 Y155.101 E1.27518
G1 X116.164 Y157.311 E1.36689
G1 X115.242 Y159.513 E1.45857
G1 X113.032 Y160.418 E1.55029
G1 X110.827 Y159.496 E1.64204
G1 X109.944 Y157.340 E1.73153
G1 X110.330 Y157.287 F10800.000
G1 X111.134 Y155.373 F3000.000 E1.81124
G1 X113.055 Y154.584 E1.89100
G1 X114.969 Y155.388 E1.97074
G1 X115.756 Y157.309 E2.05046
G1 X114.954 Y159.223 E2.13015
G1 X113.033 Y160.010 E2.20988
G1 X111.117 Y159.209 E2.28965
G1 X110.352 Y157.341 E2.36712
G1 X110.738 Y157.289 F10800.000
G1 X111.421 Y155.662 F3000.000 E2.43485
G1 X113.053 Y154.992 E2.50262
G1 X114.680 Y155.675 E2.57036
G1 X115.348 Y157.307 E2.63810
G1 X114.667 Y158.934 E2.70580
G1 X113.035 Y159.602 E2.77354
G1 X111.406 Y158.921 E2.84132
G1 X110.760 Y157.343 E2.90679
G1 F1800.000 E1.90679
G92 E0
G1 X113.072 Y150.418 F10800.000
G1 F1800.000 E1.00000
G1 X110.867 Y149.496 F3000.000 E1.09176
G1 X109.962 Y147.285 E1.18351
G1 X110.886 Y145.083 E1.27521
G1 X113.097 Y144.175 E1.36696
G1 X115.299 Y145.101 E1.45869
G1 X116.204 Y147.311 E1.55040
G1 X115.282 Y149.513 E1.64208
G1 X113.126 Y150.396 E1.73153
G1 X113.073 Y150.010 F10800.000
G1 X111.157 Y149.209 F3000.000 E1.81129
G1 X110.370 Y147.287 E1.89104
G1 X111.174 Y145.373 E1.97075
G1 X113.095 Y144.584 E2.05051
G1 X115.009 Y145.388 E2.13025
G1 X115.796 Y147.309 E2.20997
G1 X114.994 Y149.223 E2.28967
G1 X113.128 Y149.988 E2.36712
G1 X113.075 Y149.602 F10800.000
G1 X111.446 Y148.921 F3000.000 E2.43490
G1 X110.778 Y147.289 E2.50264
G1 X111.461 Y145.662 E2.57037
G1 X113.093 Y144.992 E2.63814
G1 X114.720 Y145.675 E2.70588
G1 X115.388 Y147.307 E2.77362
G1 X114.707 Y148.934 E2.84132
G1 X113.129 Y149.580 E2.90679
G1 F1800.000 E1.90679
G92 E0
G1 X100.371 Y131.155 F10800.000
G1 F1800.000 E1.00000
G1 X100.151 Y131.154 F3000.000 E1.00847
G1 X100.151 Y131.154 E1.00848
G1 X95.423 Y131.135 E1.19001
G1 X95.439 Y127.151 E1.34301
G1 X87.387 Y127.119 E1.65220
G1 X87.371 Y131.103 E1.80520
G1 X87.151 Y131.102 E1.81367
G1 X87.151 Y131.102 E1.81367
G1 X82.423 Y131.083 E1.99521
G1 X82.439 Y127.099 E2.14821
G1 X75.492 Y127.072 E2.41499
G1 X72.829 Y123.376 E2.58990
G1 X71.019 Y119.267 E2.76233
G1 X70.175 Y115.218 E2.92112
G1 X70.175 Y115.218 E2.92112
G1 X70.103 Y114.871 E2.93475
G1 X70.121 Y110.381 E3.10715
G1 X71.046 Y106.114 E3.27482
G1 X71.046 Y106.114 E3.27482
G1 X71.072 Y105.994 E3.27954
G1 X72.915 Y101.899 E3.45197
G1 X75.607 Y98.224 E3.62691
G1 X82.055 Y98.249 E3.87450
G1 X82.074 Y93.482 E4.05754
G1 X82.812 Y93.057 E4.09025
G1 X87.090 Y91.686 E4.26274
G1 X91.544 Y91.236 E4.43465
G1 X91.544 Y91.233 E4.43475
G1 X91.563 Y91.235 E4.43550
G1 X91.563 Y91.235 E4.43550
G1 X96.020 Y91.723 E4.60767
G1 X100.284 Y93.126 E4.78005
G1 X101.022 Y93.555 E4.81283
G1 X101.003 Y98.325 E4.99600
G1 X107.451 Y98.352 E5.24359
G1 X110.113 Y102.048 E5.41851
G1 X111.923 Y106.155 E5.59086
G1 X112.839 Y110.551 E5.76329
G1 X112.821 Y115.041 E5.93569
