(** This GCode was generated by ReplicatorG 0033-beta **)
(*  using Skeinforge (35)  *)
(*  for a Single headed Thing-O-Matic  *)
(*  on 2012/03/18 14:27:24 (-0400) *)
(**** beginning of start.gcode ****)
(This file is for a MakerBot Thing-O-Matic)
(**** begin initialization commands ****)
G21 (set units to mm)
G90 (set positioning to absolute)
M108 R5.0 (set extruder speed)
M103 (Make sure extruder is off)
M104 S225 T0 (set extruder temperature)
M109 S115 T0 (set heated-build-platform temperature)
(**** end initialization commands ****)
(**** begin homing ****)
G162 Z F500 (home Z axis maximum)
G92 Z10 (set Z to 10)
G1 Z0 (move Z down 0)
G162 Z F100 (home Z axis maximum)
G161 X Y F2500 (home XY axes minimum)
M132 X Y Z A B (Recall stored home offsets for XYZAB axis)
(**** end homing ****)
(**** begin pre-wipe commands ****)
G1 X52 Y-57.0 Z10 F3300.0 (move to waiting position)
M6 T0 (wait for toolhead parts, nozzle, HBP, etc., to reach temperature)
G0 X25 Y-57 (Position Nozzle)
G0 Z0.6     (Position Height)
M108 R4.0   (Set Extruder Speed)
M101        (Start Extruder)
G4 P1500    (Create Anchor)
(**** end pre-wipe commands ****)
(**** end of start.gcode ****)

(<creation> skeinforge </creation>)
(<version> 10.11.05 </version>)
(<extruderInitialization>)
(<craftTypeName> extrusion </craftTypeName>)
M105
(<bridgeWidthMultiplier> 1.0 </bridgeWidthMultiplier>)
(<decimalPlacesCarried> 3 </decimalPlacesCarried>)
(<layerThickness> 0.3 </layerThickness>)
(<threadSequenceString> loops perimeter infill </threadSequenceString>)
(<operatingFeedRatePerSecond> 100.0 </operatingFeedRatePerSecond>)
(<operatingFlowRate> 11.095341392 </operatingFlowRate>)
(<orbitalFeedRatePerSecond> 50.0 </orbitalFeedRatePerSecond>)
(<travelFeedRatePerSecond> 100.0 </travelFeedRatePerSecond>)
(<perimeterWidth> 0.419 </perimeterWidth>)
(<profileName> ABS </profileName>)
(<procedureDone> carve,bottom </procedureDone>)
(<procedureDone> preface </procedureDone>)
(<procedureDone> inset </procedureDone>)
(<procedureDone> fill </procedureDone>)
(<procedureDone> multiply </procedureDone>)
(<procedureDone> speed </procedureDone>)
(<procedureDone> raft </procedureDone>)
(<procedureDone> jitter </procedureDone>)
(<procedureDone> comb </procedureDone>)
(<procedureDone> cool </procedureDone>)
(<procedureDone> outline </procedureDone>)
(<procedureDone> reversal </procedureDone>)
(<procedureDone> export </procedureDone>)
(</extruderInitialization>)
(<extrusion>)
;M113 S1.0
M108 R11.1
(<layer> 0.25 )
(<surroundingLoop>)
(<boundaryPerimeter>)
(<boundaryPoint> X-16.929 Y15.55 Z0.25 </boundaryPoint>)
(<boundaryPoint> X-39.029 Y15.55 Z0.25 </boundaryPoint>)
(<boundaryPoint> X-39.029 Y-15.55 Z0.25 </boundaryPoint>)
(<boundaryPoint> X-16.987 Y-15.55 Z0.25 </boundaryPoint>)
(<boundaryPoint> X-16.929 Y-15.169 Z0.25 </boundaryPoint>)
(<loop> inner )
M108 R6.657
G1 X40.81 Y17.34 Z0.25 F3600.0
M101
G1 X40.81 Y-17.34 Z0.25 F3600.0
G1 X-40.82 Y-17.34 Z0.25 F3600.0
G1 X-40.82 Y17.34 Z0.25 F3600.0
G1 X39.91 Y17.34 Z0.25 F3600.0
M108 R30.0
M102
G1 X40.81 Y17.34 Z0.25 F3600.0
M108 R6.657
M103
G1 X-26.18 Y3.8 Z0.25 F6000.0
M108 R30.0
M101
G1 X-27.75 Y3.48 Z0.25 F6000.0
M108 R6.657
G1 X-28.95 Y3.63 Z0.25 F3600.0
G1 X-30.02 Y4.37 Z0.25 F3600.0
G1 X-30.62 Y5.52 Z0.25 F3600.0
G1 X-30.62 Y6.83 Z0.25 F3600.0
G1 X-30.02 Y7.98 Z0.25 F3600.0
G1 X-28.95 Y8.72 Z0.25 F3600.0
G1 X-27.65 Y8.88 Z0.25 F3600.0
G1 X-26.43 Y8.42 Z0.25 F3600.0
G1 X-25.57 Y7.44 Z0.25 F3600.0
G1 X-25.26 Y6.17 Z0.25 F3600.0
G1 X-25.57 Y4.91 Z0.25 F3600.0
G1 X-26.43 Y3.93 Z0.25 F3600.0
G1 X-26.9 Y3.76 Z0.25 F3600.0
M108 R30.0
M102
G1 X-27.65 Y3.47 Z0.25 F3600.0
G1 X-27.75 Y3.48 Z0.25 F3600.0
M108 R6.657
M103
(</loop>)
(<loop> inner )
G1 X-27.67 Y-1.87 Z0.25 F6000.0
M108 R30.0
M101
G1 X-27.65 Y-3.47 Z0.25 F6000.0
M108 R6.657
G1 X-26.43 Y-3.93 Z0.25 F3600.0
G1 X-25.57 Y-4.91 Z0.25 F3600.0
G1 X-25.26 Y-6.17 Z0.25 F3600.0
G1 X-25.57 Y-7.44 Z0.25 F3600.0
G1 X-26.43 Y-8.42 Z0.25 F3600.0
G1 X-27.65 Y-8.88 Z0.25 F3600.0
G1 X-28.95 Y-8.72 Z0.25 F3600.0
G1 X-30.02 Y-7.98 Z0.25 F3600.0
G1 X-30.62 Y-6.83 Z0.25 F3600.0
G1 X-30.62 Y-5.52 Z0.25 F3600.0
G1 X-30.02 Y-4.37 Z0.25 F3600.0
G1 X-28.95 Y-3.63 Z0.25 F3600.0
G1 X-28.54 Y-3.58 Z0.25 F3600.0
M108 R30.0
M102
G1 X-27.65 Y-3.47 Z0.25 F3600.0
M108 R6.657
M103
(</loop>)
(<loop> outer )
G1 X-19.16 Y-3.47 Z0.25 F6000.0
M108 R30.0
M101
G1 X-17.56 Y-3.47 Z0.25 F6000.0
M108 R6.657
G1 X-17.56 Y14.92 Z0.25 F3600.0
G1 X-38.4 Y14.92 Z0.25 F3600.0
G1 X-38.4 Y-14.92 Z0.25 F3600.0
G1 X-18.26 Y-14.92 Z0.25 F3600.0
G1 X-17.56 Y-14.8 Z0.25 F3600.0
G1 X-17.56 Y-3.47 Z0.25 F3600.0
M103
(</loop>)
(<perimeter> outer )
G1 X-17.14 Y-3.47 Z0.25 F6000.0
M101
G1 X-17.14 Y15.34 Z0.25 F3600.0
G1 X-38.82 Y15.34 Z0.25 F3600.0
G1 X-38.82 Y-15.34 Z0.25 F3600.0
G1 X-17.17 Y-15.34 Z0.25 F3600.0
G1 X-17.14 Y-15.15 Z0.25 F3600.0
G1 X-17.14 Y-4.37 Z0.25 F3600.0
M108 R30.0
M102
G1 X-17.14 Y-3.47 Z0.25 F3600.0
M108 R6.657
M103
(</perimeter>)
(</boundaryPerimeter>)
(<surroundingLoop>)
(<boundaryPerimeter>)
(<boundaryPoint> X-28.715 Y-4.235 Z0.25 </boundaryPoint>)
(<boundaryPoint> X-27.729 Y-4.115 Z0.25 </boundaryPoint>)
(<boundaryPoint> X-26.8 Y-4.467 Z0.25 </boundaryPoint>)
(<boundaryPoint> X-26.142 Y-5.211 Z0.25 </boundaryPoint>)
(<boundaryPoint> X-25.904 Y-6.175 Z0.25 </boundaryPoint>)
(<boundaryPoint> X-26.142 Y-7.139 Z0.25 </boundaryPoint>)
(<boundaryPoint> X-26.8 Y-7.883 Z0.25 </boundaryPoint>)
(<boundaryPoint> X-27.729 Y-8.235 Z0.25 </boundaryPoint>)
(<boundaryPoint> X-28.715 Y-8.115 Z0.25 </boundaryPoint>)
(<boundaryPoint> X-29.532 Y-7.551 Z0.25 </boundaryPoint>)
(<boundaryPoint> X-29.994 Y-6.672 Z0.25 </boundaryPoint>)
(<boundaryPoint> X-29.994 Y-5.678 Z0.25 </boundaryPoint>)
(<boundaryPoint> X-29.532 Y-4.799 Z0.25 </boundaryPoint>)
(<perimeter> inner )
G1 X-24.27 Y-5.24 Z0.25 F6000.0
M108 R30.0
M101
G1 X-25.82 Y-5.62 Z0.25 F6000.0
M108 R6.657
G1 X-25.69 Y-6.17 Z0.25 F3600.0
G1 X-25.95 Y-7.24 Z0.25 F3600.0
G1 X-26.68 Y-8.06 Z0.25 F3600.0
G1 X-27.7 Y-8.45 Z0.25 F3600.0
G1 X-28.79 Y-8.32 Z0.25 F3600.0
G1 X-29.69 Y-7.69 Z0.25 F3600.0
G1 X-30.2 Y-6.72 Z0.25 F3600.0
G1 X-30.2 Y-5.63 Z0.25 F3600.0
G1 X-29.69 Y-4.66 Z0.25 F3600.0
G1 X-28.79 Y-4.03 Z0.25 F3600.0
G1 X-27.7 Y-3.9 Z0.25 F3600.0
G1 X-26.68 Y-4.29 Z0.25 F3600.0
G1 X-26.2 Y-4.83 Z0.25 F3600.0
M108 R30.0
M102
G1 X-25.95 Y-5.11 Z0.25 F3600.0
G1 X-25.82 Y-5.62 Z0.25 F3600.0
M108 R6.657
M103
(</perimeter>)
(</boundaryPerimeter>)
(</surroundingLoop>)
(<surroundingLoop>)
(<boundaryPerimeter>)
(<boundaryPoint> X-29.532 Y7.551 Z0.25 </boundaryPoint>)
(<boundaryPoint> X-28.715 Y8.115 Z0.25 </boundaryPoint>)
(<boundaryPoint> X-27.729 Y8.235 Z0.25 </boundaryPoint>)
(<boundaryPoint> X-26.8 Y7.883 Z0.25 </boundaryPoint>)
(<boundaryPoint> X-26.142 Y7.139 Z0.25 </boundaryPoint>)
(<boundaryPoint> X-25.904 Y6.175 Z0.25 </boundaryPoint>)
(<boundaryPoint> X-26.142 Y5.211 Z0.25 </boundaryPoint>)
(<boundaryPoint> X-26.8 Y4.467 Z0.25 </boundaryPoint>)
(<boundaryPoint> X-27.729 Y4.115 Z0.25 </boundaryPoint>)
(<boundaryPoint> X-28.715 Y4.235 Z0.25 </boundaryPoint>)
(<boundaryPoint> X-29.532 Y4.799 Z0.25 </boundaryPoint>)
(<boundaryPoint> X-29.994 Y5.678 Z0.25 </boundaryPoint>)
(<boundaryPoint> X-29.994 Y6.672 Z0.25 </boundaryPoint>)
(<perimeter> inner )
G1 X-27.39 Y2.33 Z0.25 F6000.0
M108 R30.0
M101
G1 X-27.7 Y3.9 Z0.25 F6000.0
M108 R6.657
G1 X-28.79 Y4.03 Z0.25 F3600.0
G1 X-29.69 Y4.66 Z0.25 F3600.0
G1 X-30.2 Y5.63 Z0.25 F3600.0
G1 X-30.2 Y6.72 Z0.25 F3600.0
G1 X-29.69 Y7.69 Z0.25 F3600.0
G1 X-28.79 Y8.32 Z0.25 F3600.0
G1 X-27.7 Y8.45 Z0.25 F3600.0
G1 X-26.68 Y8.06 Z0.25 F3600.0
G1 X-25.95 Y7.24 Z0.25 F3600.0
G1 X-25.69 Y6.17 Z0.25 F3600.0
G1 X-25.95 Y5.11 Z0.25 F3600.0
G1 X-26.68 Y4.29 Z0.25 F3600.0
G1 X-26.86 Y4.22 Z0.25 F3600.0
M108 R30.0
M102
G1 X-27.7 Y3.9 Z0.25 F3600.0
M108 R6.657
M103
(</perimeter>)
(</boundaryPerimeter>)
(</surroundingLoop>)
G1 X-26.48 Y-2.75 Z0.25 F3600.0
M108 R30.0
M101
G1 X-26.3 Y-3.69 Z0.25 F3600.0
M108 R6.657
G1 X-26.3 Y3.69 Z0.25 F3600.0
G1 X-25.89 Y4.14 Z0.25 F3600.0
G1 X-25.89 Y-4.14 Z0.25 F3600.0
G1 X-25.47 Y-4.62 Z0.25 F3600.0
G1 X-25.47 Y3.72 Z0.25 F3600.0
M108 R30.0
M102
G1 X-25.47 Y4.62 Z0.25 F3600.0
M108 R6.657
M103
G1 X-25.35 Y4.98 Z0.25 F3600.0
M108 R30.0
M101
G1 X-25.05 Y5.89 Z0.25 F3600.0
M108 R6.657
G1 X-25.05 Y-5.89 Z0.25 F3600.0
M103
G1 X-25.05 Y-6.46 Z0.25 F3600.0
M101
G1 X-25.05 Y-14.65 Z0.25 F3600.0
G1 X-25.47 Y-14.65 Z0.25 F3600.0
G1 X-25.47 Y-7.73 Z0.25 F3600.0
G1 X-25.89 Y-8.21 Z0.25 F3600.0
G1 X-25.89 Y-14.65 Z0.25 F3600.0
G1 X-26.3 Y-14.65 Z0.25 F3600.0
G1 X-26.3 Y-8.66 Z0.25 F3600.0
M103
G1 X-26.72 Y-8.82 Z0.25 F3600.0
M101
G1 X-26.72 Y-14.65 Z0.25 F3600.0
G1 X-27.14 Y-14.65 Z0.25 F3600.0
G1 X-27.14 Y-8.97 Z0.25 F3600.0
M103
G1 X-27.56 Y-9.13 Z0.25 F3600.0
M101
G1 X-27.56 Y-14.65 Z0.25 F3600.0
G1 X-27.98 Y-14.65 Z0.25 F3600.0
G1 X-27.98 Y-9.11 Z0.25 F3600.0
M103
G1 X-28.4 Y-9.06 Z0.25 F3600.0
M101
G1 X-28.4 Y-14.65 Z0.25 F3600.0
G1 X-28.82 Y-14.65 Z0.25 F3600.0
G1 X-28.82 Y-9.01 Z0.25 F3600.0
M103
G1 X-29.24 Y-8.85 Z0.25 F3600.0
M101
G1 X-29.24 Y-14.65 Z0.25 F3600.0
G1 X-29.66 Y-14.65 Z0.25 F3600.0
G1 X-29.66 Y-8.56 Z0.25 F3600.0
G1 X-30.07 Y-8.27 Z0.25 F3600.0
G1 X-30.07 Y-14.65 Z0.25 F3600.0
G1 X-30.49 Y-14.65 Z0.25 F3600.0
G1 X-30.49 Y-8.56 Z0.25 F3600.0
M108 R30.0
M102
G1 X-30.49 Y-7.66 Z0.25 F3600.0
M108 R6.657
M103
G1 X-30.49 Y-5.65 Z0.25 F3600.0
M108 R30.0
M101
G1 X-30.49 Y-4.69 Z0.25 F3600.0
M108 R6.657
G1 X-30.49 Y4.69 Z0.25 F3600.0
M103
G1 X-30.07 Y4.08 Z0.25 F3600.0
M101
G1 X-30.07 Y-4.08 Z0.25 F3600.0
G1 X-29.66 Y-3.79 Z0.25 F3600.0
G1 X-29.66 Y3.79 Z0.25 F3600.0
G1 X-29.24 Y3.5 Z0.25 F3600.0
G1 X-29.24 Y-3.5 Z0.25 F3600.0
M103
G1 X-28.82 Y-3.34 Z0.25 F3600.0
M101
G1 X-28.82 Y3.34 Z0.25 F3600.0
G1 X-28.4 Y3.29 Z0.25 F3600.0
G1 X-28.4 Y-3.29 Z0.25 F3600.0
M103
G1 X-27.98 Y-3.24 Z0.25 F3600.0
M101
G1 X-27.98 Y3.24 Z0.25 F3600.0
G1 X-27.56 Y3.22 Z0.25 F3600.0
G1 X-27.56 Y-3.22 Z0.25 F3600.0
M103
G1 X-27.14 Y-3.38 Z0.25 F3600.0
M101
G1 X-27.14 Y3.38 Z0.25 F3600.0
G1 X-26.72 Y3.53 Z0.25 F3600.0
G1 X-26.72 Y-2.63 Z0.25 F3600.0
M108 R30.0
M102
G1 X-26.72 Y-3.53 Z0.25 F3600.0
M108 R6.657
M103
G1 X-18.52 Y-13.84 Z0.25 F3600.0
M108 R30.0
M101
G1 X-17.93 Y-14.59 Z0.25 F3600.0
M108 R6.657
G1 X-17.93 Y14.65 Z0.25 F3600.0
G1 X-18.34 Y14.65 Z0.25 F3600.0
G1 X-18.34 Y-14.65 Z0.25 F3600.0
G1 X-18.76 Y-14.65 Z0.25 F3600.0
G1 X-18.76 Y14.65 Z0.25 F3600.0
G1 X-19.18 Y14.65 Z0.25 F3600.0
G1 X-19.18 Y-14.65 Z0.25 F3600.0
G1 X-19.6 Y-14.65 Z0.25 F3600.0
G1 X-19.6 Y14.65 Z0.25 F3600.0
G1 X-20.02 Y14.65 Z0.25 F3600.0
G1 X-20.02 Y-14.65 Z0.25 F3600.0
G1 X-20.44 Y-14.65 Z0.25 F3600.0
G1 X-20.44 Y14.65 Z0.25 F3600.0
G1 X-20.86 Y14.65 Z0.25 F3600.0
G1 X-20.86 Y-14.65 Z0.25 F3600.0
G1 X-21.28 Y-14.65 Z0.25 F3600.0
G1 X-21.28 Y14.65 Z0.25 F3600.0
G1 X-21.7 Y14.65 Z0.25 F3600.0
G1 X-21.7 Y-14.65 Z0.25 F3600.0
G1 X-22.11 Y-14.65 Z0.25 F3600.0
G1 X-22.11 Y14.65 Z0.25 F3600.0
G1 X-22.53 Y14.65 Z0.25 F3600.0
G1 X-22.53 Y-14.65 Z0.25 F3600.0
G1 X-22.95 Y-14.65 Z0.25 F3600.0
G1 X-22.95 Y14.65 Z0.25 F3600.0
G1 X-23.37 Y14.65 Z0.25 F3600.0
G1 X-23.37 Y-14.65 Z0.25 F3600.0
G1 X-23.79 Y-14.65 Z0.25 F3600.0
G1 X-23.79 Y14.65 Z0.25 F3600.0
G1 X-24.21 Y14.65 Z0.25 F3600.0
G1 X-24.21 Y-14.65 Z0.25 F3600.0
G1 X-24.63 Y-14.65 Z0.25 F3600.0
G1 X-24.63 Y14.65 Z0.25 F3600.0
G1 X-25.05 Y14.65 Z0.25 F3600.0
G1 X-25.05 Y7.36 Z0.25 F3600.0
M108 R30.0
M102
G1 X-25.05 Y6.46 Z0.25 F3600.0
M108 R6.657
M103
G1 X-25.17 Y6.82 Z0.25 F3600.0
M108 R30.0
M101
G1 X-25.47 Y7.73 Z0.25 F3600.0
M108 R6.657
G1 X-25.47 Y14.65 Z0.25 F3600.0
G1 X-25.89 Y14.65 Z0.25 F3600.0
G1 X-25.89 Y8.21 Z0.25 F3600.0
G1 X-26.3 Y8.66 Z0.25 F3600.0
G1 X-26.3 Y14.65 Z0.25 F3600.0
G1 X-26.72 Y14.65 Z0.25 F3600.0
G1 X-26.72 Y8.82 Z0.25 F3600.0
M103
G1 X-27.14 Y8.97 Z0.25 F3600.0
M101
G1 X-27.14 Y14.65 Z0.25 F3600.0
G1 X-27.56 Y14.65 Z0.25 F3600.0
G1 X-27.56 Y9.13 Z0.25 F3600.0
G1 X-27.98 Y9.11 Z0.25 F3600.0
G1 X-27.98 Y14.65 Z0.25 F3600.0
G1 X-28.4 Y14.65 Z0.25 F3600.0
G1 X-28.4 Y9.06 Z0.25 F3600.0
G1 X-28.82 Y9.01 Z0.25 F3600.0
G1 X-28.82 Y14.65 Z0.25 F3600.0
G1 X-29.24 Y14.65 Z0.25 F3600.0
G1 X-29.24 Y8.85 Z0.25 F3600.0
G1 X-29.66 Y8.56 Z0.25 F3600.0
G1 X-29.66 Y14.65 Z0.25 F3600.0
G1 X-30.07 Y14.65 Z0.25 F3600.0
G1 X-30.07 Y8.27 Z0.25 F3600.0
M103
G1 X-30.49 Y7.66 Z0.25 F3600.0
M101
G1 X-30.49 Y14.65 Z0.25 F3600.0
G1 X-30.91 Y14.65 Z0.25 F3600.0
G1 X-30.91 Y-14.65 Z0.25 F3600.0
G1 X-31.33 Y-14.65 Z0.25 F3600.0
G1 X-31.33 Y14.65 Z0.25 F3600.0
G1 X-31.75 Y14.65 Z0.25 F3600.0
G1 X-31.75 Y-14.65 Z0.25 F3600.0
G1 X-32.17 Y-14.65 Z0.25 F3600.0
G1 X-32.17 Y14.65 Z0.25 F3600.0
G1 X-32.59 Y14.65 Z0.25 F3600.0
G1 X-32.59 Y-14.65 Z0.25 F3600.0
G1 X-33.01 Y-14.65 Z0.25 F3600.0
G1 X-33.01 Y14.65 Z0.25 F3600.0
G1 X-33.42 Y14.65 Z0.25 F3600.0
G1 X-33.42 Y-14.65 Z0.25 F3600.0
G1 X-33.84 Y-14.65 Z0.25 F3600.0
G1 X-33.84 Y14.65 Z0.25 F3600.0
G1 X-34.26 Y14.65 Z0.25 F3600.0
G1 X-34.26 Y-14.65 Z0.25 F3600.0
G1 X-34.68 Y-14.65 Z0.25 F3600.0
G1 X-34.68 Y14.65 Z0.25 F3600.0
G1 X-35.1 Y14.65 Z0.25 F3600.0
G1 X-35.1 Y-14.65 Z0.25 F3600.0
G1 X-35.52 Y-14.65 Z0.25 F3600.0
G1 X-35.52 Y14.65 Z0.25 F3600.0
G1 X-35.94 Y14.65 Z0.25 F3600.0
G1 X-35.94 Y-14.65 Z0.25 F3600.0
G1 X-36.36 Y-14.65 Z0.25 F3600.0
G1 X-36.36 Y14.65 Z0.25 F3600.0
G1 X-36.77 Y14.65 Z0.25 F3600.0
G1 X-36.77 Y-14.65 Z0.25 F3600.0
G1 X-37.19 Y-14.65 Z0.25 F3600.0
G1 X-37.19 Y14.65 Z0.25 F3600.0
G1 X-37.61 Y14.65 Z0.25 F3600.0
G1 X-37.61 Y-14.65 Z0.25 F3600.0
G1 X-38.03 Y-14.65 Z0.25 F3600.0
G1 X-38.03 Y13.75 Z0.25 F3600.0
M108 R30.0
M102
G1 X-38.03 Y14.65 Z0.25 F3600.0
M108 R6.657
M103
(</surroundingLoop>)
(<surroundingLoop>)
(<boundaryPerimeter>)
(<boundaryPoint> X11.046 Y15.55 Z0.25 </boundaryPoint>)
(<boundaryPoint> X-11.054 Y15.55 Z0.25 </boundaryPoint>)
(<boundaryPoint> X-11.054 Y-15.55 Z0.25 </boundaryPoint>)
(<boundaryPoint> X10.988 Y-15.55 Z0.25 </boundaryPoint>)
(<boundaryPoint> X11.046 Y-15.169 Z0.25 </boundaryPoint>)
(<loop> inner )
G1 X-4.16 Y7.26 Z0.25 F6000.0
M108 R30.0
M101
G1 X-2.6 Y6.92 Z0.25 F6000.0
M108 R6.657
G1 X-2.04 Y7.98 Z0.25 F3600.0
G1 X-0.97 Y8.72 Z0.25 F3600.0
G1 X0.32 Y8.88 Z0.25 F3600.0
G1 X1.54 Y8.42 Z0.25 F3600.0
G1 X2.41 Y7.44 Z0.25 F3600.0
G1 X2.72 Y6.17 Z0.25 F3600.0
G1 X2.41 Y4.91 Z0.25 F3600.0
G1 X1.54 Y3.93 Z0.25 F3600.0
G1 X0.32 Y3.47 Z0.25 F3600.0
G1 X-0.97 Y3.63 Z0.25 F3600.0
G1 X-2.04 Y4.37 Z0.25 F3600.0
G1 X-2.65 Y5.52 Z0.25 F3600.0
G1 X-2.65 Y6.03 Z0.25 F3600.0
M108 R30.0
M102
G1 X-2.65 Y6.83 Z0.25 F3600.0
G1 X-2.6 Y6.92 Z0.25 F3600.0
M108 R6.657
M103
(</loop>)
(<loop> inner )
G1 X-1.22 Y-2.05 Z0.25 F6000.0
M108 R30.0
M101
G1 X-0.97 Y-3.63 Z0.25 F6000.0
M108 R6.657
G1 X0.32 Y-3.47 Z0.25 F3600.0
G1 X1.54 Y-3.93 Z0.25 F3600.0
G1 X2.41 Y-4.91 Z0.25 F3600.0
G1 X2.72 Y-6.17 Z0.25 F3600.0
G1 X2.41 Y-7.44 Z0.25 F3600.0
G1 X1.54 Y-8.42 Z0.25 F3600.0
G1 X0.32 Y-8.88 Z0.25 F3600.0
G1 X-0.97 Y-8.72 Z0.25 F3600.0
G1 X-2.04 Y-7.98 Z0.25 F3600.0
G1 X-2.65 Y-6.83 Z0.25 F3600.0
G1 X-2.65 Y-5.52 Z0.25 F3600.0
G1 X-2.04 Y-4.37 Z0.25 F3600.0
G1 X-1.71 Y-4.14 Z0.25 F3600.0
M108 R30.0
M102
G1 X-0.97 Y-3.63 Z0.25 F3600.0
M108 R6.657
M103
(</loop>)
(<loop> outer )
G1 X-8.83 Y-3.63 Z0.25 F6000.0
M108 R30.0
M101
G1 X-10.43 Y-3.63 Z0.25 F6000.0
M108 R6.657
G1 X-10.43 Y-14.92 Z0.25 F3600.0
G1 X9.72 Y-14.92 Z0.25 F3600.0
G1 X10.42 Y-14.8 Z0.25 F3600.0
G1 X10.42 Y-3.47 Z0.25 F3600.0
G1 X10.42 Y14.92 Z0.25 F3600.0
G1 X-10.43 Y14.92 Z0.25 F3600.0
G1 X-10.43 Y-3.63 Z0.25 F3600.0
M103
(</loop>)
(<perimeter> outer )
G1 X-10.85 Y-3.63 Z0.25 F6000.0
M101
G1 X-10.85 Y-15.34 Z0.25 F3600.0
G1 X10.81 Y-15.34 Z0.25 F3600.0
G1 X10.84 Y-15.15 Z0.25 F3600.0
G1 X10.84 Y-3.47 Z0.25 F3600.0
G1 X10.84 Y15.34 Z0.25 F3600.0
G1 X-10.85 Y15.34 Z0.25 F3600.0
G1 X-10.85 Y-2.73 Z0.25 F3600.0
M108 R30.0
M102
G1 X-10.85 Y-3.63 Z0.25 F3600.0
M108 R6.657
M103
(</perimeter>)
(</boundaryPerimeter>)
(<surroundingLoop>)
(<boundaryPerimeter>)
(<boundaryPoint> X-0.74 Y-4.235 Z0.25 </boundaryPoint>)
(<boundaryPoint> X0.246 Y-4.115 Z0.25 </boundaryPoint>)
(<boundaryPoint> X1.175 Y-4.467 Z0.25 </boundaryPoint>)
(<boundaryPoint> X1.833 Y-5.211 Z0.25 </boundaryPoint>)
(<boundaryPoint> X2.071 Y-6.175 Z0.25 </boundaryPoint>)
(<boundaryPoint> X1.833 Y-7.139 Z0.25 </boundaryPoint>)
(<boundaryPoint> X1.175 Y-7.883 Z0.25 </boundaryPoint>)
(<boundaryPoint> X0.246 Y-8.235 Z0.25 </boundaryPoint>)
(<boundaryPoint> X-0.74 Y-8.115 Z0.25 </boundaryPoint>)
(<boundaryPoint> X-1.557 Y-7.551 Z0.25 </boundaryPoint>)
(<boundaryPoint> X-2.019 Y-6.672 Z0.25 </boundaryPoint>)
(<boundaryPoint> X-2.019 Y-5.678 Z0.25 </boundaryPoint>)
(<boundaryPoint> X-1.557 Y-4.799 Z0.25 </boundaryPoint>)
(<perimeter> inner )
G1 X-3.79 Y-5.26 Z0.25 F6000.0
M108 R30.0
M101
G1 X-2.23 Y-5.63 Z0.25 F6000.0
M108 R6.657
G1 X-1.72 Y-4.66 Z0.25 F3600.0
G1 X-0.82 Y-4.03 Z0.25 F3600.0
G1 X0.27 Y-3.9 Z0.25 F3600.0
G1 X1.3 Y-4.29 Z0.25 F3600.0
G1 X2.02 Y-5.11 Z0.25 F3600.0
G1 X2.15 Y-5.62 Z0.25 F3600.0
G1 X2.29 Y-6.17 Z0.25 F3600.0
G1 X2.02 Y-7.24 Z0.25 F3600.0
G1 X1.3 Y-8.06 Z0.25 F3600.0
G1 X0.27 Y-8.45 Z0.25 F3600.0
G1 X-0.82 Y-8.32 Z0.25 F3600.0
G1 X-1.72 Y-7.69 Z0.25 F3600.0
G1 X-2.23 Y-6.72 Z0.25 F3600.0
G1 X-2.23 Y-6.53 Z0.25 F3600.0
M108 R30.0
M102
G1 X-2.23 Y-5.63 Z0.25 F3600.0
M108 R6.657
M103
(</perimeter>)
(</boundaryPerimeter>)
(</surroundingLoop>)
(<surroundingLoop>)
(<boundaryPerimeter>)
(<boundaryPoint> X-1.557 Y7.551 Z0.25 </boundaryPoint>)
(<boundaryPoint> X-0.74 Y8.115 Z0.25 </boundaryPoint>)
(<boundaryPoint> X0.246 Y8.235 Z0.25 </boundaryPoint>)
(<boundaryPoint> X1.175 Y7.883 Z0.25 </boundaryPoint>)
(<boundaryPoint> X1.833 Y7.139 Z0.25 </boundaryPoint>)
(<boundaryPoint> X2.071 Y6.175 Z0.25 </boundaryPoint>)
(<boundaryPoint> X1.833 Y5.211 Z0.25 </boundaryPoint>)
(<boundaryPoint> X1.175 Y4.467 Z0.25 </boundaryPoint>)
(<boundaryPoint> X0.246 Y4.115 Z0.25 </boundaryPoint>)
(<boundaryPoint> X-0.74 Y4.235 Z0.25 </boundaryPoint>)
(<boundaryPoint> X-1.557 Y4.799 Z0.25 </boundaryPoint>)
(<boundaryPoint> X-2.019 Y5.678 Z0.25 </boundaryPoint>)
(<boundaryPoint> X-2.019 Y6.672 Z0.25 </boundaryPoint>)
(<perimeter> inner )
G1 X-1.05 Y2.45 Z0.25 F6000.0
M108 R30.0
M101
G1 X-0.82 Y4.03 Z0.25 F6000.0
M108 R6.657
G1 X-1.72 Y4.66 Z0.25 F3600.0
G1 X-2.23 Y5.63 Z0.25 F3600.0
G1 X-2.23 Y6.72 Z0.25 F3600.0
G1 X-1.72 Y7.69 Z0.25 F3600.0
G1 X-0.82 Y8.32 Z0.25 F3600.0
G1 X0.27 Y8.45 Z0.25 F3600.0
G1 X1.3 Y8.06 Z0.25 F3600.0
G1 X2.02 Y7.24 Z0.25 F3600.0
G1 X2.29 Y6.17 Z0.25 F3600.0
G1 X2.02 Y5.11 Z0.25 F3600.0
G1 X1.3 Y4.29 Z0.25 F3600.0
G1 X0.27 Y3.9 Z0.25 F3600.0
G1 X0.08 Y3.92 Z0.25 F3600.0
M108 R30.0
M102
G1 X-0.82 Y4.03 Z0.25 F3600.0
M108 R6.657
M103
(</perimeter>)
(</boundaryPerimeter>)
(</surroundingLoop>)
G1 X1.38 Y-2.78 Z0.25 F3600.0
M108 R30.0
M101
G1 X1.67 Y-3.69 Z0.25 F3600.0
M108 R6.657
G1 X1.67 Y3.69 Z0.25 F3600.0
G1 X2.09 Y4.14 Z0.25 F3600.0
G1 X2.09 Y-4.14 Z0.25 F3600.0
G1 X2.51 Y-4.62 Z0.25 F3600.0
G1 X2.51 Y3.72 Z0.25 F3600.0
M108 R30.0
M102
G1 X2.51 Y4.62 Z0.25 F3600.0
M108 R6.657
M103
G1 X2.63 Y4.98 Z0.25 F3600.0
M108 R30.0
M101
G1 X2.93 Y5.89 Z0.25 F3600.0
M108 R6.657
G1 X2.93 Y-5.89 Z0.25 F3600.0
M103
G1 X2.93 Y-6.46 Z0.25 F3600.0
M101
G1 X2.93 Y-14.65 Z0.25 F3600.0
G1 X2.51 Y-14.65 Z0.25 F3600.0
G1 X2.51 Y-7.73 Z0.25 F3600.0
G1 X2.09 Y-8.21 Z0.25 F3600.0
G1 X2.09 Y-14.65 Z0.25 F3600.0
G1 X1.67 Y-14.65 Z0.25 F3600.0
G1 X1.67 Y-8.66 Z0.25 F3600.0
M103
G1 X1.25 Y-8.82 Z0.25 F3600.0
M101
G1 X1.25 Y-14.65 Z0.25 F3600.0
G1 X0.83 Y-14.65 Z0.25 F3600.0
G1 X0.83 Y-8.97 Z0.25 F3600.0
M103
G1 X0.41 Y-9.13 Z0.25 F3600.0
M101
G1 X0.41 Y-14.65 Z0.25 F3600.0
G1 X-0.0 Y-14.65 Z0.25 F3600.0
G1 X-0.0 Y-9.11 Z0.25 F3600.0
M103
G1 X-0.42 Y-9.06 Z0.25 F3600.0
M101
G1 X-0.42 Y-14.65 Z0.25 F3600.0
G1 X-0.84 Y-14.65 Z0.25 F3600.0
G1 X-0.84 Y-9.01 Z0.25 F3600.0
M103
G1 X-1.26 Y-8.85 Z0.25 F3600.0
M101
G1 X-1.26 Y-14.65 Z0.25 F3600.0
G1 X-1.68 Y-14.65 Z0.25 F3600.0
G1 X-1.68 Y-8.56 Z0.25 F3600.0
G1 X-2.1 Y-8.27 Z0.25 F3600.0
G1 X-2.1 Y-14.65 Z0.25 F3600.0
G1 X-2.52 Y-14.65 Z0.25 F3600.0
G1 X-2.52 Y-8.56 Z0.25 F3600.0
M108 R30.0
M102
G1 X-2.52 Y-7.66 Z0.25 F3600.0
M108 R6.657
M103
G1 X-2.52 Y-5.65 Z0.25 F3600.0
M108 R30.0
M101
G1 X-2.52 Y-4.69 Z0.25 F3600.0
M108 R6.657
G1 X-2.52 Y4.69 Z0.25 F3600.0
M103
G1 X-2.1 Y4.08 Z0.25 F3600.0
M101
G1 X-2.1 Y-4.08 Z0.25 F3600.0
G1 X-1.68 Y-3.79 Z0.25 F3600.0
G1 X-1.68 Y3.79 Z0.25 F3600.0
G1 X-1.26 Y3.5 Z0.25 F3600.0
G1 X-1.26 Y-3.5 Z0.25 F3600.0
M103
G1 X-0.84 Y-3.34 Z0.25 F3600.0
M101
G1 X-0.84 Y3.34 Z0.25 F3600.0
G1 X-0.42 Y3.29 Z0.25 F3600.0
G1 X-0.42 Y-3.29 Z0.25 F3600.0
M103
G1 X-0.0 Y-3.24 Z0.25 F3600.0
M101
G1 X-0.0 Y3.24 Z0.25 F3600.0
G1 X0.41 Y3.22 Z0.25 F3600.0
G1 X0.41 Y-3.22 Z0.25 F3600.0
M103
G1 X0.83 Y-3.38 Z0.25 F3600.0
M101
G1 X0.83 Y3.38 Z0.25 F3600.0
G1 X1.25 Y3.53 Z0.25 F3600.0
G1 X1.25 Y-2.63 Z0.25 F3600.0
M108 R30.0
M102
G1 X1.25 Y-3.53 Z0.25 F3600.0
M108 R6.657
M103
G1 X9.45 Y-13.84 Z0.25 F3600.0
M108 R30.0
M101
G1 X10.05 Y-14.59 Z0.25 F3600.0
M108 R6.657
G1 X10.05 Y14.65 Z0.25 F3600.0
G1 X9.63 Y14.65 Z0.25 F3600.0
G1 X9.63 Y-14.65 Z0.25 F3600.0
G1 X9.21 Y-14.65 Z0.25 F3600.0
G1 X9.21 Y14.65 Z0.25 F3600.0
G1 X8.79 Y14.65 Z0.25 F3600.0
G1 X8.79 Y-14.65 Z0.25 F3600.0
G1 X8.37 Y-14.65 Z0.25 F3600.0
G1 X8.37 Y14.65 Z0.25 F3600.0
G1 X7.96 Y14.65 Z0.25 F3600.0
G1 X7.96 Y-14.65 Z0.25 F3600.0
G1 X7.54 Y-14.65 Z0.25 F3600.0
G1 X7.54 Y14.65 Z0.25 F3600.0
G1 X7.12 Y14.65 Z0.25 F3600.0
G1 X7.12 Y-14.65 Z0.25 F3600.0
G1 X6.7 Y-14.65 Z0.25 F3600.0
G1 X6.7 Y14.65 Z0.25 F3600.0
G1 X6.28 Y14.65 Z0.25 F3600.0
G1 X6.28 Y-14.65 Z0.25 F3600.0
G1 X5.86 Y-14.65 Z0.25 F3600.0
G1 X5.86 Y14.65 Z0.25 F3600.0
G1 X5.44 Y14.65 Z0.25 F3600.0
G1 X5.44 Y-14.65 Z0.25 F3600.0
G1 X5.02 Y-14.65 Z0.25 F3600.0
G1 X5.02 Y14.65 Z0.25 F3600.0
G1 X4.6 Y14.65 Z0.25 F3600.0
G1 X4.6 Y-14.65 Z0.25 F3600.0
G1 X4.18 Y-14.65 Z0.25 F3600.0
G1 X4.18 Y14.65 Z0.25 F3600.0
G1 X3.77 Y14.65 Z0.25 F3600.0
G1 X3.77 Y-14.65 Z0.25 F3600.0
G1 X3.35 Y-14.65 Z0.25 F3600.0
G1 X3.35 Y14.65 Z0.25 F3600.0
G1 X2.93 Y14.65 Z0.25 F3600.0
G1 X2.93 Y7.36 Z0.25 F3600.0
M108 R30.0
M102
G1 X2.93 Y6.46 Z0.25 F3600.0
M108 R6.657
M103
G1 X2.81 Y6.82 Z0.25 F3600.0
M108 R30.0
M101
G1 X2.51 Y7.73 Z0.25 F3600.0
M108 R6.657
G1 X2.51 Y14.65 Z0.25 F3600.0
G1 X2.09 Y14.65 Z0.25 F3600.0
G1 X2.09 Y8.21 Z0.25 F3600.0
G1 X1.67 Y8.66 Z0.25 F3600.0
G1 X1.67 Y14.65 Z0.25 F3600.0
G1 X1.25 Y14.65 Z0.25 F3600.0
G1 X1.25 Y8.82 Z0.25 F3600.0
M103
G1 X0.83 Y8.97 Z0.25 F3600.0
M101
G1 X0.83 Y14.65 Z0.25 F3600.0
G1 X0.41 Y14.65 Z0.25 F3600.0
G1 X0.41 Y9.13 Z0.25 F3600.0
G1 X-0.0 Y9.11 Z0.25 F3600.0
G1 X-0.0 Y14.65 Z0.25 F3600.0
G1 X-0.42 Y14.65 Z0.25 F3600.0
G1 X-0.42 Y9.06 Z0.25 F3600.0
G1 X-0.84 Y9.01 Z0.25 F3600.0
G1 X-0.84 Y14.65 Z0.25 F3600.0
G1 X-1.26 Y14.65 Z0.25 F3600.0
G1 X-1.26 Y8.85 Z0.25 F3600.0
G1 X-1.68 Y8.56 Z0.25 F3600.0
G1 X-1.68 Y14.65 Z0.25 F3600.0
G1 X-2.1 Y14.65 Z0.25 F3600.0
G1 X-2.1 Y8.27 Z0.25 F3600.0
M103
G1 X-2.52 Y7.66 Z0.25 F3600.0
M101
G1 X-2.52 Y14.65 Z0.25 F3600.0
G1 X-2.94 Y14.65 Z0.25 F3600.0
G1 X-2.94 Y-14.65 Z0.25 F3600.0
G1 X-3.35 Y-14.65 Z0.25 F3600.0
G1 X-3.35 Y14.65 Z0.25 F3600.0
G1 X-3.77 Y14.65 Z0.25 F3600.0
G1 X-3.77 Y-14.65 Z0.25 F3600.0
G1 X-4.19 Y-14.65 Z0.25 F3600.0
G1 X-4.19 Y14.65 Z0.25 F3600.0
G1 X-4.61 Y14.65 Z0.25 F3600.0
G1 X-4.61 Y-14.65 Z0.25 F3600.0
G1 X-5.03 Y-14.65 Z0.25 F3600.0
G1 X-5.03 Y14.65 Z0.25 F3600.0
G1 X-5.45 Y14.65 Z0.25 F3600.0
G1 X-5.45 Y-14.65 Z0.25 F3600.0
G1 X-5.87 Y-14.65 Z0.25 F3600.0
G1 X-5.87 Y14.65 Z0.25 F3600.0
G1 X-6.29 Y14.65 Z0.25 F3600.0
G1 X-6.29 Y-14.65 Z0.25 F3600.0
G1 X-6.71 Y-14.65 Z0.25 F3600.0
G1 X-6.71 Y14.65 Z0.25 F3600.0
G1 X-7.13 Y14.65 Z0.25 F3600.0
G1 X-7.13 Y-14.65 Z0.25 F3600.0
G1 X-7.54 Y-14.65 Z0.25 F3600.0
G1 X-7.54 Y14.65 Z0.25 F3600.0
G1 X-7.96 Y14.65 Z0.25 F3600.0
G1 X-7.96 Y-14.65 Z0.25 F3600.0
G1 X-8.38 Y-14.65 Z0.25 F3600.0
G1 X-8.38 Y14.65 Z0.25 F3600.0
G1 X-8.8 Y14.65 Z0.25 F3600.0
G1 X-8.8 Y-14.65 Z0.25 F3600.0
G1 X-9.22 Y-14.65 Z0.25 F3600.0
G1 X-9.22 Y14.65 Z0.25 F3600.0
G1 X-9.64 Y14.65 Z0.25 F3600.0
G1 X-9.64 Y-14.65 Z0.25 F3600.0
G1 X-10.06 Y-14.65 Z0.25 F3600.0
G1 X-10.06 Y13.75 Z0.25 F3600.0
M108 R30.0
M102
G1 X-10.06 Y14.65 Z0.25 F3600.0
M108 R6.657
M103
(</surroundingLoop>)
(<surroundingLoop>)
(<boundaryPerimeter>)
(<boundaryPoint> X39.021 Y15.55 Z0.25 </boundaryPoint>)
(<boundaryPoint> X16.921 Y15.55 Z0.25 </boundaryPoint>)
(<boundaryPoint> X16.921 Y-15.55 Z0.25 </boundaryPoint>)
(<boundaryPoint> X38.963 Y-15.55 Z0.25 </boundaryPoint>)
(<boundaryPoint> X39.021 Y-15.169 Z0.25 </boundaryPoint>)
(<loop> inner )
G1 X23.81 Y7.26 Z0.25 F6000.0
M108 R30.0
M101
G1 X25.37 Y6.92 Z0.25 F6000.0
M108 R6.657
G1 X25.93 Y7.98 Z0.25 F3600.0
G1 X27.0 Y8.72 Z0.25 F3600.0
G1 X28.3 Y8.88 Z0.25 F3600.0
G1 X29.52 Y8.42 Z0.25 F3600.0
G1 X30.38 Y7.44 Z0.25 F3600.0
G1 X30.69 Y6.17 Z0.25 F3600.0
G1 X30.38 Y4.91 Z0.25 F3600.0
G1 X29.52 Y3.93 Z0.25 F3600.0
G1 X28.3 Y3.47 Z0.25 F3600.0
G1 X27.0 Y3.63 Z0.25 F3600.0
G1 X25.93 Y4.37 Z0.25 F3600.0
G1 X25.33 Y5.52 Z0.25 F3600.0
G1 X25.33 Y6.03 Z0.25 F3600.0
M108 R30.0
M102
G1 X25.33 Y6.83 Z0.25 F3600.0
G1 X25.37 Y6.92 Z0.25 F3600.0
M108 R6.657
M103
(</loop>)
(<loop> inner )
G1 X26.76 Y-2.05 Z0.25 F6000.0
M108 R30.0
M101
G1 X27.0 Y-3.63 Z0.25 F6000.0
M108 R6.657
G1 X28.3 Y-3.47 Z0.25 F3600.0
G1 X29.52 Y-3.93 Z0.25 F3600.0
G1 X30.38 Y-4.91 Z0.25 F3600.0
G1 X30.69 Y-6.17 Z0.25 F3600.0
G1 X30.38 Y-7.44 Z0.25 F3600.0
G1 X29.52 Y-8.42 Z0.25 F3600.0
G1 X28.3 Y-8.88 Z0.25 F3600.0
G1 X27.0 Y-8.72 Z0.25 F3600.0
G1 X25.93 Y-7.98 Z0.25 F3600.0
G1 X25.33 Y-6.83 Z0.25 F3600.0
G1 X25.33 Y-5.52 Z0.25 F3600.0
G1 X25.93 Y-4.37 Z0.25 F3600.0
G1 X26.27 Y-4.14 Z0.25 F3600.0
M108 R30.0
M102
G1 X27.0 Y-3.63 Z0.25 F3600.0
M108 R6.657
M103
(</loop>)
(<loop> outer )
G1 X19.15 Y-3.63 Z0.25 F6000.0
M108 R30.0
M101
G1 X17.55 Y-3.63 Z0.25 F6000.0
M108 R6.657
G1 X17.55 Y-14.92 Z0.25 F3600.0
G1 X37.69 Y-14.92 Z0.25 F3600.0
G1 X38.39 Y-14.8 Z0.25 F3600.0
G1 X38.39 Y-3.47 Z0.25 F3600.0
G1 X38.39 Y14.92 Z0.25 F3600.0
G1 X17.55 Y14.92 Z0.25 F3600.0
G1 X17.55 Y-3.63 Z0.25 F3600.0
M103
(</loop>)
(<perimeter> outer )
G1 X17.13 Y-3.63 Z0.25 F6000.0
M101
G1 X17.13 Y-15.34 Z0.25 F3600.0
G1 X38.78 Y-15.34 Z0.25 F3600.0
G1 X38.81 Y-15.15 Z0.25 F3600.0
G1 X38.81 Y-3.47 Z0.25 F3600.0
G1 X38.81 Y15.34 Z0.25 F3600.0
G1 X17.13 Y15.34 Z0.25 F3600.0
G1 X17.13 Y-2.73 Z0.25 F3600.0
M108 R30.0
M102
G1 X17.13 Y-3.63 Z0.25 F3600.0
M108 R6.657
M103
(</perimeter>)
(</boundaryPerimeter>)
(<surroundingLoop>)
(<boundaryPerimeter>)
(<boundaryPoint> X27.235 Y-4.235 Z0.25 </boundaryPoint>)
(<boundaryPoint> X28.221 Y-4.115 Z0.25 </boundaryPoint>)
(<boundaryPoint> X29.15 Y-4.467 Z0.25 </boundaryPoint>)
(<boundaryPoint> X29.808 Y-5.211 Z0.25 </boundaryPoint>)
(<boundaryPoint> X30.046 Y-6.175 Z0.25 </boundaryPoint>)
(<boundaryPoint> X29.808 Y-7.139 Z0.25 </boundaryPoint>)
(<boundaryPoint> X29.15 Y-7.883 Z0.25 </boundaryPoint>)
(<boundaryPoint> X28.221 Y-8.235 Z0.25 </boundaryPoint>)
(<boundaryPoint> X27.235 Y-8.115 Z0.25 </boundaryPoint>)
(<boundaryPoint> X26.418 Y-7.551 Z0.25 </boundaryPoint>)
(<boundaryPoint> X25.956 Y-6.672 Z0.25 </boundaryPoint>)
(<boundaryPoint> X25.956 Y-5.678 Z0.25 </boundaryPoint>)
(<boundaryPoint> X26.418 Y-4.799 Z0.25 </boundaryPoint>)
(<perimeter> inner )
G1 X24.19 Y-5.26 Z0.25 F6000.0
M108 R30.0
M101
G1 X25.75 Y-5.63 Z0.25 F6000.0
M108 R6.657
G1 X26.26 Y-4.66 Z0.25 F3600.0
G1 X27.16 Y-4.03 Z0.25 F3600.0
G1 X28.25 Y-3.9 Z0.25 F3600.0
G1 X29.27 Y-4.29 Z0.25 F3600.0
G1 X30.0 Y-5.11 Z0.25 F3600.0
G1 X30.13 Y-5.62 Z0.25 F3600.0
G1 X30.26 Y-6.17 Z0.25 F3600.0
G1 X30.0 Y-7.24 Z0.25 F3600.0
G1 X29.27 Y-8.06 Z0.25 F3600.0
G1 X28.25 Y-8.45 Z0.25 F3600.0
G1 X27.16 Y-8.32 Z0.25 F3600.0
G1 X26.26 Y-7.69 Z0.25 F3600.0
G1 X25.75 Y-6.72 Z0.25 F3600.0
G1 X25.75 Y-6.53 Z0.25 F3600.0
M108 R30.0
M102
G1 X25.75 Y-5.63 Z0.25 F3600.0
M108 R6.657
M103
(</perimeter>)
(</boundaryPerimeter>)
(</surroundingLoop>)
(<surroundingLoop>)
(<boundaryPerimeter>)
(<boundaryPoint> X26.418 Y7.551 Z0.25 </boundaryPoint>)
(<boundaryPoint> X27.235 Y8.115 Z0.25 </boundaryPoint>)
(<boundaryPoint> X28.221 Y8.235 Z0.25 </boundaryPoint>)
(<boundaryPoint> X29.15 Y7.883 Z0.25 </boundaryPoint>)
(<boundaryPoint> X29.808 Y7.139 Z0.25 </boundaryPoint>)
(<boundaryPoint> X30.046 Y6.175 Z0.25 </boundaryPoint>)
(<boundaryPoint> X29.808 Y5.211 Z0.25 </boundaryPoint>)
(<boundaryPoint> X29.15 Y4.467 Z0.25 </boundaryPoint>)
(<boundaryPoint> X28.221 Y4.115 Z0.25 </boundaryPoint>)
(<boundaryPoint> X27.235 Y4.235 Z0.25 </boundaryPoint>)
(<boundaryPoint> X26.418 Y4.799 Z0.25 </boundaryPoint>)
(<boundaryPoint> X25.956 Y5.678 Z0.25 </boundaryPoint>)
(<boundaryPoint> X25.956 Y6.672 Z0.25 </boundaryPoint>)
(<perimeter> inner )
G1 X26.93 Y2.45 Z0.25 F6000.0
M108 R30.0
M101
G1 X27.16 Y4.03 Z0.25 F6000.0
M108 R6.657
G1 X26.26 Y4.66 Z0.25 F3600.0
G1 X25.75 Y5.63 Z0.25 F3600.0
G1 X25.75 Y6.72 Z0.25 F3600.0
G1 X26.26 Y7.69 Z0.25 F3600.0
G1 X27.16 Y8.32 Z0.25 F3600.0
G1 X28.25 Y8.45 Z0.25 F3600.0
G1 X29.27 Y8.06 Z0.25 F3600.0
G1 X30.0 Y7.24 Z0.25 F3600.0
G1 X30.26 Y6.17 Z0.25 F3600.0
G1 X30.0 Y5.11 Z0.25 F3600.0
G1 X29.27 Y4.29 Z0.25 F3600.0
G1 X28.25 Y3.9 Z0.25 F3600.0
G1 X28.05 Y3.92 Z0.25 F3600.0
M108 R30.0
M102
G1 X27.16 Y4.03 Z0.25 F3600.0
M108 R6.657
M103
(</perimeter>)
(</boundaryPerimeter>)
(</surroundingLoop>)
G1 X29.35 Y-2.78 Z0.25 F3600.0
M108 R30.0
M101
G1 X29.65 Y-3.69 Z0.25 F3600.0
M108 R6.657
G1 X29.65 Y3.69 Z0.25 F3600.0
G1 X30.07 Y4.14 Z0.25 F3600.0
G1 X30.07 Y-4.14 Z0.25 F3600.0
G1 X30.48 Y-4.62 Z0.25 F3600.0
G1 X30.48 Y3.72 Z0.25 F3600.0
M108 R30.0
M102
G1 X30.48 Y4.62 Z0.25 F3600.0
M108 R6.657
M103
G1 X30.6 Y4.98 Z0.25 F3600.0
M108 R30.0
M101
G1 X30.9 Y5.89 Z0.25 F3600.0
M108 R6.657
G1 X30.9 Y-5.89 Z0.25 F3600.0
M103
G1 X30.9 Y-6.46 Z0.25 F3600.0
M101
G1 X30.9 Y-14.65 Z0.25 F3600.0
G1 X30.48 Y-14.65 Z0.25 F3600.0
G1 X30.48 Y-7.73 Z0.25 F3600.0
G1 X30.07 Y-8.21 Z0.25 F3600.0
G1 X30.07 Y-14.65 Z0.25 F3600.0
G1 X29.65 Y-14.65 Z0.25 F3600.0
G1 X29.65 Y-8.66 Z0.25 F3600.0
M103
G1 X29.23 Y-8.82 Z0.25 F3600.0
M101
G1 X29.23 Y-14.65 Z0.25 F3600.0
G1 X28.81 Y-14.65 Z0.25 F3600.0
G1 X28.81 Y-8.97 Z0.25 F3600.0
M103
G1 X28.39 Y-9.13 Z0.25 F3600.0
M101
G1 X28.39 Y-14.65 Z0.25 F3600.0
G1 X27.97 Y-14.65 Z0.25 F3600.0
G1 X27.97 Y-9.11 Z0.25 F3600.0
M103
G1 X27.55 Y-9.06 Z0.25 F3600.0
M101
G1 X27.55 Y-14.65 Z0.25 F3600.0
G1 X27.13 Y-14.65 Z0.25 F3600.0
G1 X27.13 Y-9.01 Z0.25 F3600.0
M103
G1 X26.71 Y-8.85 Z0.25 F3600.0
M101
G1 X26.71 Y-14.65 Z0.25 F3600.0
G1 X26.3 Y-14.65 Z0.25 F3600.0
G1 X26.3 Y-8.56 Z0.25 F3600.0
G1 X25.88 Y-8.27 Z0.25 F3600.0
G1 X25.88 Y-14.65 Z0.25 F3600.0
G1 X25.46 Y-14.65 Z0.25 F3600.0
G1 X25.46 Y-8.56 Z0.25 F3600.0
M108 R30.0
M102
G1 X25.46 Y-7.66 Z0.25 F3600.0
M108 R6.657
M103
G1 X25.46 Y-5.65 Z0.25 F3600.0
M108 R30.0
M101
G1 X25.46 Y-4.69 Z0.25 F3600.0
M108 R6.657
G1 X25.46 Y4.69 Z0.25 F3600.0
M103
G1 X25.88 Y4.08 Z0.25 F3600.0
M101
G1 X25.88 Y-4.08 Z0.25 F3600.0
G1 X26.3 Y-3.79 Z0.25 F3600.0
G1 X26.3 Y3.79 Z0.25 F3600.0
G1 X26.71 Y3.5 Z0.25 F3600.0
G1 X26.71 Y-3.5 Z0.25 F3600.0
M103
G1 X27.13 Y-3.34 Z0.25 F3600.0
M101
G1 X27.13 Y3.34 Z0.25 F3600.0
G1 X27.55 Y3.29 Z0.25 F3600.0
G1 X27.55 Y-3.29 Z0.25 F3600.0
M103
G1 X27.97 Y-3.24 Z0.25 F3600.0
M101
G1 X27.97 Y3.24 Z0.25 F3600.0
G1 X28.39 Y3.22 Z0.25 F3600.0
G1 X28.39 Y-3.22 Z0.25 F3600.0
M103
G1 X28.81 Y-3.38 Z0.25 F3600.0
M101
G1 X28.81 Y3.38 Z0.25 F3600.0
G1 X29.23 Y3.53 Z0.25 F3600.0
G1 X29.23 Y-2.63 Z0.25 F3600.0
M108 R30.0
M102
G1 X29.23 Y-3.53 Z0.25 F3600.0
M108 R6.657
M103
G1 X37.43 Y-13.84 Z0.25 F3600.0
M108 R30.0
M101
G1 X38.02 Y-14.59 Z0.25 F3600.0
M108 R6.657
G1 X38.02 Y14.65 Z0.25 F3600.0
G1 X37.6 Y14.65 Z0.25 F3600.0
G1 X37.6 Y-14.65 Z0.25 F3600.0
G1 X37.19 Y-14.65 Z0.25 F3600.0
G1 X37.19 Y14.65 Z0.25 F3600.0
G1 X36.77 Y14.65 Z0.25 F3600.0
G1 X36.77 Y-14.65 Z0.25 F3600.0
G1 X36.35 Y-14.65 Z0.25 F3600.0
G1 X36.35 Y14.65 Z0.25 F3600.0
G1 X35.93 Y14.65 Z0.25 F3600.0
G1 X35.93 Y-14.65 Z0.25 F3600.0
G1 X35.51 Y-14.65 Z0.25 F3600.0
G1 X35.51 Y14.65 Z0.25 F3600.0
G1 X35.09 Y14.65 Z0.25 F3600.0
G1 X35.09 Y-14.65 Z0.25 F3600.0
G1 X34.67 Y-14.65 Z0.25 F3600.0
G1 X34.67 Y14.65 Z0.25 F3600.0
G1 X34.25 Y14.65 Z0.25 F3600.0
G1 X34.25 Y-14.65 Z0.25 F3600.0
G1 X33.84 Y-14.65 Z0.25 F3600.0
G1 X33.84 Y14.65 Z0.25 F3600.0
G1 X33.42 Y14.65 Z0.25 F3600.0
G1 X33.42 Y-14.65 Z0.25 F3600.0
G1 X33.0 Y-14.65 Z0.25 F3600.0
G1 X33.0 Y14.65 Z0.25 F3600.0
G1 X32.58 Y14.65 Z0.25 F3600.0
G1 X32.58 Y-14.65 Z0.25 F3600.0
G1 X32.16 Y-14.65 Z0.25 F3600.0
G1 X32.16 Y14.65 Z0.25 F3600.0
G1 X31.74 Y14.65 Z0.25 F3600.0
G1 X31.74 Y-14.65 Z0.25 F3600.0
G1 X31.32 Y-14.65 Z0.25 F3600.0
G1 X31.32 Y14.65 Z0.25 F3600.0
G1 X30.9 Y14.65 Z0.25 F3600.0
G1 X30.9 Y7.36 Z0.25 F3600.0
M108 R30.0
M102
G1 X30.9 Y6.46 Z0.25 F3600.0
M108 R6.657
M103
G1 X30.78 Y6.82 Z0.25 F3600.0
M108 R30.0
M101
G1 X30.48 Y7.73 Z0.25 F3600.0
M108 R6.657
G1 X30.48 Y14.65 Z0.25 F3600.0
G1 X30.07 Y14.65 Z0.25 F3600.0
G1 X30.07 Y8.21 Z0.25 F3600.0
G1 X29.65 Y8.66 Z0.25 F3600.0
G1 X29.65 Y14.65 Z0.25 F3600.0
G1 X29.23 Y14.65 Z0.25 F3600.0
G1 X29.23 Y8.82 Z0.25 F3600.0
M103
G1 X28.81 Y8.97 Z0.25 F3600.0
M101
G1 X28.81 Y14.65 Z0.25 F3600.0
G1 X28.39 Y14.65 Z0.25 F3600.0
G1 X28.39 Y9.13 Z0.25 F3600.0
G1 X27.97 Y9.11 Z0.25 F3600.0
G1 X27.97 Y14.65 Z0.25 F3600.0
G1 X27.55 Y14.65 Z0.25 F3600.0
G1 X27.55 Y9.06 Z0.25 F3600.0
G1 X27.13 Y9.01 Z0.25 F3600.0
G1 X27.13 Y14.65 Z0.25 F3600.0
G1 X26.71 Y14.65 Z0.25 F3600.0
G1 X26.71 Y8.85 Z0.25 F3600.0
G1 X26.3 Y8.56 Z0.25 F3600.0
G1 X26.3 Y14.65 Z0.25 F3600.0
G1 X25.88 Y14.65 Z0.25 F3600.0
G1 X25.88 Y8.27 Z0.25 F3600.0
M103
G1 X25.46 Y7.66 Z0.25 F3600.0
M101
G1 X25.46 Y14.65 Z0.25 F3600.0
G1 X25.04 Y14.65 Z0.25 F3600.0
G1 X25.04 Y-14.65 Z0.25 F3600.0
G1 X24.62 Y-14.65 Z0.25 F3600.0
G1 X24.62 Y14.65 Z0.25 F3600.0
G1 X24.2 Y14.65 Z0.25 F3600.0
G1 X24.2 Y-14.65 Z0.25 F3600.0
G1 X23.78 Y-14.65 Z0.25 F3600.0
G1 X23.78 Y14.65 Z0.25 F3600.0
G1 X23.36 Y14.65 Z0.25 F3600.0
G1 X23.36 Y-14.65 Z0.25 F3600.0
G1 X22.94 Y-14.65 Z0.25 F3600.0
G1 X22.94 Y14.65 Z0.25 F3600.0
G1 X22.53 Y14.65 Z0.25 F3600.0
G1 X22.53 Y-14.65 Z0.25 F3600.0
G1 X22.11 Y-14.65 Z0.25 F3600.0
G1 X22.11 Y14.65 Z0.25 F3600.0
G1 X21.69 Y14.65 Z0.25 F3600.0
G1 X21.69 Y-14.65 Z0.25 F3600.0
G1 X21.27 Y-14.65 Z0.25 F3600.0
G1 X21.27 Y14.65 Z0.25 F3600.0
G1 X20.85 Y14.65 Z0.25 F3600.0
G1 X20.85 Y-14.65 Z0.25 F3600.0
G1 X20.43 Y-14.65 Z0.25 F3600.0
G1 X20.43 Y14.65 Z0.25 F3600.0
G1 X20.01 Y14.65 Z0.25 F3600.0
G1 X20.01 Y-14.65 Z0.25 F3600.0
G1 X19.59 Y-14.65 Z0.25 F3600.0
G1 X19.59 Y14.65 Z0.25 F3600.0
G1 X19.18 Y14.65 Z0.25 F3600.0
G1 X19.18 Y-14.65 Z0.25 F3600.0
G1 X18.76 Y-14.65 Z0.25 F3600.0
G1 X18.76 Y14.65 Z0.25 F3600.0
G1 X18.34 Y14.65 Z0.25 F3600.0
G1 X18.34 Y-14.65 Z0.25 F3600.0
G1 X17.92 Y-14.65 Z0.25 F3600.0
G1 X17.92 Y13.75 Z0.25 F3600.0
M108 R30.0
M102
G1 X17.92 Y14.65 Z0.25 F3600.0
M108 R6.657
M103
(</surroundingLoop>)
(</layer>)
(<layer> 0.55 )
(<surroundingLoop>)
(<boundaryPerimeter>)
(<boundaryPoint> X39.021 Y15.55 Z0.55 </boundaryPoint>)
(<boundaryPoint> X16.921 Y15.55 Z0.55 </boundaryPoint>)
(<boundaryPoint> X16.921 Y-15.55 Z0.55 </boundaryPoint>)
(<boundaryPoint> X38.847 Y-15.55 Z0.55 </boundaryPoint>)
(<boundaryPoint> X39.021 Y-15.169 Z0.55 </boundaryPoint>)
(<loop> inner )
M108 R11.1
G1 X24.51 Y8.93 Z0.5 F6000.0
M108 R30.0
M101
G1 X25.72 Y7.88 Z0.55 F6000.0
M108 R11.1
G1 X25.82 Y8.08 Z0.55 F6000.0
G1 X26.95 Y8.86 Z0.55 F6000.0
G1 X28.32 Y9.03 Z0.55 F6000.0
G1 X29.6 Y8.54 Z0.55 F6000.0
G1 X30.51 Y7.51 Z0.55 F6000.0
G1 X30.84 Y6.17 Z0.55 F6000.0
G1 X30.51 Y4.84 Z0.55 F6000.0
G1 X29.6 Y3.81 Z0.55 F6000.0
G1 X28.32 Y3.32 Z0.55 F6000.0
G1 X26.95 Y3.49 Z0.55 F6000.0
G1 X25.82 Y4.27 Z0.55 F6000.0
G1 X25.18 Y5.49 Z0.55 F6000.0
G1 X25.18 Y6.51 Z0.55 F6000.0
M108 R30.0
M102
G1 X25.18 Y6.86 Z0.55 F6000.0
G1 X25.72 Y7.88 Z0.55 F6000.0
M108 R11.1
M103
(</loop>)
(<loop> inner )
G1 X25.54 Y5.58 Z0.55 F6000.0
G1 X26.93 Y-1.88 Z0.55 F6000.0
M108 R30.0
M101
G1 X27.23 Y-3.46 Z0.55 F6000.0
M108 R11.1
G1 X28.32 Y-3.32 Z0.55 F6000.0
G1 X29.6 Y-3.81 Z0.55 F6000.0
G1 X30.51 Y-4.84 Z0.55 F6000.0
G1 X30.84 Y-6.17 Z0.55 F6000.0
G1 X30.51 Y-7.51 Z0.55 F6000.0
G1 X29.6 Y-8.54 Z0.55 F6000.0
G1 X28.32 Y-9.03 Z0.55 F6000.0
G1 X26.95 Y-8.86 Z0.55 F6000.0
G1 X25.82 Y-8.08 Z0.55 F6000.0
G1 X25.18 Y-6.86 Z0.55 F6000.0
G1 X25.18 Y-5.49 Z0.55 F6000.0
G1 X25.82 Y-4.27 Z0.55 F6000.0
G1 X25.95 Y-4.18 Z0.55 F6000.0
M108 R30.0
M102
G1 X26.95 Y-3.49 Z0.55 F6000.0
G1 X27.23 Y-3.46 Z0.55 F6000.0
M108 R11.1
M103
(</loop>)
(<loop> outer )
G1 X19.15 Y-3.46 Z0.55 F6000.0
M108 R30.0
M101
G1 X17.55 Y-3.46 Z0.55 F6000.0
M108 R11.1
G1 X17.55 Y-14.92 Z0.55 F6000.0
G1 X38.39 Y-14.92 Z0.55 F6000.0
G1 X38.39 Y14.92 Z0.55 F6000.0
G1 X17.55 Y14.92 Z0.55 F6000.0
G1 X17.55 Y-3.46 Z0.55 F6000.0
M103
(</loop>)
(<perimeter> outer )
G1 X17.13 Y-3.46 Z0.55 F6000.0
M101
G1 X17.13 Y-15.34 Z0.55 F6000.0
G1 X38.71 Y-15.34 Z0.55 F6000.0
G1 X38.81 Y-15.12 Z0.55 F6000.0
G1 X38.81 Y15.34 Z0.55 F6000.0
G1 X17.13 Y15.34 Z0.55 F6000.0
G1 X17.13 Y-1.96 Z0.55 F6000.0
M108 R30.0
M102
G1 X17.13 Y-3.46 Z0.55 F6000.0
M108 R11.1
M103
(</perimeter>)
(</boundaryPerimeter>)
(<surroundingLoop>)
(<boundaryPerimeter>)
(<boundaryPoint> X27.182 Y-4.095 Z0.55 </boundaryPoint>)
(<boundaryPoint> X28.239 Y-3.966 Z0.55 </boundaryPoint>)
(<boundaryPoint> X29.235 Y-4.344 Z0.55 </boundaryPoint>)
(<boundaryPoint> X29.941 Y-5.141 Z0.55 </boundaryPoint>)
(<boundaryPoint> X30.196 Y-6.175 Z0.55 </boundaryPoint>)
(<boundaryPoint> X29.941 Y-7.209 Z0.55 </boundaryPoint>)
(<boundaryPoint> X29.235 Y-8.006 Z0.55 </boundaryPoint>)
(<boundaryPoint> X28.239 Y-8.384 Z0.55 </boundaryPoint>)
(<boundaryPoint> X27.182 Y-8.255 Z0.55 </boundaryPoint>)
(<boundaryPoint> X26.306 Y-7.65 Z0.55 </boundaryPoint>)
(<boundaryPoint> X25.811 Y-6.707 Z0.55 </boundaryPoint>)
(<boundaryPoint> X25.811 Y-5.643 Z0.55 </boundaryPoint>)
(<boundaryPoint> X26.306 Y-4.7 Z0.55 </boundaryPoint>)
(<perimeter> inner )
G1 X24.05 Y-5.2 Z0.55 F6000.0
M108 R30.0
M101
G1 X25.6 Y-5.59 Z0.55 F6000.0
M108 R11.1
G1 X26.14 Y-4.56 Z0.55 F6000.0
G1 X27.11 Y-3.89 Z0.55 F6000.0
G1 X28.27 Y-3.75 Z0.55 F6000.0
G1 X29.36 Y-4.17 Z0.55 F6000.0
G1 X30.13 Y-5.04 Z0.55 F6000.0
G1 X30.41 Y-6.17 Z0.55 F6000.0
G1 X30.13 Y-7.31 Z0.55 F6000.0
G1 X29.36 Y-8.18 Z0.55 F6000.0
G1 X28.27 Y-8.6 Z0.55 F6000.0
G1 X27.11 Y-8.46 Z0.55 F6000.0
G1 X26.14 Y-7.79 Z0.55 F6000.0
G1 X25.75 Y-7.05 Z0.55 F6000.0
M108 R30.0
M102
G1 X25.6 Y-6.76 Z0.55 F6000.0
G1 X25.6 Y-5.59 Z0.55 F6000.0
M108 R11.1
M103
(</perimeter>)
(</boundaryPerimeter>)
(</surroundingLoop>)
(<surroundingLoop>)
(<boundaryPerimeter>)
(<boundaryPoint> X26.306 Y7.65 Z0.55 </boundaryPoint>)
(<boundaryPoint> X27.182 Y8.255 Z0.55 </boundaryPoint>)
(<boundaryPoint> X28.239 Y8.384 Z0.55 </boundaryPoint>)
(<boundaryPoint> X29.235 Y8.006 Z0.55 </boundaryPoint>)
(<boundaryPoint> X29.941 Y7.209 Z0.55 </boundaryPoint>)
(<boundaryPoint> X30.196 Y6.175 Z0.55 </boundaryPoint>)
(<boundaryPoint> X29.941 Y5.141 Z0.55 </boundaryPoint>)
(<boundaryPoint> X29.235 Y4.344 Z0.55 </boundaryPoint>)
(<boundaryPoint> X28.239 Y3.966 Z0.55 </boundaryPoint>)
(<boundaryPoint> X27.182 Y4.095 Z0.55 </boundaryPoint>)
(<boundaryPoint> X26.306 Y4.7 Z0.55 </boundaryPoint>)
(<boundaryPoint> X25.811 Y5.643 Z0.55 </boundaryPoint>)
(<boundaryPoint> X25.811 Y6.707 Z0.55 </boundaryPoint>)
(<perimeter> inner )
G1 X26.85 Y2.31 Z0.55 F6000.0
M108 R30.0
M101
G1 X27.11 Y3.89 Z0.55 F6000.0
M108 R11.1
G1 X26.14 Y4.56 Z0.55 F6000.0
G1 X25.6 Y5.59 Z0.55 F6000.0
G1 X25.6 Y6.76 Z0.55 F6000.0
G1 X26.14 Y7.79 Z0.55 F6000.0
G1 X27.11 Y8.46 Z0.55 F6000.0
G1 X28.27 Y8.6 Z0.55 F6000.0
G1 X29.36 Y8.18 Z0.55 F6000.0
G1 X30.13 Y7.31 Z0.55 F6000.0
G1 X30.41 Y6.17 Z0.55 F6000.0
G1 X30.13 Y5.04 Z0.55 F6000.0
G1 X29.36 Y4.17 Z0.55 F6000.0
G1 X28.57 Y3.87 Z0.55 F6000.0
M108 R30.0
M102
G1 X28.27 Y3.75 Z0.55 F6000.0
G1 X27.11 Y3.89 Z0.55 F6000.0
M108 R11.1
M103
(</perimeter>)
(</boundaryPerimeter>)
(</surroundingLoop>)
G1 X26.51 Y4.23 Z0.55 F6000.0
M108 R30.0
M101
G1 X25.12 Y5.03 Z0.55 F6000.0
M108 R11.1
G1 X17.82 Y5.03 Z0.55 F6000.0
G1 X17.82 Y4.61 Z0.55 F6000.0
G1 X25.34 Y4.61 Z0.55 F6000.0
G1 X25.56 Y4.19 Z0.55 F6000.0
G1 X17.82 Y4.19 Z0.55 F6000.0
G1 X17.82 Y3.77 Z0.55 F6000.0
G1 X26.07 Y3.77 Z0.55 F6000.0
G1 X26.67 Y3.35 Z0.55 F6000.0
G1 X17.82 Y3.35 Z0.55 F6000.0
G1 X17.82 Y2.93 Z0.55 F6000.0
G1 X38.12 Y2.93 Z0.55 F6000.0
G1 X38.12 Y3.35 Z0.55 F6000.0
G1 X29.16 Y3.35 Z0.55 F6000.0
M103
G1 X29.93 Y3.77 Z0.55 F6000.0
M101
G1 X38.12 Y3.77 Z0.55 F6000.0
G1 X38.12 Y4.19 Z0.55 F6000.0
G1 X30.3 Y4.19 Z0.55 F6000.0
G1 X30.67 Y4.61 Z0.55 F6000.0
G1 X38.12 Y4.61 Z0.55 F6000.0
G1 X38.12 Y5.03 Z0.55 F6000.0
G1 X30.84 Y5.03 Z0.55 F6000.0
M103
G1 X30.94 Y5.45 Z0.55 F6000.0
M101
G1 X38.12 Y5.45 Z0.55 F6000.0
G1 X38.12 Y5.86 Z0.55 F6000.0
G1 X31.05 Y5.86 Z0.55 F6000.0
M103
G1 X31.1 Y6.28 Z0.55 F6000.0
M101
G1 X38.12 Y6.28 Z0.55 F6000.0
G1 X38.12 Y6.7 Z0.55 F6000.0
G1 X30.99 Y6.7 Z0.55 F6000.0
G1 X30.89 Y7.12 Z0.55 F6000.0
G1 X38.12 Y7.12 Z0.55 F6000.0
G1 X38.12 Y7.54 Z0.55 F6000.0
G1 X30.79 Y7.54 Z0.55 F6000.0
G1 X30.48 Y7.96 Z0.55 F6000.0
G1 X38.12 Y7.96 Z0.55 F6000.0
G1 X38.12 Y8.38 Z0.55 F6000.0
G1 X30.11 Y8.38 Z0.55 F6000.0
G1 X29.69 Y8.8 Z0.55 F6000.0
G1 X36.62 Y8.8 Z0.55 F6000.0
M108 R30.0
M102
G1 X38.12 Y8.8 Z0.55 F6000.0
M108 R11.1
M103
G1 X38.12 Y12.64 Z0.55 F6000.0
M108 R30.0
M101
G1 X38.12 Y14.24 Z0.55 F6000.0
M108 R11.1
G1 X17.82 Y14.24 Z0.55 F6000.0
G1 X17.82 Y13.82 Z0.55 F6000.0
G1 X38.12 Y13.82 Z0.55 F6000.0
G1 X38.12 Y13.4 Z0.55 F6000.0
G1 X17.82 Y13.4 Z0.55 F6000.0
G1 X17.82 Y12.98 Z0.55 F6000.0
G1 X38.12 Y12.98 Z0.55 F6000.0
G1 X38.12 Y12.57 Z0.55 F6000.0
G1 X17.82 Y12.57 Z0.55 F6000.0
G1 X17.82 Y12.15 Z0.55 F6000.0
G1 X38.12 Y12.15 Z0.55 F6000.0
G1 X38.12 Y11.73 Z0.55 F6000.0
G1 X17.82 Y11.73 Z0.55 F6000.0
G1 X17.82 Y11.31 Z0.55 F6000.0
G1 X38.12 Y11.31 Z0.55 F6000.0
G1 X38.12 Y10.89 Z0.55 F6000.0
G1 X17.82 Y10.89 Z0.55 F6000.0
G1 X17.82 Y10.47 Z0.55 F6000.0
G1 X38.12 Y10.47 Z0.55 F6000.0
G1 X38.12 Y10.05 Z0.55 F6000.0
G1 X17.82 Y10.05 Z0.55 F6000.0
G1 X17.82 Y9.63 Z0.55 F6000.0
G1 X38.12 Y9.63 Z0.55 F6000.0
G1 X38.12 Y9.21 Z0.55 F6000.0
G1 X28.59 Y9.21 Z0.55 F6000.0
M103
G1 X27.62 Y9.21 Z0.55 F6000.0
M101
G1 X17.82 Y9.21 Z0.55 F6000.0
G1 X17.82 Y8.8 Z0.55 F6000.0
G1 X26.38 Y8.8 Z0.55 F6000.0
G1 X25.77 Y8.38 Z0.55 F6000.0
G1 X17.82 Y8.38 Z0.55 F6000.0
G1 X17.82 Y7.96 Z0.55 F6000.0
G1 X25.45 Y7.96 Z0.55 F6000.0
G1 X25.23 Y7.54 Z0.55 F6000.0
G1 X17.82 Y7.54 Z0.55 F6000.0
G1 X17.82 Y7.12 Z0.55 F6000.0
G1 X25.01 Y7.12 Z0.55 F6000.0
M103
G1 X24.91 Y6.7 Z0.55 F6000.0
M101
G1 X17.82 Y6.7 Z0.55 F6000.0
G1 X17.82 Y6.28 Z0.55 F6000.0
G1 X24.91 Y6.28 Z0.55 F6000.0
G1 X24.91 Y5.86 Z0.55 F6000.0
G1 X17.82 Y5.86 Z0.55 F6000.0
G1 X17.82 Y5.45 Z0.55 F6000.0
G1 X23.41 Y5.45 Z0.55 F6000.0
M108 R30.0
M102
G1 X24.91 Y5.45 Z0.55 F6000.0
M108 R11.1
M103
G1 X27.08 Y3.83 Z0.55 F6000.0
G1 X36.53 Y2.7 Z0.55 F6000.0
M108 R30.0
M101
G1 X38.12 Y2.51 Z0.55 F6000.0
M108 R11.1
G1 X17.82 Y2.51 Z0.55 F6000.0
G1 X17.82 Y2.09 Z0.55 F6000.0
G1 X38.12 Y2.09 Z0.55 F6000.0
G1 X38.12 Y1.68 Z0.55 F6000.0
G1 X17.82 Y1.68 Z0.55 F6000.0
G1 X17.82 Y1.26 Z0.55 F6000.0
G1 X38.12 Y1.26 Z0.55 F6000.0
G1 X38.12 Y0.84 Z0.55 F6000.0
G1 X17.82 Y0.84 Z0.55 F6000.0
G1 X17.82 Y0.42 Z0.55 F6000.0
G1 X38.12 Y0.42 Z0.55 F6000.0
G1 X38.12 Y0.0 Z0.55 F6000.0
G1 X17.82 Y0.0 Z0.55 F6000.0
G1 X17.82 Y-0.42 Z0.55 F6000.0
G1 X38.12 Y-0.42 Z0.55 F6000.0
G1 X38.12 Y-0.84 Z0.55 F6000.0
G1 X17.82 Y-0.84 Z0.55 F6000.0
G1 X17.82 Y-1.26 Z0.55 F6000.0
G1 X38.12 Y-1.26 Z0.55 F6000.0
G1 X38.12 Y-1.68 Z0.55 F6000.0
G1 X17.82 Y-1.68 Z0.55 F6000.0
G1 X17.82 Y-2.09 Z0.55 F6000.0
G1 X38.12 Y-2.09 Z0.55 F6000.0
G1 X38.12 Y-2.51 Z0.55 F6000.0
G1 X17.82 Y-2.51 Z0.55 F6000.0
G1 X17.82 Y-2.93 Z0.55 F6000.0
G1 X38.12 Y-2.93 Z0.55 F6000.0
G1 X38.12 Y-3.35 Z0.55 F6000.0
G1 X29.16 Y-3.35 Z0.55 F6000.0
M103
G1 X29.93 Y-3.77 Z0.55 F6000.0
M101
G1 X38.12 Y-3.77 Z0.55 F6000.0
G1 X38.12 Y-4.19 Z0.55 F6000.0
G1 X30.3 Y-4.19 Z0.55 F6000.0
G1 X30.67 Y-4.61 Z0.55 F6000.0
G1 X38.12 Y-4.61 Z0.55 F6000.0
G1 X38.12 Y-5.03 Z0.55 F6000.0
G1 X30.84 Y-5.03 Z0.55 F6000.0
M103
G1 X30.94 Y-5.45 Z0.55 F6000.0
M101
G1 X38.12 Y-5.45 Z0.55 F6000.0
G1 X38.12 Y-5.86 Z0.55 F6000.0
G1 X31.05 Y-5.86 Z0.55 F6000.0
M103
G1 X31.1 Y-6.28 Z0.55 F6000.0
M101
G1 X38.12 Y-6.28 Z0.55 F6000.0
G1 X38.12 Y-6.7 Z0.55 F6000.0
G1 X30.99 Y-6.7 Z0.55 F6000.0
G1 X30.89 Y-7.12 Z0.55 F6000.0
G1 X38.12 Y-7.12 Z0.55 F6000.0
G1 X38.12 Y-7.54 Z0.55 F6000.0
G1 X30.79 Y-7.54 Z0.55 F6000.0
G1 X30.48 Y-7.96 Z0.55 F6000.0
G1 X38.12 Y-7.96 Z0.55 F6000.0
G1 X38.12 Y-8.38 Z0.55 F6000.0
G1 X30.11 Y-8.38 Z0.55 F6000.0
G1 X29.69 Y-8.8 Z0.55 F6000.0
G1 X38.12 Y-8.8 Z0.55 F6000.0
G1 X38.12 Y-9.21 Z0.55 F6000.0
G1 X28.59 Y-9.21 Z0.55 F6000.0
M103
G1 X27.62 Y-9.21 Z0.55 F6000.0
M101
G1 X17.82 Y-9.21 Z0.55 F6000.0
G1 X17.82 Y-9.63 Z0.55 F6000.0
G1 X38.12 Y-9.63 Z0.55 F6000.0
G1 X38.12 Y-10.05 Z0.55 F6000.0
G1 X17.82 Y-10.05 Z0.55 F6000.0
G1 X17.82 Y-10.47 Z0.55 F6000.0
G1 X38.12 Y-10.47 Z0.55 F6000.0
G1 X38.12 Y-10.89 Z0.55 F6000.0
G1 X17.82 Y-10.89 Z0.55 F6000.0
G1 X17.82 Y-11.31 Z0.55 F6000.0
G1 X38.12 Y-11.31 Z0.55 F6000.0
G1 X38.12 Y-11.73 Z0.55 F6000.0
G1 X17.82 Y-11.73 Z0.55 F6000.0
G1 X17.82 Y-12.15 Z0.55 F6000.0
G1 X38.12 Y-12.15 Z0.55 F6000.0
G1 X38.12 Y-12.57 Z0.55 F6000.0
G1 X17.82 Y-12.57 Z0.55 F6000.0
G1 X17.82 Y-12.98 Z0.55 F6000.0
G1 X38.12 Y-12.98 Z0.55 F6000.0
G1 X38.12 Y-13.4 Z0.55 F6000.0
G1 X17.82 Y-13.4 Z0.55 F6000.0
G1 X17.82 Y-13.82 Z0.55 F6000.0
G1 X38.12 Y-13.82 Z0.55 F6000.0
G1 X38.12 Y-14.24 Z0.55 F6000.0
G1 X19.32 Y-14.24 Z0.55 F6000.0
M108 R30.0
M102
G1 X17.82 Y-14.24 Z0.55 F6000.0
M108 R11.1
M103
G1 X17.82 Y-10.4 Z0.55 F6000.0
M108 R30.0
M101
G1 X17.82 Y-8.8 Z0.55 F6000.0
M108 R11.1
G1 X26.38 Y-8.8 Z0.55 F6000.0
G1 X25.77 Y-8.38 Z0.55 F6000.0
G1 X17.82 Y-8.38 Z0.55 F6000.0
G1 X17.82 Y-7.96 Z0.55 F6000.0
G1 X25.45 Y-7.96 Z0.55 F6000.0
G1 X25.23 Y-7.54 Z0.55 F6000.0
G1 X17.82 Y-7.54 Z0.55 F6000.0
G1 X17.82 Y-7.12 Z0.55 F6000.0
G1 X25.01 Y-7.12 Z0.55 F6000.0
M103
G1 X24.91 Y-6.7 Z0.55 F6000.0
M101
G1 X17.82 Y-6.7 Z0.55 F6000.0
G1 X17.82 Y-6.28 Z0.55 F6000.0
G1 X24.91 Y-6.28 Z0.55 F6000.0
G1 X24.91 Y-5.86 Z0.55 F6000.0
G1 X17.82 Y-5.86 Z0.55 F6000.0
G1 X17.82 Y-5.45 Z0.55 F6000.0
G1 X24.91 Y-5.45 Z0.55 F6000.0
M103
G1 X25.12 Y-5.03 Z0.55 F6000.0
M101
G1 X17.82 Y-5.03 Z0.55 F6000.0
G1 X17.82 Y-4.61 Z0.55 F6000.0
G1 X25.34 Y-4.61 Z0.55 F6000.0
G1 X25.56 Y-4.19 Z0.55 F6000.0
G1 X17.82 Y-4.19 Z0.55 F6000.0
G1 X17.82 Y-3.77 Z0.55 F6000.0
G1 X26.07 Y-3.77 Z0.55 F6000.0
G1 X26.67 Y-3.35 Z0.55 F6000.0
G1 X19.32 Y-3.35 Z0.55 F6000.0
M108 R30.0
M102
G1 X17.82 Y-3.35 Z0.55 F6000.0
M108 R11.1
M103
(</surroundingLoop>)
(<surroundingLoop>)
(<boundaryPerimeter>)
(<boundaryPoint> X11.046 Y15.55 Z0.55 </boundaryPoint>)
(<boundaryPoint> X-11.054 Y15.55 Z0.55 </boundaryPoint>)
(<boundaryPoint> X-11.054 Y-15.55 Z0.55 </boundaryPoint>)
(<boundaryPoint> X10.872 Y-15.55 Z0.55 </boundaryPoint>)
(<boundaryPoint> X11.046 Y-15.169 Z0.55 </boundaryPoint>)
(<loop> inner )
G1 X3.99 Y4.28 Z0.55 F6000.0
M108 R30.0
M101
G1 X2.59 Y5.05 Z0.55 F6000.0
M108 R11.1
G1 X2.54 Y4.84 Z0.55 F6000.0
G1 X1.63 Y3.81 Z0.55 F6000.0
G1 X0.34 Y3.32 Z0.55 F6000.0
G1 X-1.02 Y3.49 Z0.55 F6000.0
G1 X-2.15 Y4.27 Z0.55 F6000.0
G1 X-2.79 Y5.49 Z0.55 F6000.0
G1 X-2.79 Y6.86 Z0.55 F6000.0
G1 X-2.15 Y8.08 Z0.55 F6000.0
G1 X-1.02 Y8.86 Z0.55 F6000.0
G1 X0.34 Y9.03 Z0.55 F6000.0
G1 X1.63 Y8.54 Z0.55 F6000.0
G1 X2.54 Y7.51 Z0.55 F6000.0
G1 X2.79 Y6.51 Z0.55 F6000.0
M108 R30.0
M102
G1 X2.87 Y6.17 Z0.55 F6000.0
G1 X2.59 Y5.05 Z0.55 F6000.0
M108 R11.1
M103
(</loop>)
(<loop> inner )
G1 X0.76 Y-1.78 Z0.55 F6000.0
M108 R30.0
M101
G1 X0.34 Y-3.32 Z0.55 F6000.0
M108 R11.1
G1 X1.63 Y-3.81 Z0.55 F6000.0
G1 X2.54 Y-4.84 Z0.55 F6000.0
G1 X2.87 Y-6.17 Z0.55 F6000.0
G1 X2.54 Y-7.51 Z0.55 F6000.0
G1 X1.63 Y-8.54 Z0.55 F6000.0
G1 X0.34 Y-9.03 Z0.55 F6000.0
G1 X-1.02 Y-8.86 Z0.55 F6000.0
G1 X-2.15 Y-8.08 Z0.55 F6000.0
G1 X-2.79 Y-6.86 Z0.55 F6000.0
G1 X-2.79 Y-5.49 Z0.55 F6000.0
G1 X-2.15 Y-4.27 Z0.55 F6000.0
G1 X-1.13 Y-3.56 Z0.55 F6000.0
M108 R30.0
M102
G1 X-1.02 Y-3.49 Z0.55 F6000.0
G1 X-0.75 Y-3.46 Z0.55 F6000.0
G1 X0.34 Y-3.32 Z0.55 F6000.0
M108 R11.1
M103
(</loop>)
(<loop> outer )
G1 X8.82 Y-3.32 Z0.55 F6000.0
M108 R30.0
M101
G1 X10.42 Y-3.32 Z0.55 F6000.0
M108 R11.1
G1 X10.42 Y14.92 Z0.55 F6000.0
G1 X-10.43 Y14.92 Z0.55 F6000.0
G1 X-10.43 Y-3.46 Z0.55 F6000.0
G1 X-10.43 Y-14.92 Z0.55 F6000.0
G1 X10.42 Y-14.92 Z0.55 F6000.0
G1 X10.42 Y-3.32 Z0.55 F6000.0
M103
(</loop>)
(<perimeter> outer )
G1 X10.84 Y-3.32 Z0.55 F6000.0
M101
G1 X10.84 Y15.34 Z0.55 F6000.0
G1 X-10.85 Y15.34 Z0.55 F6000.0
G1 X-10.85 Y-3.46 Z0.55 F6000.0
G1 X-10.85 Y-15.34 Z0.55 F6000.0
G1 X10.74 Y-15.34 Z0.55 F6000.0
G1 X10.84 Y-15.12 Z0.55 F6000.0
G1 X10.84 Y-4.82 Z0.55 F6000.0
M108 R30.0
M102
G1 X10.84 Y-3.32 Z0.55 F6000.0
M108 R11.1
M103
(</perimeter>)
(</boundaryPerimeter>)
(<surroundingLoop>)
(<boundaryPerimeter>)
(<boundaryPoint> X-0.793 Y-4.095 Z0.55 </boundaryPoint>)
(<boundaryPoint> X0.264 Y-3.966 Z0.55 </boundaryPoint>)
(<boundaryPoint> X1.26 Y-4.344 Z0.55 </boundaryPoint>)
(<boundaryPoint> X1.966 Y-5.141 Z0.55 </boundaryPoint>)
(<boundaryPoint> X2.221 Y-6.175 Z0.55 </boundaryPoint>)
(<boundaryPoint> X1.966 Y-7.209 Z0.55 </boundaryPoint>)
(<boundaryPoint> X1.26 Y-8.006 Z0.55 </boundaryPoint>)
(<boundaryPoint> X0.264 Y-8.384 Z0.55 </boundaryPoint>)
(<boundaryPoint> X-0.793 Y-8.255 Z0.55 </boundaryPoint>)
(<boundaryPoint> X-1.669 Y-7.65 Z0.55 </boundaryPoint>)
(<boundaryPoint> X-2.164 Y-6.707 Z0.55 </boundaryPoint>)
(<boundaryPoint> X-2.164 Y-5.643 Z0.55 </boundaryPoint>)
(<boundaryPoint> X-1.669 Y-4.7 Z0.55 </boundaryPoint>)
(<perimeter> inner )
G1 X3.81 Y-5.06 Z0.55 F6000.0
M108 R30.0
M101
G1 X2.26 Y-5.44 Z0.55 F6000.0
M108 R11.1
G1 X2.44 Y-6.17 Z0.55 F6000.0
G1 X2.16 Y-7.31 Z0.55 F6000.0
G1 X1.38 Y-8.18 Z0.55 F6000.0
G1 X0.29 Y-8.6 Z0.55 F6000.0
G1 X-0.87 Y-8.46 Z0.55 F6000.0
G1 X-1.83 Y-7.79 Z0.55 F6000.0
G1 X-2.37 Y-6.76 Z0.55 F6000.0
G1 X-2.37 Y-5.59 Z0.55 F6000.0
G1 X-1.83 Y-4.56 Z0.55 F6000.0
G1 X-0.87 Y-3.89 Z0.55 F6000.0
G1 X0.29 Y-3.75 Z0.55 F6000.0
G1 X1.38 Y-4.17 Z0.55 F6000.0
G1 X1.44 Y-4.23 Z0.55 F6000.0
M108 R30.0
M102
G1 X2.16 Y-5.04 Z0.55 F6000.0
G1 X2.26 Y-5.44 Z0.55 F6000.0
M108 R11.1
M103
(</perimeter>)
(</boundaryPerimeter>)
(</surroundingLoop>)
(<surroundingLoop>)
(<boundaryPerimeter>)
(<boundaryPoint> X-1.669 Y7.65 Z0.55 </boundaryPoint>)
(<boundaryPoint> X-0.793 Y8.255 Z0.55 </boundaryPoint>)
(<boundaryPoint> X0.264 Y8.384 Z0.55 </boundaryPoint>)
(<boundaryPoint> X1.26 Y8.006 Z0.55 </boundaryPoint>)
(<boundaryPoint> X1.966 Y7.209 Z0.55 </boundaryPoint>)
(<boundaryPoint> X2.221 Y6.175 Z0.55 </boundaryPoint>)
(<boundaryPoint> X1.966 Y5.141 Z0.55 </boundaryPoint>)
(<boundaryPoint> X1.26 Y4.344 Z0.55 </boundaryPoint>)
(<boundaryPoint> X0.264 Y3.966 Z0.55 </boundaryPoint>)
(<boundaryPoint> X-0.793 Y4.095 Z0.55 </boundaryPoint>)
(<boundaryPoint> X-1.669 Y4.7 Z0.55 </boundaryPoint>)
(<boundaryPoint> X-2.164 Y5.643 Z0.55 </boundaryPoint>)
(<boundaryPoint> X-2.164 Y6.707 Z0.55 </boundaryPoint>)
(<perimeter> inner )
G1 X0.63 Y2.19 Z0.55 F6000.0
M108 R30.0
M101
G1 X0.29 Y3.75 Z0.55 F6000.0
M108 R11.1
G1 X-0.87 Y3.89 Z0.55 F6000.0
G1 X-1.83 Y4.56 Z0.55 F6000.0
G1 X-2.37 Y5.59 Z0.55 F6000.0
G1 X-2.37 Y6.76 Z0.55 F6000.0
G1 X-1.83 Y7.79 Z0.55 F6000.0
G1 X-0.87 Y8.46 Z0.55 F6000.0
G1 X0.29 Y8.6 Z0.55 F6000.0
G1 X1.38 Y8.18 Z0.55 F6000.0
G1 X2.16 Y7.31 Z0.55 F6000.0
G1 X2.44 Y6.17 Z0.55 F6000.0
G1 X2.16 Y5.04 Z0.55 F6000.0
G1 X1.6 Y4.41 Z0.55 F6000.0
M108 R30.0
M102
G1 X1.38 Y4.17 Z0.55 F6000.0
G1 X0.29 Y3.75 Z0.55 F6000.0
M108 R11.1
M103
(</perimeter>)
(</boundaryPerimeter>)
(</surroundingLoop>)
G1 X-0.89 Y3.83 Z0.55 F6000.0
G1 X-1.49 Y4.19 Z0.55 F6000.0
M108 R30.0
M101
G1 X-2.86 Y5.03 Z0.55 F6000.0
M108 R11.1
G1 X-10.15 Y5.03 Z0.55 F6000.0
G1 X-10.15 Y4.61 Z0.55 F6000.0
G1 X-2.64 Y4.61 Z0.55 F6000.0
G1 X-2.42 Y4.19 Z0.55 F6000.0
G1 X-10.15 Y4.19 Z0.55 F6000.0
G1 X-10.15 Y3.77 Z0.55 F6000.0
G1 X-1.91 Y3.77 Z0.55 F6000.0
G1 X-1.3 Y3.35 Z0.55 F6000.0
G1 X-10.15 Y3.35 Z0.55 F6000.0
G1 X-10.15 Y2.93 Z0.55 F6000.0
G1 X10.14 Y2.93 Z0.55 F6000.0
G1 X10.14 Y3.35 Z0.55 F6000.0
G1 X1.18 Y3.35 Z0.55 F6000.0
M103
G1 X1.96 Y3.77 Z0.55 F6000.0
M101
G1 X10.14 Y3.77 Z0.55 F6000.0
G1 X10.14 Y4.19 Z0.55 F6000.0
G1 X2.33 Y4.19 Z0.55 F6000.0
G1 X2.7 Y4.61 Z0.55 F6000.0
G1 X10.14 Y4.61 Z0.55 F6000.0
G1 X10.14 Y5.03 Z0.55 F6000.0
G1 X2.87 Y5.03 Z0.55 F6000.0
M103
G1 X2.97 Y5.45 Z0.55 F6000.0
M101
G1 X10.14 Y5.45 Z0.55 F6000.0
G1 X10.14 Y5.86 Z0.55 F6000.0
G1 X3.07 Y5.86 Z0.55 F6000.0
M103
G1 X3.12 Y6.28 Z0.55 F6000.0
M101
G1 X10.14 Y6.28 Z0.55 F6000.0
G1 X10.14 Y6.7 Z0.55 F6000.0
G1 X3.02 Y6.7 Z0.55 F6000.0
G1 X2.92 Y7.12 Z0.55 F6000.0
G1 X10.14 Y7.12 Z0.55 F6000.0
G1 X10.14 Y7.54 Z0.55 F6000.0
G1 X2.81 Y7.54 Z0.55 F6000.0
G1 X2.5 Y7.96 Z0.55 F6000.0
G1 X10.14 Y7.96 Z0.55 F6000.0
G1 X10.14 Y8.38 Z0.55 F6000.0
G1 X2.13 Y8.38 Z0.55 F6000.0
G1 X1.72 Y8.8 Z0.55 F6000.0
G1 X8.64 Y8.8 Z0.55 F6000.0
M108 R30.0
M102
G1 X10.14 Y8.8 Z0.55 F6000.0
M108 R11.1
M103
G1 X10.14 Y12.64 Z0.55 F6000.0
M108 R30.0
M101
G1 X10.14 Y14.24 Z0.55 F6000.0
M108 R11.1
G1 X-10.15 Y14.24 Z0.55 F6000.0
G1 X-10.15 Y13.82 Z0.55 F6000.0
G1 X10.14 Y13.82 Z0.55 F6000.0
G1 X10.14 Y13.4 Z0.55 F6000.0
G1 X-10.15 Y13.4 Z0.55 F6000.0
G1 X-10.15 Y12.98 Z0.55 F6000.0
G1 X10.14 Y12.98 Z0.55 F6000.0
G1 X10.14 Y12.57 Z0.55 F6000.0
G1 X-10.15 Y12.57 Z0.55 F6000.0
G1 X-10.15 Y12.15 Z0.55 F6000.0
G1 X10.14 Y12.15 Z0.55 F6000.0
G1 X10.14 Y11.73 Z0.55 F6000.0
G1 X-10.15 Y11.73 Z0.55 F6000.0
G1 X-10.15 Y11.31 Z0.55 F6000.0
G1 X10.14 Y11.31 Z0.55 F6000.0
G1 X10.14 Y10.89 Z0.55 F6000.0
G1 X-10.15 Y10.89 Z0.55 F6000.0
G1 X-10.15 Y10.47 Z0.55 F6000.0
G1 X10.14 Y10.47 Z0.55 F6000.0
G1 X10.14 Y10.05 Z0.55 F6000.0
G1 X-10.15 Y10.05 Z0.55 F6000.0
G1 X-10.15 Y9.63 Z0.55 F6000.0
G1 X10.14 Y9.63 Z0.55 F6000.0
G1 X10.14 Y9.21 Z0.55 F6000.0
G1 X0.61 Y9.21 Z0.55 F6000.0
M103
G1 X-0.36 Y9.21 Z0.55 F6000.0
M101
G1 X-10.15 Y9.21 Z0.55 F6000.0
G1 X-10.15 Y8.8 Z0.55 F6000.0
G1 X-1.59 Y8.8 Z0.55 F6000.0
G1 X-2.2 Y8.38 Z0.55 F6000.0
G1 X-10.15 Y8.38 Z0.55 F6000.0
G1 X-10.15 Y7.96 Z0.55 F6000.0
G1 X-2.52 Y7.96 Z0.55 F6000.0
G1 X-2.74 Y7.54 Z0.55 F6000.0
G1 X-10.15 Y7.54 Z0.55 F6000.0
G1 X-10.15 Y7.12 Z0.55 F6000.0
G1 X-2.96 Y7.12 Z0.55 F6000.0
M103
G1 X-3.06 Y6.7 Z0.55 F6000.0
M101
G1 X-10.15 Y6.7 Z0.55 F6000.0
G1 X-10.15 Y6.28 Z0.55 F6000.0
G1 X-3.06 Y6.28 Z0.55 F6000.0
G1 X-3.06 Y5.86 Z0.55 F6000.0
G1 X-10.15 Y5.86 Z0.55 F6000.0
G1 X-10.15 Y5.45 Z0.55 F6000.0
G1 X-4.57 Y5.45 Z0.55 F6000.0
M108 R30.0
M102
G1 X-3.06 Y5.45 Z0.55 F6000.0
M108 R11.1
M103
G1 X-0.89 Y3.83 Z0.55 F6000.0
G1 X8.56 Y2.7 Z0.55 F6000.0
M108 R30.0
M101
G1 X10.14 Y2.51 Z0.55 F6000.0
M108 R11.1
G1 X-10.15 Y2.51 Z0.55 F6000.0
G1 X-10.15 Y2.09 Z0.55 F6000.0
G1 X10.14 Y2.09 Z0.55 F6000.0
G1 X10.14 Y1.68 Z0.55 F6000.0
G1 X-10.15 Y1.68 Z0.55 F6000.0
G1 X-10.15 Y1.26 Z0.55 F6000.0
G1 X10.14 Y1.26 Z0.55 F6000.0
G1 X10.14 Y0.84 Z0.55 F6000.0
G1 X-10.15 Y0.84 Z0.55 F6000.0
G1 X-10.15 Y0.42 Z0.55 F6000.0
G1 X10.14 Y0.42 Z0.55 F6000.0
G1 X10.14 Y0.0 Z0.55 F6000.0
G1 X-10.15 Y0.0 Z0.55 F6000.0
G1 X-10.15 Y-0.42 Z0.55 F6000.0
G1 X10.14 Y-0.42 Z0.55 F6000.0
G1 X10.14 Y-0.84 Z0.55 F6000.0
G1 X-10.15 Y-0.84 Z0.55 F6000.0
G1 X-10.15 Y-1.26 Z0.55 F6000.0
G1 X10.14 Y-1.26 Z0.55 F6000.0
G1 X10.14 Y-1.68 Z0.55 F6000.0
G1 X-10.15 Y-1.68 Z0.55 F6000.0
G1 X-10.15 Y-2.09 Z0.55 F6000.0
G1 X10.14 Y-2.09 Z0.55 F6000.0
G1 X10.14 Y-2.51 Z0.55 F6000.0
G1 X-10.15 Y-2.51 Z0.55 F6000.0
G1 X-10.15 Y-2.93 Z0.55 F6000.0
G1 X10.14 Y-2.93 Z0.55 F6000.0
G1 X10.14 Y-3.35 Z0.55 F6000.0
G1 X1.18 Y-3.35 Z0.55 F6000.0
M103
G1 X1.96 Y-3.77 Z0.55 F6000.0
M101
G1 X10.14 Y-3.77 Z0.55 F6000.0
G1 X10.14 Y-4.19 Z0.55 F6000.0
G1 X2.33 Y-4.19 Z0.55 F6000.0
G1 X2.7 Y-4.61 Z0.55 F6000.0
G1 X10.14 Y-4.61 Z0.55 F6000.0
G1 X10.14 Y-5.03 Z0.55 F6000.0
G1 X2.87 Y-5.03 Z0.55 F6000.0
M103
G1 X2.97 Y-5.45 Z0.55 F6000.0
M101
G1 X10.14 Y-5.45 Z0.55 F6000.0
G1 X10.14 Y-5.86 Z0.55 F6000.0
G1 X3.07 Y-5.86 Z0.55 F6000.0
M103
G1 X3.12 Y-6.28 Z0.55 F6000.0
M101
G1 X10.14 Y-6.28 Z0.55 F6000.0
G1 X10.14 Y-6.7 Z0.55 F6000.0
G1 X3.02 Y-6.7 Z0.55 F6000.0
G1 X2.92 Y-7.12 Z0.55 F6000.0
G1 X10.14 Y-7.12 Z0.55 F6000.0
G1 X10.14 Y-7.54 Z0.55 F6000.0
G1 X2.81 Y-7.54 Z0.55 F6000.0
G1 X2.5 Y-7.96 Z0.55 F6000.0
G1 X10.14 Y-7.96 Z0.55 F6000.0
G1 X10.14 Y-8.38 Z0.55 F6000.0
G1 X2.13 Y-8.38 Z0.55 F6000.0
G1 X1.72 Y-8.8 Z0.55 F6000.0
G1 X10.14 Y-8.8 Z0.55 F6000.0
G1 X10.14 Y-9.21 Z0.55 F6000.0
G1 X0.61 Y-9.21 Z0.55 F6000.0
M103
G1 X-0.36 Y-9.21 Z0.55 F6000.0
M101
G1 X-10.15 Y-9.21 Z0.55 F6000.0
G1 X-10.15 Y-9.63 Z0.55 F6000.0
G1 X10.14 Y-9.63 Z0.55 F6000.0
G1 X10.14 Y-10.05 Z0.55 F6000.0
G1 X-10.15 Y-10.05 Z0.55 F6000.0
G1 X-10.15 Y-10.47 Z0.55 F6000.0
G1 X10.14 Y-10.47 Z0.55 F6000.0
G1 X10.14 Y-10.89 Z0.55 F6000.0
G1 X-10.15 Y-10.89 Z0.55 F6000.0
G1 X-10.15 Y-11.31 Z0.55 F6000.0
G1 X10.14 Y-11.31 Z0.55 F6000.0
G1 X10.14 Y-11.73 Z0.55 F6000.0
G1 X-10.15 Y-11.73 Z0.55 F6000.0
G1 X-10.15 Y-12.15 Z0.55 F6000.0
G1 X10.14 Y-12.15 Z0.55 F6000.0
G1 X10.14 Y-12.57 Z0.55 F6000.0
G1 X-10.15 Y-12.57 Z0.55 F6000.0
G1 X-10.15 Y-12.98 Z0.55 F6000.0
G1 X10.14 Y-12.98 Z0.55 F6000.0
G1 X10.14 Y-13.4 Z0.55 F6000.0
G1 X-10.15 Y-13.4 Z0.55 F6000.0
G1 X-10.15 Y-13.82 Z0.55 F6000.0
G1 X10.14 Y-13.82 Z0.55 F6000.0
G1 X10.14 Y-14.24 Z0.55 F6000.0
G1 X-8.65 Y-14.24 Z0.55 F6000.0
M108 R30.0
M102
G1 X-10.15 Y-14.24 Z0.55 F6000.0
M108 R11.1
M103
G1 X-10.15 Y-10.4 Z0.55 F6000.0
M108 R30.0
M101
G1 X-10.15 Y-8.8 Z0.55 F6000.0
M108 R11.1
G1 X-1.59 Y-8.8 Z0.55 F6000.0
G1 X-2.2 Y-8.38 Z0.55 F6000.0
G1 X-10.15 Y-8.38 Z0.55 F6000.0
G1 X-10.15 Y-7.96 Z0.55 F6000.0
G1 X-2.52 Y-7.96 Z0.55 F6000.0
G1 X-2.74 Y-7.54 Z0.55 F6000.0
G1 X-10.15 Y-7.54 Z0.55 F6000.0
G1 X-10.15 Y-7.12 Z0.55 F6000.0
G1 X-2.96 Y-7.12 Z0.55 F6000.0
M103
G1 X-3.06 Y-6.7 Z0.55 F6000.0
M101
G1 X-10.15 Y-6.7 Z0.55 F6000.0
G1 X-10.15 Y-6.28 Z0.55 F6000.0
G1 X-3.06 Y-6.28 Z0.55 F6000.0
G1 X-3.06 Y-5.86 Z0.55 F6000.0
G1 X-10.15 Y-5.86 Z0.55 F6000.0
G1 X-10.15 Y-5.45 Z0.55 F6000.0
G1 X-3.06 Y-5.45 Z0.55 F6000.0
M103
G1 X-2.86 Y-5.03 Z0.55 F6000.0
M101
G1 X-10.15 Y-5.03 Z0.55 F6000.0
G1 X-10.15 Y-4.61 Z0.55 F6000.0
G1 X-2.64 Y-4.61 Z0.55 F6000.0
G1 X-2.42 Y-4.19 Z0.55 F6000.0
G1 X-10.15 Y-4.19 Z0.55 F6000.0
G1 X-10.15 Y-3.77 Z0.55 F6000.0
G1 X-1.91 Y-3.77 Z0.55 F6000.0
G1 X-1.3 Y-3.35 Z0.55 F6000.0
G1 X-8.65 Y-3.35 Z0.55 F6000.0
M108 R30.0
M102
G1 X-10.15 Y-3.35 Z0.55 F6000.0
M108 R11.1
M103
(</surroundingLoop>)
(<surroundingLoop>)
(<boundaryPerimeter>)
(<boundaryPoint> X-16.929 Y15.55 Z0.55 </boundaryPoint>)
(<boundaryPoint> X-39.029 Y15.55 Z0.55 </boundaryPoint>)
(<boundaryPoint> X-39.029 Y-15.55 Z0.55 </boundaryPoint>)
(<boundaryPoint> X-17.103 Y-15.55 Z0.55 </boundaryPoint>)
(<boundaryPoint> X-16.929 Y-15.169 Z0.55 </boundaryPoint>)
(<loop> inner )
G1 X-23.98 Y4.28 Z0.55 F6000.0
M108 R30.0
M101
G1 X-25.38 Y5.05 Z0.55 F6000.0
M108 R11.1
G1 X-25.44 Y4.84 Z0.55 F6000.0
G1 X-26.35 Y3.81 Z0.55 F6000.0
G1 X-27.63 Y3.32 Z0.55 F6000.0
G1 X-29.0 Y3.49 Z0.55 F6000.0
G1 X-30.13 Y4.27 Z0.55 F6000.0
G1 X-30.77 Y5.49 Z0.55 F6000.0
G1 X-30.77 Y6.86 Z0.55 F6000.0
G1 X-30.13 Y8.08 Z0.55 F6000.0
G1 X-29.0 Y8.86 Z0.55 F6000.0
G1 X-27.63 Y9.03 Z0.55 F6000.0
G1 X-26.35 Y8.54 Z0.55 F6000.0
G1 X-25.44 Y7.51 Z0.55 F6000.0
G1 X-25.19 Y6.51 Z0.55 F6000.0
M108 R30.0
M102
G1 X-25.11 Y6.17 Z0.55 F6000.0
G1 X-25.38 Y5.05 Z0.55 F6000.0
M108 R11.1
M103
(</loop>)
(<loop> inner )
G1 X-27.22 Y-1.78 Z0.55 F6000.0
M108 R30.0
M101
G1 X-27.63 Y-3.32 Z0.55 F6000.0
M108 R11.1
G1 X-26.35 Y-3.81 Z0.55 F6000.0
G1 X-25.44 Y-4.84 Z0.55 F6000.0
G1 X-25.11 Y-6.17 Z0.55 F6000.0
G1 X-25.44 Y-7.51 Z0.55 F6000.0
G1 X-26.35 Y-8.54 Z0.55 F6000.0
G1 X-27.63 Y-9.03 Z0.55 F6000.0
G1 X-29.0 Y-8.86 Z0.55 F6000.0
G1 X-30.13 Y-8.08 Z0.55 F6000.0
G1 X-30.77 Y-6.86 Z0.55 F6000.0
G1 X-30.77 Y-5.49 Z0.55 F6000.0
G1 X-30.13 Y-4.27 Z0.55 F6000.0
G1 X-29.1 Y-3.56 Z0.55 F6000.0
M108 R30.0
M102
G1 X-29.0 Y-3.49 Z0.55 F6000.0
G1 X-28.72 Y-3.46 Z0.55 F6000.0
G1 X-27.63 Y-3.32 Z0.55 F6000.0
M108 R11.1
M103
(</loop>)
(<loop> outer )
G1 X-19.16 Y-3.32 Z0.55 F6000.0
M108 R30.0
M101
G1 X-17.56 Y-3.32 Z0.55 F6000.0
M108 R11.1
G1 X-17.56 Y14.92 Z0.55 F6000.0
G1 X-38.4 Y14.92 Z0.55 F6000.0
G1 X-38.4 Y-3.46 Z0.55 F6000.0
G1 X-38.4 Y-14.92 Z0.55 F6000.0
G1 X-17.56 Y-14.92 Z0.55 F6000.0
G1 X-17.56 Y-3.32 Z0.55 F6000.0
M103
(</loop>)
(<perimeter> outer )
G1 X-17.14 Y-3.32 Z0.55 F6000.0
M101
G1 X-17.14 Y15.34 Z0.55 F6000.0
G1 X-38.82 Y15.34 Z0.55 F6000.0
G1 X-38.82 Y-3.46 Z0.55 F6000.0
G1 X-38.82 Y-15.34 Z0.55 F6000.0
G1 X-17.24 Y-15.34 Z0.55 F6000.0
G1 X-17.14 Y-15.12 Z0.55 F6000.0
G1 X-17.14 Y-4.82 Z0.55 F6000.0
M108 R30.0
M102
G1 X-17.14 Y-3.32 Z0.55 F6000.0
M108 R11.1
M103
(</perimeter>)
(</boundaryPerimeter>)
(<surroundingLoop>)
(<boundaryPerimeter>)
(<boundaryPoint> X-28.768 Y-4.095 Z0.55 </boundaryPoint>)
(<boundaryPoint> X-27.711 Y-3.966 Z0.55 </boundaryPoint>)
(<boundaryPoint> X-26.715 Y-4.344 Z0.55 </boundaryPoint>)
(<boundaryPoint> X-26.009 Y-5.141 Z0.55 </boundaryPoint>)
(<boundaryPoint> X-25.754 Y-6.175 Z0.55 </boundaryPoint>)
(<boundaryPoint> X-26.009 Y-7.209 Z0.55 </boundaryPoint>)
(<boundaryPoint> X-26.715 Y-8.006 Z0.55 </boundaryPoint>)
(<boundaryPoint> X-27.711 Y-8.384 Z0.55 </boundaryPoint>)
(<boundaryPoint> X-28.768 Y-8.255 Z0.55 </boundaryPoint>)
(<boundaryPoint> X-29.644 Y-7.65 Z0.55 </boundaryPoint>)
(<boundaryPoint> X-30.139 Y-6.707 Z0.55 </boundaryPoint>)
(<boundaryPoint> X-30.139 Y-5.643 Z0.55 </boundaryPoint>)
(<boundaryPoint> X-29.644 Y-4.7 Z0.55 </boundaryPoint>)
(<perimeter> inner )
G1 X-24.17 Y-5.06 Z0.55 F6000.0
M108 R30.0
M101
G1 X-25.72 Y-5.44 Z0.55 F6000.0
M108 R11.1
G1 X-25.54 Y-6.17 Z0.55 F6000.0
G1 X-25.82 Y-7.31 Z0.55 F6000.0
G1 X-26.59 Y-8.18 Z0.55 F6000.0
G1 X-27.68 Y-8.6 Z0.55 F6000.0
G1 X-28.84 Y-8.46 Z0.55 F6000.0
G1 X-29.81 Y-7.79 Z0.55 F6000.0
G1 X-30.35 Y-6.76 Z0.55 F6000.0
G1 X-30.35 Y-5.59 Z0.55 F6000.0
G1 X-29.81 Y-4.56 Z0.55 F6000.0
G1 X-28.84 Y-3.89 Z0.55 F6000.0
G1 X-27.68 Y-3.75 Z0.55 F6000.0
G1 X-26.59 Y-4.17 Z0.55 F6000.0
G1 X-26.54 Y-4.23 Z0.55 F6000.0
M108 R30.0
M102
G1 X-25.82 Y-5.04 Z0.55 F6000.0
G1 X-25.72 Y-5.44 Z0.55 F6000.0
M108 R11.1
M103
(</perimeter>)
(</boundaryPerimeter>)
(</surroundingLoop>)
(<surroundingLoop>)
(<boundaryPerimeter>)
(<boundaryPoint> X-29.644 Y7.65 Z0.55 </boundaryPoint>)
(<boundaryPoint> X-28.768 Y8.255 Z0.55 </boundaryPoint>)
(<boundaryPoint> X-27.711 Y8.384 Z0.55 </boundaryPoint>)
(<boundaryPoint> X-26.715 Y8.006 Z0.55 </boundaryPoint>)
(<boundaryPoint> X-26.009 Y7.209 Z0.55 </boundaryPoint>)
(<boundaryPoint> X-25.754 Y6.175 Z0.55 </boundaryPoint>)
(<boundaryPoint> X-26.009 Y5.141 Z0.55 </boundaryPoint>)
(<boundaryPoint> X-26.715 Y4.344 Z0.55 </boundaryPoint>)
(<boundaryPoint> X-27.711 Y3.966 Z0.55 </boundaryPoint>)
(<boundaryPoint> X-28.768 Y4.095 Z0.55 </boundaryPoint>)
(<boundaryPoint> X-29.644 Y4.7 Z0.55 </boundaryPoint>)
(<boundaryPoint> X-30.139 Y5.643 Z0.55 </boundaryPoint>)
(<boundaryPoint> X-30.139 Y6.707 Z0.55 </boundaryPoint>)
(<perimeter> inner )
G1 X-27.35 Y2.19 Z0.55 F6000.0
M108 R30.0
M101
G1 X-27.68 Y3.75 Z0.55 F6000.0
M108 R11.1
G1 X-28.84 Y3.89 Z0.55 F6000.0
G1 X-29.81 Y4.56 Z0.55 F6000.0
G1 X-30.35 Y5.59 Z0.55 F6000.0
G1 X-30.35 Y6.76 Z0.55 F6000.0
G1 X-29.81 Y7.79 Z0.55 F6000.0
G1 X-28.84 Y8.46 Z0.55 F6000.0
G1 X-27.68 Y8.6 Z0.55 F6000.0
G1 X-26.59 Y8.18 Z0.55 F6000.0
G1 X-25.82 Y7.31 Z0.55 F6000.0
G1 X-25.54 Y6.17 Z0.55 F6000.0
G1 X-25.82 Y5.04 Z0.55 F6000.0
G1 X-26.37 Y4.41 Z0.55 F6000.0
M108 R30.0
M102
G1 X-26.59 Y4.17 Z0.55 F6000.0
G1 X-27.68 Y3.75 Z0.55 F6000.0
M108 R11.1
M103
(</perimeter>)
(</boundaryPerimeter>)
(</surroundingLoop>)
G1 X-28.87 Y3.83 Z0.55 F6000.0
G1 X-29.47 Y4.19 Z0.55 F6000.0
M108 R30.0
M101
G1 X-30.83 Y5.03 Z0.55 F6000.0
M108 R11.1
G1 X-38.13 Y5.03 Z0.55 F6000.0
G1 X-38.13 Y4.61 Z0.55 F6000.0
G1 X-30.61 Y4.61 Z0.55 F6000.0
G1 X-30.39 Y4.19 Z0.55 F6000.0
G1 X-38.13 Y4.19 Z0.55 F6000.0
G1 X-38.13 Y3.77 Z0.55 F6000.0
G1 X-29.88 Y3.77 Z0.55 F6000.0
G1 X-29.28 Y3.35 Z0.55 F6000.0
G1 X-38.13 Y3.35 Z0.55 F6000.0
G1 X-38.13 Y2.93 Z0.55 F6000.0
G1 X-17.83 Y2.93 Z0.55 F6000.0
G1 X-17.83 Y3.35 Z0.55 F6000.0
G1 X-26.79 Y3.35 Z0.55 F6000.0
M103
G1 X-26.02 Y3.77 Z0.55 F6000.0
M101
G1 X-17.83 Y3.77 Z0.55 F6000.0
G1 X-17.83 Y4.19 Z0.55 F6000.0
G1 X-25.65 Y4.19 Z0.55 F6000.0
G1 X-25.28 Y4.61 Z0.55 F6000.0
G1 X-17.83 Y4.61 Z0.55 F6000.0
G1 X-17.83 Y5.03 Z0.55 F6000.0
G1 X-25.11 Y5.03 Z0.55 F6000.0
M103
G1 X-25.01 Y5.45 Z0.55 F6000.0
M101
G1 X-17.83 Y5.45 Z0.55 F6000.0
G1 X-17.83 Y5.86 Z0.55 F6000.0
G1 X-24.9 Y5.86 Z0.55 F6000.0
M103
G1 X-24.85 Y6.28 Z0.55 F6000.0
M101
G1 X-17.83 Y6.28 Z0.55 F6000.0
G1 X-17.83 Y6.7 Z0.55 F6000.0
G1 X-24.96 Y6.7 Z0.55 F6000.0
G1 X-25.06 Y7.12 Z0.55 F6000.0
G1 X-17.83 Y7.12 Z0.55 F6000.0
G1 X-17.83 Y7.54 Z0.55 F6000.0
G1 X-25.16 Y7.54 Z0.55 F6000.0
G1 X-25.47 Y7.96 Z0.55 F6000.0
G1 X-17.83 Y7.96 Z0.55 F6000.0
G1 X-17.83 Y8.38 Z0.55 F6000.0
G1 X-25.84 Y8.38 Z0.55 F6000.0
G1 X-26.26 Y8.8 Z0.55 F6000.0
G1 X-19.33 Y8.8 Z0.55 F6000.0
M108 R30.0
M102
G1 X-17.83 Y8.8 Z0.55 F6000.0
M108 R11.1
M103
G1 X-17.83 Y12.64 Z0.55 F6000.0
M108 R30.0
M101
G1 X-17.83 Y14.24 Z0.55 F6000.0
M108 R11.1
G1 X-38.13 Y14.24 Z0.55 F6000.0
G1 X-38.13 Y13.82 Z0.55 F6000.0
G1 X-17.83 Y13.82 Z0.55 F6000.0
G1 X-17.83 Y13.4 Z0.55 F6000.0
G1 X-38.13 Y13.4 Z0.55 F6000.0
G1 X-38.13 Y12.98 Z0.55 F6000.0
G1 X-17.83 Y12.98 Z0.55 F6000.0
G1 X-17.83 Y12.57 Z0.55 F6000.0
G1 X-38.13 Y12.57 Z0.55 F6000.0
G1 X-38.13 Y12.15 Z0.55 F6000.0
G1 X-17.83 Y12.15 Z0.55 F6000.0
G1 X-17.83 Y11.73 Z0.55 F6000.0
G1 X-38.13 Y11.73 Z0.55 F6000.0
G1 X-38.13 Y11.31 Z0.55 F6000.0
G1 X-17.83 Y11.31 Z0.55 F6000.0
G1 X-17.83 Y10.89 Z0.55 F6000.0
G1 X-38.13 Y10.89 Z0.55 F6000.0
G1 X-38.13 Y10.47 Z0.55 F6000.0
G1 X-17.83 Y10.47 Z0.55 F6000.0
G1 X-17.83 Y10.05 Z0.55 F6000.0
G1 X-38.13 Y10.05 Z0.55 F6000.0
G1 X-38.13 Y9.63 Z0.55 F6000.0
G1 X-17.83 Y9.63 Z0.55 F6000.0
G1 X-17.83 Y9.21 Z0.55 F6000.0
G1 X-27.36 Y9.21 Z0.55 F6000.0
M103
G1 X-28.33 Y9.21 Z0.55 F6000.0
M101
G1 X-38.13 Y9.21 Z0.55 F6000.0
G1 X-38.13 Y8.8 Z0.55 F6000.0
G1 X-29.57 Y8.8 Z0.55 F6000.0
G1 X-30.18 Y8.38 Z0.55 F6000.0
G1 X-38.13 Y8.38 Z0.55 F6000.0
G1 X-38.13 Y7.96 Z0.55 F6000.0
G1 X-30.5 Y7.96 Z0.55 F6000.0
G1 X-30.72 Y7.54 Z0.55 F6000.0
G1 X-38.13 Y7.54 Z0.55 F6000.0
G1 X-38.13 Y7.12 Z0.55 F6000.0
G1 X-30.94 Y7.12 Z0.55 F6000.0
M103
G1 X-31.04 Y6.7 Z0.55 F6000.0
M101
G1 X-38.13 Y6.7 Z0.55 F6000.0
G1 X-38.13 Y6.28 Z0.55 F6000.0
G1 X-31.04 Y6.28 Z0.55 F6000.0
G1 X-31.04 Y5.86 Z0.55 F6000.0
G1 X-38.13 Y5.86 Z0.55 F6000.0
G1 X-38.13 Y5.45 Z0.55 F6000.0
G1 X-32.54 Y5.45 Z0.55 F6000.0
M108 R30.0
M102
G1 X-31.04 Y5.45 Z0.55 F6000.0
M108 R11.1
M103
G1 X-28.87 Y3.83 Z0.55 F6000.0
G1 X-19.42 Y2.7 Z0.55 F6000.0
M108 R30.0
M101
G1 X-17.83 Y2.51 Z0.55 F6000.0
M108 R11.1
G1 X-38.13 Y2.51 Z0.55 F6000.0
G1 X-38.13 Y2.09 Z0.55 F6000.0
G1 X-17.83 Y2.09 Z0.55 F6000.0
G1 X-17.83 Y1.68 Z0.55 F6000.0
G1 X-38.13 Y1.68 Z0.55 F6000.0
G1 X-38.13 Y1.26 Z0.55 F6000.0
G1 X-17.83 Y1.26 Z0.55 F6000.0
G1 X-17.83 Y0.84 Z0.55 F6000.0
G1 X-38.13 Y0.84 Z0.55 F6000.0
G1 X-38.13 Y0.42 Z0.55 F6000.0
G1 X-17.83 Y0.42 Z0.55 F6000.0
G1 X-17.83 Y0.0 Z0.55 F6000.0
G1 X-38.13 Y0.0 Z0.55 F6000.0
G1 X-38.13 Y-0.42 Z0.55 F6000.0
G1 X-17.83 Y-0.42 Z0.55 F6000.0
G1 X-17.83 Y-0.84 Z0.55 F6000.0
G1 X-38.13 Y-0.84 Z0.55 F6000.0
G1 X-38.13 Y-1.26 Z0.55 F6000.0
G1 X-17.83 Y-1.26 Z0.55 F6000.0
G1 X-17.83 Y-1.68 Z0.55 F6000.0
G1 X-38.13 Y-1.68 Z0.55 F6000.0
G1 X-38.13 Y-2.09 Z0.55 F6000.0
G1 X-17.83 Y-2.09 Z0.55 F6000.0
G1 X-17.83 Y-2.51 Z0.55 F6000.0
G1 X-38.13 Y-2.51 Z0.55 F6000.0
G1 X-38.13 Y-2.93 Z0.55 F6000.0
G1 X-17.83 Y-2.93 Z0.55 F6000.0
G1 X-17.83 Y-3.35 Z0.55 F6000.0
G1 X-26.79 Y-3.35 Z0.55 F6000.0
M103
G1 X-26.02 Y-3.77 Z0.55 F6000.0
M101
G1 X-17.83 Y-3.77 Z0.55 F6000.0
G1 X-17.83 Y-4.19 Z0.55 F6000.0
G1 X-25.65 Y-4.19 Z0.55 F6000.0
G1 X-25.28 Y-4.61 Z0.55 F6000.0
G1 X-17.83 Y-4.61 Z0.55 F6000.0
G1 X-17.83 Y-5.03 Z0.55 F6000.0
G1 X-25.11 Y-5.03 Z0.55 F6000.0
M103
G1 X-25.01 Y-5.45 Z0.55 F6000.0
M101
G1 X-17.83 Y-5.45 Z0.55 F6000.0
G1 X-17.83 Y-5.86 Z0.55 F6000.0
G1 X-24.9 Y-5.86 Z0.55 F6000.0
M103
G1 X-24.85 Y-6.28 Z0.55 F6000.0
M101
G1 X-17.83 Y-6.28 Z0.55 F6000.0
G1 X-17.83 Y-6.7 Z0.55 F6000.0
G1 X-24.96 Y-6.7 Z0.55 F6000.0
G1 X-25.06 Y-7.12 Z0.55 F6000.0
G1 X-17.83 Y-7.12 Z0.55 F6000.0
G1 X-17.83 Y-7.54 Z0.55 F6000.0
G1 X-25.16 Y-7.54 Z0.55 F6000.0
G1 X-25.47 Y-7.96 Z0.55 F6000.0
G1 X-17.83 Y-7.96 Z0.55 F6000.0
G1 X-17.83 Y-8.38 Z0.55 F6000.0
G1 X-25.84 Y-8.38 Z0.55 F6000.0
G1 X-26.26 Y-8.8 Z0.55 F6000.0
G1 X-17.83 Y-8.8 Z0.55 F6000.0
G1 X-17.83 Y-9.21 Z0.55 F6000.0
G1 X-27.36 Y-9.21 Z0.55 F6000.0
M103
G1 X-28.33 Y-9.21 Z0.55 F6000.0
M101
G1 X-38.13 Y-9.21 Z0.55 F6000.0
G1 X-38.13 Y-9.63 Z0.55 F6000.0
G1 X-17.83 Y-9.63 Z0.55 F6000.0
G1 X-17.83 Y-10.05 Z0.55 F6000.0
G1 X-38.13 Y-10.05 Z0.55 F6000.0
G1 X-38.13 Y-10.47 Z0.55 F6000.0
G1 X-17.83 Y-10.47 Z0.55 F6000.0
G1 X-17.83 Y-10.89 Z0.55 F6000.0
G1 X-38.13 Y-10.89 Z0.55 F6000.0
G1 X-38.13 Y-11.31 Z0.55 F6000.0
G1 X-17.83 Y-11.31 Z0.55 F6000.0
G1 X-17.83 Y-11.73 Z0.55 F6000.0
G1 X-38.13 Y-11.73 Z0.55 F6000.0
G1 X-38.13 Y-12.15 Z0.55 F6000.0
G1 X-17.83 Y-12.15 Z0.55 F6000.0
G1 X-17.83 Y-12.57 Z0.55 F6000.0
G1 X-38.13 Y-12.57 Z0.55 F6000.0
G1 X-38.13 Y-12.98 Z0.55 F6000.0
G1 X-17.83 Y-12.98 Z0.55 F6000.0
G1 X-17.83 Y-13.4 Z0.55 F6000.0
G1 X-38.13 Y-13.4 Z0.55 F6000.0
G1 X-38.13 Y-13.82 Z0.55 F6000.0
G1 X-17.83 Y-13.82 Z0.55 F6000.0
G1 X-17.83 Y-14.24 Z0.55 F6000.0
G1 X-36.63 Y-14.24 Z0.55 F6000.0
M108 R30.0
M102
G1 X-38.13 Y-14.24 Z0.55 F6000.0
M108 R11.1
M103
G1 X-38.13 Y-10.4 Z0.55 F6000.0
M108 R30.0
M101
G1 X-38.13 Y-8.8 Z0.55 F6000.0
M108 R11.1
G1 X-29.57 Y-8.8 Z0.55 F6000.0
G1 X-30.18 Y-8.38 Z0.55 F6000.0
G1 X-38.13 Y-8.38 Z0.55 F6000.0
G1 X-38.13 Y-7.96 Z0.55 F6000.0
G1 X-30.5 Y-7.96 Z0.55 F6000.0
G1 X-30.72 Y-7.54 Z0.55 F6000.0
G1 X-38.13 Y-7.54 Z0.55 F6000.0
G1 X-38.13 Y-7.12 Z0.55 F6000.0
G1 X-30.94 Y-7.12 Z0.55 F6000.0
M103
G1 X-31.04 Y-6.7 Z0.55 F6000.0
M101
G1 X-38.13 Y-6.7 Z0.55 F6000.0
G1 X-38.13 Y-6.28 Z0.55 F6000.0
G1 X-31.04 Y-6.28 Z0.55 F6000.0
G1 X-31.04 Y-5.86 Z0.55 F6000.0
G1 X-38.13 Y-5.86 Z0.55 F6000.0
G1 X-38.13 Y-5.45 Z0.55 F6000.0
G1 X-31.04 Y-5.45 Z0.55 F6000.0
M103
G1 X-30.83 Y-5.03 Z0.55 F6000.0
M101
G1 X-38.13 Y-5.03 Z0.55 F6000.0
G1 X-38.13 Y-4.61 Z0.55 F6000.0
G1 X-30.61 Y-4.61 Z0.55 F6000.0
G1 X-30.39 Y-4.19 Z0.55 F6000.0
G1 X-38.13 Y-4.19 Z0.55 F6000.0
G1 X-38.13 Y-3.77 Z0.55 F6000.0
G1 X-29.88 Y-3.77 Z0.55 F6000.0
G1 X-29.28 Y-3.35 Z0.55 F6000.0
G1 X-36.63 Y-3.35 Z0.55 F6000.0
M108 R30.0
M102
G1 X-38.13 Y-3.35 Z0.55 F6000.0
M108 R11.1
M103
(</surroundingLoop>)
(</layer>)
(<operatingLayerEnd> </operatingLayerEnd>)
(<layer> 0.85 )
(<surroundingLoop>)
(<boundaryPerimeter>)
(<boundaryPoint> X-16.929 Y15.55 Z0.85 </boundaryPoint>)
(<boundaryPoint> X-39.029 Y15.55 Z0.85 </boundaryPoint>)
(<boundaryPoint> X-39.029 Y-15.55 Z0.85 </boundaryPoint>)
(<boundaryPoint> X-16.929 Y-15.55 Z0.85 </boundaryPoint>)
(<loop> inner )
G1 X-32.33 Y-4.8 Z0.79 F6000.0
M108 R30.0
M101
G1 X-30.77 Y-5.19 Z0.85 F6000.0
M108 R11.1
G1 X-30.24 Y-4.17 Z0.85 F6000.0
G1 X-29.05 Y-3.35 Z0.85 F6000.0
G1 X-27.61 Y-3.17 Z0.85 F6000.0
G1 X-26.26 Y-3.69 Z0.85 F6000.0
G1 X-25.3 Y-4.77 Z0.85 F6000.0
G1 X-24.96 Y-6.17 Z0.85 F6000.0
G1 X-25.3 Y-7.58 Z0.85 F6000.0
G1 X-26.26 Y-8.66 Z0.85 F6000.0
G1 X-27.61 Y-9.18 Z0.85 F6000.0
G1 X-29.05 Y-9.0 Z0.85 F6000.0
G1 X-30.24 Y-8.18 Z0.85 F6000.0
G1 X-30.91 Y-6.9 Z0.85 F6000.0
G1 X-30.91 Y-6.66 Z0.85 F6000.0
M108 R30.0
M102
G1 X-30.91 Y-5.45 Z0.85 F6000.0
G1 X-30.77 Y-5.19 Z0.85 F6000.0
M108 R11.1
M103
(</loop>)
(<loop> inner )
G1 X-29.37 Y1.78 Z0.85 F6000.0
M108 R30.0
M101
G1 X-29.05 Y3.35 Z0.85 F6000.0
M108 R11.1
G1 X-30.24 Y4.17 Z0.85 F6000.0
G1 X-30.91 Y5.45 Z0.85 F6000.0
G1 X-30.91 Y6.9 Z0.85 F6000.0
G1 X-30.24 Y8.18 Z0.85 F6000.0
G1 X-29.05 Y9.0 Z0.85 F6000.0
G1 X-27.61 Y9.18 Z0.85 F6000.0
G1 X-26.26 Y8.66 Z0.85 F6000.0
G1 X-25.3 Y7.58 Z0.85 F6000.0
G1 X-24.96 Y6.17 Z0.85 F6000.0
G1 X-25.3 Y4.77 Z0.85 F6000.0
G1 X-26.26 Y3.69 Z0.85 F6000.0
G1 X-27.57 Y3.19 Z0.85 F6000.0
M108 R30.0
M102
G1 X-27.61 Y3.17 Z0.85 F6000.0
G1 X-29.05 Y3.35 Z0.85 F6000.0
M108 R11.1
M103
(</loop>)
(<loop> outer )
G1 X-36.8 Y3.35 Z0.85 F6000.0
M108 R30.0
M101
G1 X-38.4 Y3.35 Z0.85 F6000.0
M108 R11.1
G1 X-38.4 Y-14.92 Z0.85 F6000.0
G1 X-17.56 Y-14.92 Z0.85 F6000.0
G1 X-17.56 Y14.92 Z0.85 F6000.0
G1 X-38.4 Y14.92 Z0.85 F6000.0
G1 X-38.4 Y3.35 Z0.85 F6000.0
M103
(</loop>)
(<perimeter> outer )
G1 X-38.82 Y3.35 Z0.85 F6000.0
M101
G1 X-38.82 Y-15.34 Z0.85 F6000.0
G1 X-17.14 Y-15.34 Z0.85 F6000.0
G1 X-17.14 Y15.34 Z0.85 F6000.0
G1 X-38.82 Y15.34 Z0.85 F6000.0
G1 X-38.82 Y4.85 Z0.85 F6000.0
M108 R30.0
M102
G1 X-38.82 Y3.35 Z0.85 F6000.0
M108 R11.1
M103
(</perimeter>)
(</boundaryPerimeter>)
(<surroundingLoop>)
(<boundaryPerimeter>)
(<boundaryPoint> X-29.757 Y7.75 Z0.85 </boundaryPoint>)
(<boundaryPoint> X-28.821 Y8.396 Z0.85 </boundaryPoint>)
(<boundaryPoint> X-27.693 Y8.533 Z0.85 </boundaryPoint>)
(<boundaryPoint> X-26.63 Y8.13 Z0.85 </boundaryPoint>)
(<boundaryPoint> X-25.876 Y7.279 Z0.85 </boundaryPoint>)
(<boundaryPoint> X-25.604 Y6.175 Z0.85 </boundaryPoint>)
(<boundaryPoint> X-25.876 Y5.071 Z0.85 </boundaryPoint>)
(<boundaryPoint> X-26.63 Y4.22 Z0.85 </boundaryPoint>)
(<boundaryPoint> X-27.693 Y3.817 Z0.85 </boundaryPoint>)
(<boundaryPoint> X-28.821 Y3.954 Z0.85 </boundaryPoint>)
(<boundaryPoint> X-29.757 Y4.6 Z0.85 </boundaryPoint>)
(<boundaryPoint> X-30.285 Y5.607 Z0.85 </boundaryPoint>)
(<boundaryPoint> X-30.285 Y6.743 Z0.85 </boundaryPoint>)
(<perimeter> inner )
G1 X-32.04 Y5.14 Z0.85 F6000.0
M108 R30.0
M101
G1 X-30.49 Y5.55 Z0.85 F6000.0
M108 R11.1
G1 X-30.5 Y6.79 Z0.85 F6000.0
G1 X-29.92 Y7.89 Z0.85 F6000.0
G1 X-28.9 Y8.6 Z0.85 F6000.0
G1 X-27.67 Y8.75 Z0.85 F6000.0
G1 X-26.51 Y8.31 Z0.85 F6000.0
G1 X-25.68 Y7.38 Z0.85 F6000.0
G1 X-25.39 Y6.17 Z0.85 F6000.0
G1 X-25.68 Y4.97 Z0.85 F6000.0
G1 X-26.51 Y4.04 Z0.85 F6000.0
G1 X-27.67 Y3.6 Z0.85 F6000.0
G1 X-28.9 Y3.75 Z0.85 F6000.0
G1 X-29.7 Y4.31 Z0.85 F6000.0
M108 R30.0
M102
G1 X-29.92 Y4.46 Z0.85 F6000.0
G1 X-30.49 Y5.55 Z0.85 F6000.0
M108 R11.1
M103
(</perimeter>)
(</boundaryPerimeter>)
(</surroundingLoop>)
(<surroundingLoop>)
(<boundaryPerimeter>)
(<boundaryPoint> X-28.821 Y-3.954 Z0.85 </boundaryPoint>)
(<boundaryPoint> X-27.693 Y-3.817 Z0.85 </boundaryPoint>)
(<boundaryPoint> X-26.63 Y-4.22 Z0.85 </boundaryPoint>)
(<boundaryPoint> X-25.876 Y-5.071 Z0.85 </boundaryPoint>)
(<boundaryPoint> X-25.604 Y-6.175 Z0.85 </boundaryPoint>)
(<boundaryPoint> X-25.876 Y-7.279 Z0.85 </boundaryPoint>)
(<boundaryPoint> X-26.63 Y-8.13 Z0.85 </boundaryPoint>)
(<boundaryPoint> X-27.693 Y-8.533 Z0.85 </boundaryPoint>)
(<boundaryPoint> X-28.821 Y-8.396 Z0.85 </boundaryPoint>)
(<boundaryPoint> X-29.757 Y-7.75 Z0.85 </boundaryPoint>)
(<boundaryPoint> X-30.285 Y-6.743 Z0.85 </boundaryPoint>)
(<boundaryPoint> X-30.285 Y-5.607 Z0.85 </boundaryPoint>)
(<boundaryPoint> X-29.757 Y-4.6 Z0.85 </boundaryPoint>)
(<perimeter> inner )
G1 X-29.17 Y-2.17 Z0.85 F6000.0
M108 R30.0
M101
G1 X-28.9 Y-3.75 Z0.85 F6000.0
M108 R11.1
G1 X-27.67 Y-3.6 Z0.85 F6000.0
G1 X-26.51 Y-4.04 Z0.85 F6000.0
G1 X-25.68 Y-4.97 Z0.85 F6000.0
G1 X-25.39 Y-6.17 Z0.85 F6000.0
G1 X-25.68 Y-7.38 Z0.85 F6000.0
G1 X-26.51 Y-8.31 Z0.85 F6000.0
G1 X-27.67 Y-8.75 Z0.85 F6000.0
G1 X-28.9 Y-8.6 Z0.85 F6000.0
G1 X-29.92 Y-7.89 Z0.85 F6000.0
G1 X-30.49 Y-6.79 Z0.85 F6000.0
G1 X-30.5 Y-5.55 Z0.85 F6000.0
G1 X-30.04 Y-4.69 Z0.85 F6000.0
M108 R30.0
M102
G1 X-29.92 Y-4.46 Z0.85 F6000.0
G1 X-28.9 Y-3.75 Z0.85 F6000.0
M108 R11.1
M103
(</perimeter>)
(</boundaryPerimeter>)
(</surroundingLoop>)
G1 X-28.55 Y1.41 Z0.85 F6000.0
M108 R30.0
M101
G1 X-28.44 Y3.0 Z0.85 F6000.0
M108 R11.1
G1 X-28.04 Y2.48 Z0.85 F6000.0
G1 X-27.44 Y2.13 Z0.85 F6000.0
G1 X-27.44 Y1.86 Z0.85 F6000.0
G1 X-28.52 Y0.8 Z0.85 F6000.0
G1 X-28.52 Y0.53 Z0.85 F6000.0
G1 X-27.44 Y-0.53 Z0.85 F6000.0
G1 X-27.44 Y-0.8 Z0.85 F6000.0
G1 X-28.27 Y-1.61 Z0.85 F6000.0
M108 R30.0
M102
G1 X-28.52 Y-1.86 Z0.85 F6000.0
G1 X-28.44 Y-3.0 Z0.85 F6000.0
M108 R11.1
M103
M108 R30.0
M101
G1 X-27.05 Y-3.1 Z0.85 F5247.622
M108 R11.1
G1 X-26.58 Y-3.27 Z0.85 F6000.0
G1 X-26.11 Y-2.13 Z0.85 F6000.0
G1 X-26.11 Y-1.86 Z0.85 F6000.0
G1 X-27.19 Y-0.8 Z0.85 F6000.0
G1 X-27.19 Y-0.53 Z0.85 F6000.0
G1 X-26.11 Y0.53 Z0.85 F6000.0
G1 X-26.11 Y0.8 Z0.85 F6000.0
G1 X-27.19 Y1.86 Z0.85 F6000.0
G1 X-27.19 Y2.13 Z0.85 F6000.0
G1 X-27.22 Y2.19 Z0.85 F6000.0
M108 R30.0
M102
G1 X-27.35 Y2.49 Z0.85 F6000.0
G1 X-27.05 Y3.1 Z0.85 F6000.0
G1 X-26.58 Y3.27 Z0.85 F6000.0
M108 R11.1
M103
M108 R30.0
M101
G1 X-25.65 Y3.97 Z0.85 F4347.804
M108 R11.1
G1 X-25.98 Y3.46 Z0.85 F6000.0
G1 X-25.86 Y-2.13 Z0.85 F6000.0
G1 X-25.74 Y-3.17 Z0.85 F6000.0
M108 R30.0
M102
G1 X-25.65 Y-3.97 Z0.85 F6000.0
G1 X-25.19 Y-4.49 Z0.85 F6000.0
M108 R11.1
M103
G1 X-19.54 Y-13.3 Z0.85 F6000.0
M108 R30.0
M101
G1 X-18.67 Y-14.65 Z0.85 F6000.0
M108 R11.1
G1 X-18.2 Y-14.65 Z0.85 F6000.0
G1 X-18.2 Y14.65 Z0.85 F6000.0
G1 X-19.6 Y14.65 Z0.85 F6000.0
G1 X-19.21 Y12.77 Z0.85 F6000.0
G1 X-19.34 Y-14.1 Z0.85 F6000.0
G1 X-19.14 Y-14.65 Z0.85 F6000.0
G1 X-21.0 Y-14.65 Z0.85 F6000.0
G1 X-20.54 Y-12.77 Z0.85 F6000.0
G1 X-20.54 Y11.44 Z0.85 F6000.0
G1 X-19.46 Y12.5 Z0.85 F6000.0
G1 X-19.46 Y12.77 Z0.85 F6000.0
G1 X-20.66 Y13.83 Z0.85 F6000.0
G1 X-20.66 Y14.1 Z0.85 F6000.0
G1 X-20.07 Y14.65 Z0.85 F6000.0
G1 X-22.39 Y14.65 Z0.85 F6000.0
G1 X-22.0 Y12.77 Z0.85 F6000.0
G1 X-22.0 Y12.5 Z0.85 F6000.0
G1 X-20.79 Y11.44 Z0.85 F6000.0
G1 X-20.79 Y11.17 Z0.85 F6000.0
G1 X-22.0 Y10.11 Z0.85 F6000.0
G1 X-22.0 Y9.84 Z0.85 F6000.0
G1 X-20.79 Y8.78 Z0.85 F6000.0
G1 X-20.79 Y8.51 Z0.85 F6000.0
G1 X-22.0 Y7.45 Z0.85 F6000.0
G1 X-22.0 Y7.18 Z0.85 F6000.0
G1 X-20.79 Y6.12 Z0.85 F6000.0
G1 X-20.79 Y5.85 Z0.85 F6000.0
G1 X-22.0 Y4.79 Z0.85 F6000.0
G1 X-22.0 Y4.52 Z0.85 F6000.0
G1 X-20.79 Y3.46 Z0.85 F6000.0
G1 X-20.79 Y3.19 Z0.85 F6000.0
G1 X-22.0 Y2.13 Z0.85 F6000.0
G1 X-22.0 Y1.86 Z0.85 F6000.0
G1 X-20.79 Y0.8 Z0.85 F6000.0
G1 X-20.79 Y0.53 Z0.85 F6000.0
G1 X-22.0 Y-0.53 Z0.85 F6000.0
G1 X-22.0 Y-0.8 Z0.85 F6000.0
G1 X-20.79 Y-1.86 Z0.85 F6000.0
G1 X-20.79 Y-2.13 Z0.85 F6000.0
G1 X-22.0 Y-3.19 Z0.85 F6000.0
G1 X-22.0 Y-3.46 Z0.85 F6000.0
G1 X-20.79 Y-4.52 Z0.85 F6000.0
G1 X-20.79 Y-4.79 Z0.85 F6000.0
G1 X-22.0 Y-5.85 Z0.85 F6000.0
G1 X-22.0 Y-6.12 Z0.85 F6000.0
G1 X-20.79 Y-7.18 Z0.85 F6000.0
G1 X-20.79 Y-7.45 Z0.85 F6000.0
G1 X-22.0 Y-8.51 Z0.85 F6000.0
G1 X-22.0 Y-8.78 Z0.85 F6000.0
G1 X-20.79 Y-9.84 Z0.85 F6000.0
G1 X-20.79 Y-10.11 Z0.85 F6000.0
G1 X-22.0 Y-11.17 Z0.85 F6000.0
G1 X-22.0 Y-11.44 Z0.85 F6000.0
G1 X-20.79 Y-12.5 Z0.85 F6000.0
G1 X-20.79 Y-12.77 Z0.85 F6000.0
G1 X-22.0 Y-13.83 Z0.85 F6000.0
G1 X-22.0 Y-14.1 Z0.85 F6000.0
G1 X-21.46 Y-14.65 Z0.85 F6000.0
G1 X-23.32 Y-14.65 Z0.85 F6000.0
G1 X-23.2 Y14.1 Z0.85 F6000.0
G1 X-22.86 Y14.65 Z0.85 F6000.0
G1 X-24.72 Y14.65 Z0.85 F6000.0
G1 X-23.45 Y13.83 Z0.85 F6000.0
G1 X-24.53 Y12.77 Z0.85 F6000.0
G1 X-24.53 Y12.5 Z0.85 F6000.0
G1 X-23.45 Y11.44 Z0.85 F6000.0
G1 X-23.45 Y11.17 Z0.85 F6000.0
G1 X-24.53 Y10.11 Z0.85 F6000.0
G1 X-24.53 Y9.84 Z0.85 F6000.0
G1 X-23.45 Y8.78 Z0.85 F6000.0
G1 X-23.45 Y8.51 Z0.85 F6000.0
G1 X-25.19 Y7.86 Z0.85 F6000.0
G1 X-24.66 Y7.45 Z0.85 F6000.0
G1 X-24.72 Y5.99 Z0.85 F6000.0
G1 X-23.45 Y6.12 Z0.85 F6000.0
G1 X-23.45 Y5.85 Z0.85 F6000.0
G1 X-24.66 Y4.79 Z0.85 F6000.0
G1 X-25.19 Y4.49 Z0.85 F6000.0
G1 X-24.66 Y4.52 Z0.85 F6000.0
G1 X-23.45 Y3.46 Z0.85 F6000.0
G1 X-23.45 Y3.19 Z0.85 F6000.0
G1 X-24.66 Y2.13 Z0.85 F6000.0
G1 X-24.66 Y1.86 Z0.85 F6000.0
G1 X-23.45 Y0.8 Z0.85 F6000.0
G1 X-23.45 Y0.53 Z0.85 F6000.0
G1 X-24.66 Y-0.53 Z0.85 F6000.0
G1 X-24.66 Y-0.8 Z0.85 F6000.0
G1 X-23.45 Y-1.86 Z0.85 F6000.0
G1 X-23.45 Y-2.13 Z0.85 F6000.0
G1 X-24.66 Y-3.19 Z0.85 F6000.0
G1 X-24.66 Y-3.46 Z0.85 F6000.0
G1 X-23.45 Y-4.52 Z0.85 F6000.0
G1 X-23.45 Y-4.79 Z0.85 F6000.0
G1 X-24.66 Y-5.85 Z0.85 F6000.0
G1 X-24.66 Y-6.12 Z0.85 F6000.0
G1 X-24.72 Y-6.36 Z0.85 F6000.0
G1 X-23.45 Y-7.18 Z0.85 F6000.0
G1 X-23.45 Y-7.45 Z0.85 F6000.0
G1 X-24.66 Y-8.51 Z0.85 F6000.0
G1 X-24.66 Y-8.78 Z0.85 F6000.0
G1 X-23.45 Y-9.84 Z0.85 F6000.0
G1 X-23.45 Y-10.11 Z0.85 F6000.0
G1 X-24.53 Y-11.17 Z0.85 F6000.0
G1 X-24.53 Y-11.44 Z0.85 F6000.0
G1 X-23.45 Y-12.5 Z0.85 F6000.0
G1 X-23.45 Y-12.77 Z0.85 F6000.0
G1 X-24.66 Y-13.83 Z0.85 F6000.0
G1 X-24.66 Y-14.1 Z0.85 F6000.0
G1 X-23.79 Y-14.65 Z0.85 F6000.0
G1 X-26.12 Y-14.65 Z0.85 F6000.0
G1 X-25.86 Y-12.5 Z0.85 F6000.0
G1 X-24.78 Y-11.44 Z0.85 F6000.0
G1 X-24.78 Y-11.17 Z0.85 F6000.0
G1 X-25.86 Y-10.11 Z0.85 F6000.0
G1 X-25.75 Y-9.18 Z0.85 F6000.0
M108 R30.0
M102
G1 X-25.65 Y-8.38 Z0.85 F6000.0
G1 X-25.19 Y-7.86 Z0.85 F6000.0
M108 R11.1
M103
G1 X-25.77 Y-8.29 Z0.85 F6000.0
M108 R30.0
M101
G1 X-27.05 Y-9.25 Z0.85 F6000.0
M108 R11.1
G1 X-26.12 Y-8.9 Z0.85 F6000.0
G1 X-26.11 Y-10.11 Z0.85 F6000.0
G1 X-27.19 Y-11.17 Z0.85 F6000.0
G1 X-27.19 Y-11.44 Z0.85 F6000.0
G1 X-26.11 Y-12.5 Z0.85 F6000.0
G1 X-26.11 Y-12.77 Z0.85 F6000.0
G1 X-27.31 Y-13.83 Z0.85 F6000.0
G1 X-27.31 Y-14.1 Z0.85 F6000.0
G1 X-26.58 Y-14.65 Z0.85 F6000.0
G1 X-28.91 Y-14.65 Z0.85 F6000.0
G1 X-28.52 Y-12.77 Z0.85 F6000.0
G1 X-28.52 Y-12.5 Z0.85 F6000.0
G1 X-27.44 Y-11.44 Z0.85 F6000.0
G1 X-27.44 Y-11.17 Z0.85 F6000.0
G1 X-27.99 Y-10.62 Z0.85 F6000.0
M108 R30.0
M102
G1 X-28.52 Y-10.11 Z0.85 F6000.0
G1 X-28.44 Y-9.35 Z0.85 F6000.0
M108 R11.1
M103
M108 R30.0
M101
G1 X-29.84 Y-8.79 Z0.85 F5646.774
M108 R11.1
G1 X-29.38 Y-9.11 Z0.85 F6000.0
G1 X-28.77 Y-9.84 Z0.85 F6000.0
G1 X-28.77 Y-10.11 Z0.85 F6000.0
G1 X-29.85 Y-11.17 Z0.85 F6000.0
G1 X-29.85 Y-11.44 Z0.85 F6000.0
G1 X-28.77 Y-12.5 Z0.85 F6000.0
G1 X-28.77 Y-12.77 Z0.85 F6000.0
G1 X-29.97 Y-13.83 Z0.85 F6000.0
G1 X-29.97 Y-14.1 Z0.85 F6000.0
G1 X-29.38 Y-14.65 Z0.85 F6000.0
G1 X-31.7 Y-14.65 Z0.85 F6000.0
G1 X-31.3 Y-12.77 Z0.85 F6000.0
G1 X-31.3 Y-12.5 Z0.85 F6000.0
G1 X-30.1 Y-11.44 Z0.85 F6000.0
G1 X-30.1 Y-11.17 Z0.85 F6000.0
G1 X-31.3 Y-10.11 Z0.85 F6000.0
G1 X-31.3 Y-9.84 Z0.85 F6000.0
G1 X-30.7 Y-8.72 Z0.85 F6000.0
G1 X-30.77 Y-7.75 Z0.85 F6000.0
G1 X-31.22 Y-7.64 Z0.85 F6000.0
G1 X-31.3 Y-1.86 Z0.85 F6000.0
G1 X-30.1 Y-0.8 Z0.85 F6000.0
G1 X-30.1 Y-0.53 Z0.85 F6000.0
G1 X-31.3 Y0.53 Z0.85 F6000.0
G1 X-31.3 Y0.8 Z0.85 F6000.0
G1 X-30.1 Y1.86 Z0.85 F6000.0
G1 X-30.1 Y2.13 Z0.85 F6000.0
G1 X-31.3 Y3.19 Z0.85 F6000.0
G1 X-31.3 Y8.78 Z0.85 F6000.0
G1 X-30.1 Y9.84 Z0.85 F6000.0
G1 X-30.1 Y10.11 Z0.85 F6000.0
G1 X-31.3 Y11.17 Z0.85 F6000.0
G1 X-31.3 Y11.44 Z0.85 F6000.0
G1 X-30.1 Y12.5 Z0.85 F6000.0
G1 X-30.1 Y12.77 Z0.85 F6000.0
G1 X-31.3 Y13.83 Z0.85 F6000.0
G1 X-31.3 Y14.1 Z0.85 F6000.0
G1 X-30.31 Y14.65 Z0.85 F6000.0
G1 X-32.63 Y14.65 Z0.85 F6000.0
G1 X-32.51 Y-14.1 Z0.85 F6000.0
G1 X-32.17 Y-14.65 Z0.85 F6000.0
G1 X-34.03 Y-14.65 Z0.85 F6000.0
G1 X-32.76 Y-13.83 Z0.85 F6000.0
G1 X-33.84 Y-12.77 Z0.85 F6000.0
G1 X-33.84 Y-12.5 Z0.85 F6000.0
G1 X-32.76 Y-11.44 Z0.85 F6000.0
G1 X-32.76 Y-11.17 Z0.85 F6000.0
G1 X-33.84 Y-10.11 Z0.85 F6000.0
G1 X-33.84 Y-9.84 Z0.85 F6000.0
G1 X-32.76 Y-8.78 Z0.85 F6000.0
G1 X-32.76 Y-8.51 Z0.85 F6000.0
G1 X-33.84 Y-7.45 Z0.85 F6000.0
G1 X-33.84 Y-7.18 Z0.85 F6000.0
G1 X-32.76 Y-6.12 Z0.85 F6000.0
G1 X-32.76 Y-5.85 Z0.85 F6000.0
G1 X-33.84 Y-4.79 Z0.85 F6000.0
G1 X-33.84 Y-4.52 Z0.85 F6000.0
G1 X-32.76 Y-3.46 Z0.85 F6000.0
G1 X-32.76 Y-3.19 Z0.85 F6000.0
G1 X-33.84 Y-2.13 Z0.85 F6000.0
G1 X-33.84 Y-1.86 Z0.85 F6000.0
G1 X-32.76 Y-0.8 Z0.85 F6000.0
G1 X-32.76 Y-0.53 Z0.85 F6000.0
G1 X-33.84 Y0.53 Z0.85 F6000.0
G1 X-33.84 Y0.8 Z0.85 F6000.0
G1 X-32.76 Y1.86 Z0.85 F6000.0
G1 X-32.76 Y2.13 Z0.85 F6000.0
G1 X-33.84 Y3.19 Z0.85 F6000.0
G1 X-33.84 Y3.46 Z0.85 F6000.0
G1 X-32.76 Y4.52 Z0.85 F6000.0
G1 X-32.76 Y4.79 Z0.85 F6000.0
G1 X-33.84 Y5.85 Z0.85 F6000.0
G1 X-33.84 Y6.12 Z0.85 F6000.0
G1 X-32.76 Y7.18 Z0.85 F6000.0
G1 X-32.76 Y7.45 Z0.85 F6000.0
G1 X-33.84 Y8.51 Z0.85 F6000.0
G1 X-33.84 Y8.78 Z0.85 F6000.0
G1 X-32.76 Y9.84 Z0.85 F6000.0
G1 X-32.76 Y10.11 Z0.85 F6000.0
G1 X-33.84 Y11.17 Z0.85 F6000.0
G1 X-33.84 Y11.44 Z0.85 F6000.0
G1 X-32.76 Y12.5 Z0.85 F6000.0
G1 X-32.76 Y12.77 Z0.85 F6000.0
G1 X-33.96 Y13.83 Z0.85 F6000.0
G1 X-33.96 Y14.1 Z0.85 F6000.0
G1 X-33.1 Y14.65 Z0.85 F6000.0
G1 X-35.43 Y14.65 Z0.85 F6000.0
G1 X-35.17 Y12.5 Z0.85 F6000.0
G1 X-34.09 Y11.44 Z0.85 F6000.0
G1 X-34.09 Y11.17 Z0.85 F6000.0
G1 X-35.17 Y10.11 Z0.85 F6000.0
G1 X-35.17 Y9.84 Z0.85 F6000.0
G1 X-34.09 Y8.78 Z0.85 F6000.0
G1 X-34.09 Y8.51 Z0.85 F6000.0
G1 X-35.17 Y7.45 Z0.85 F6000.0
G1 X-35.17 Y7.18 Z0.85 F6000.0
G1 X-34.09 Y6.12 Z0.85 F6000.0
G1 X-34.09 Y5.85 Z0.85 F6000.0
G1 X-35.17 Y4.79 Z0.85 F6000.0
G1 X-35.17 Y4.52 Z0.85 F6000.0
G1 X-34.09 Y3.46 Z0.85 F6000.0
G1 X-34.09 Y3.19 Z0.85 F6000.0
G1 X-35.17 Y2.13 Z0.85 F6000.0
G1 X-35.17 Y1.86 Z0.85 F6000.0
G1 X-34.09 Y0.8 Z0.85 F6000.0
G1 X-34.09 Y0.53 Z0.85 F6000.0
G1 X-35.17 Y-0.53 Z0.85 F6000.0
G1 X-35.17 Y-0.8 Z0.85 F6000.0
G1 X-34.09 Y-1.86 Z0.85 F6000.0
G1 X-34.09 Y-2.13 Z0.85 F6000.0
G1 X-35.17 Y-3.19 Z0.85 F6000.0
G1 X-35.17 Y-3.46 Z0.85 F6000.0
G1 X-34.09 Y-4.52 Z0.85 F6000.0
G1 X-34.09 Y-4.79 Z0.85 F6000.0
G1 X-35.17 Y-5.85 Z0.85 F6000.0
G1 X-35.17 Y-6.12 Z0.85 F6000.0
G1 X-34.09 Y-7.18 Z0.85 F6000.0
G1 X-34.09 Y-7.45 Z0.85 F6000.0
G1 X-35.17 Y-8.51 Z0.85 F6000.0
G1 X-35.17 Y-8.78 Z0.85 F6000.0
G1 X-34.09 Y-9.84 Z0.85 F6000.0
G1 X-34.09 Y-10.11 Z0.85 F6000.0
G1 X-35.17 Y-11.17 Z0.85 F6000.0
G1 X-35.17 Y-11.44 Z0.85 F6000.0
G1 X-34.09 Y-12.5 Z0.85 F6000.0
G1 X-34.09 Y-12.77 Z0.85 F6000.0
G1 X-35.29 Y-13.83 Z0.85 F6000.0
G1 X-35.29 Y-14.1 Z0.85 F6000.0
G1 X-34.49 Y-14.65 Z0.85 F6000.0
G1 X-36.36 Y-14.65 Z0.85 F6000.0
G1 X-36.5 Y-12.5 Z0.85 F6000.0
G1 X-35.41 Y-11.44 Z0.85 F6000.0
G1 X-35.41 Y-11.17 Z0.85 F6000.0
G1 X-36.5 Y-10.11 Z0.85 F6000.0
G1 X-36.5 Y-9.84 Z0.85 F6000.0
G1 X-35.41 Y-8.78 Z0.85 F6000.0
G1 X-35.41 Y-8.51 Z0.85 F6000.0
G1 X-36.5 Y-7.45 Z0.85 F6000.0
G1 X-36.5 Y-7.18 Z0.85 F6000.0
G1 X-35.41 Y-6.12 Z0.85 F6000.0
G1 X-35.41 Y-5.85 Z0.85 F6000.0
G1 X-36.5 Y-4.79 Z0.85 F6000.0
G1 X-36.5 Y-4.52 Z0.85 F6000.0
G1 X-35.41 Y-3.46 Z0.85 F6000.0
G1 X-35.41 Y-3.19 Z0.85 F6000.0
G1 X-36.5 Y-2.13 Z0.85 F6000.0
G1 X-36.5 Y-1.86 Z0.85 F6000.0
G1 X-35.41 Y-0.8 Z0.85 F6000.0
G1 X-35.41 Y-0.53 Z0.85 F6000.0
G1 X-36.5 Y0.53 Z0.85 F6000.0
G1 X-36.5 Y0.8 Z0.85 F6000.0
G1 X-35.41 Y1.86 Z0.85 F6000.0
G1 X-35.41 Y2.13 Z0.85 F6000.0
G1 X-36.5 Y3.19 Z0.85 F6000.0
G1 X-36.5 Y3.46 Z0.85 F6000.0
G1 X-35.41 Y4.52 Z0.85 F6000.0
G1 X-35.41 Y4.79 Z0.85 F6000.0
G1 X-36.5 Y5.85 Z0.85 F6000.0
G1 X-36.5 Y6.12 Z0.85 F6000.0
G1 X-35.41 Y7.18 Z0.85 F6000.0
G1 X-35.41 Y7.45 Z0.85 F6000.0
G1 X-36.5 Y8.51 Z0.85 F6000.0
G1 X-36.5 Y8.78 Z0.85 F6000.0
G1 X-35.41 Y9.84 Z0.85 F6000.0
G1 X-35.41 Y10.11 Z0.85 F6000.0
G1 X-36.5 Y11.17 Z0.85 F6000.0
G1 X-36.5 Y11.44 Z0.85 F6000.0
G1 X-35.41 Y12.5 Z0.85 F6000.0
G1 X-35.41 Y12.77 Z0.85 F6000.0
G1 X-36.62 Y13.83 Z0.85 F6000.0
G1 X-36.62 Y14.1 Z0.85 F6000.0
G1 X-35.89 Y14.65 Z0.85 F6000.0
G1 X-37.75 Y14.65 Z0.85 F6000.0
G1 X-37.95 Y12.5 Z0.85 F6000.0
G1 X-36.74 Y11.44 Z0.85 F6000.0
G1 X-36.74 Y11.17 Z0.85 F6000.0
G1 X-37.95 Y10.11 Z0.85 F6000.0
G1 X-37.95 Y9.84 Z0.85 F6000.0
G1 X-36.74 Y8.78 Z0.85 F6000.0
G1 X-36.74 Y8.51 Z0.85 F6000.0
G1 X-37.95 Y7.45 Z0.85 F6000.0
G1 X-37.95 Y7.18 Z0.85 F6000.0
G1 X-36.74 Y6.12 Z0.85 F6000.0
G1 X-36.74 Y5.85 Z0.85 F6000.0
G1 X-37.95 Y4.79 Z0.85 F6000.0
G1 X-37.95 Y4.52 Z0.85 F6000.0
G1 X-36.74 Y3.46 Z0.85 F6000.0
G1 X-36.74 Y3.19 Z0.85 F6000.0
G1 X-37.95 Y2.13 Z0.85 F6000.0
G1 X-37.95 Y1.86 Z0.85 F6000.0
G1 X-36.74 Y0.8 Z0.85 F6000.0
G1 X-36.74 Y0.53 Z0.85 F6000.0
G1 X-37.95 Y-0.53 Z0.85 F6000.0
G1 X-37.95 Y-0.8 Z0.85 F6000.0
G1 X-36.74 Y-1.86 Z0.85 F6000.0
G1 X-36.74 Y-2.13 Z0.85 F6000.0
G1 X-37.95 Y-3.19 Z0.85 F6000.0
G1 X-37.95 Y-3.46 Z0.85 F6000.0
G1 X-36.74 Y-4.52 Z0.85 F6000.0
G1 X-36.74 Y-4.79 Z0.85 F6000.0
G1 X-37.95 Y-5.85 Z0.85 F6000.0
G1 X-37.95 Y-6.12 Z0.85 F6000.0
G1 X-36.74 Y-7.18 Z0.85 F6000.0
G1 X-36.74 Y-7.45 Z0.85 F6000.0
G1 X-37.95 Y-8.51 Z0.85 F6000.0
G1 X-37.95 Y-8.78 Z0.85 F6000.0
G1 X-36.74 Y-9.84 Z0.85 F6000.0
G1 X-36.74 Y-10.11 Z0.85 F6000.0
G1 X-37.95 Y-11.17 Z0.85 F6000.0
G1 X-37.95 Y-11.44 Z0.85 F6000.0
G1 X-36.74 Y-12.5 Z0.85 F6000.0
G1 X-36.74 Y-12.77 Z0.85 F6000.0
G1 X-37.95 Y-13.83 Z0.85 F6000.0
G1 X-37.95 Y-14.1 Z0.85 F6000.0
G1 X-37.95 Y-14.11 Z0.85 F6000.0
M108 R30.0
M102
G1 X-37.75 Y-14.65 Z0.85 F6000.0
G1 X-36.82 Y-14.65 Z0.85 F6000.0
M108 R11.1
M103
G1 X-31.14 Y-5.25 Z0.85 F6000.0
M108 R30.0
M101
G1 X-30.31 Y-3.88 Z0.85 F6000.0
M108 R11.1
G1 X-29.38 Y-3.24 Z0.85 F6000.0
G1 X-28.77 Y-2.13 Z0.85 F6000.0
G1 X-28.77 Y-1.86 Z0.85 F6000.0
G1 X-29.85 Y-0.8 Z0.85 F6000.0
G1 X-29.85 Y-0.53 Z0.85 F6000.0
G1 X-28.77 Y0.53 Z0.85 F6000.0
G1 X-28.77 Y0.8 Z0.85 F6000.0
G1 X-29.85 Y1.86 Z0.85 F6000.0
G1 X-29.85 Y2.13 Z0.85 F6000.0
G1 X-29.52 Y2.9 Z0.85 F6000.0
M108 R30.0
M102
G1 X-29.38 Y3.24 Z0.85 F6000.0
G1 X-30.31 Y3.88 Z0.85 F6000.0
M108 R11.1
M103
G1 X-30.56 Y6.81 Z0.85 F6000.0
G1 X-29.97 Y7.94 Z0.85 F6000.0
G1 X-29.62 Y8.26 Z0.85 F6000.0
M108 R30.0
M101
G1 X-28.44 Y9.35 Z0.85 F6000.0
M108 R11.1
G1 X-28.04 Y9.87 Z0.85 F6000.0
G1 X-27.51 Y9.43 Z0.85 F6000.0
G1 X-27.44 Y9.84 Z0.85 F6000.0
G1 X-27.44 Y10.11 Z0.85 F6000.0
G1 X-28.52 Y11.17 Z0.85 F6000.0
G1 X-28.52 Y11.44 Z0.85 F6000.0
G1 X-27.44 Y12.5 Z0.85 F6000.0
G1 X-27.44 Y12.77 Z0.85 F6000.0
G1 X-28.64 Y13.83 Z0.85 F6000.0
G1 X-28.64 Y14.1 Z0.85 F6000.0
G1 X-27.98 Y14.65 Z0.85 F6000.0
G1 X-29.84 Y14.65 Z0.85 F6000.0
G1 X-29.85 Y12.5 Z0.85 F6000.0
G1 X-28.77 Y11.44 Z0.85 F6000.0
G1 X-28.77 Y11.17 Z0.85 F6000.0
G1 X-29.85 Y10.11 Z0.85 F6000.0
G1 X-29.85 Y9.84 Z0.85 F6000.0
G1 X-29.58 Y9.42 Z0.85 F6000.0
M108 R30.0
M102
G1 X-29.38 Y9.11 Z0.85 F6000.0
G1 X-30.31 Y8.46 Z0.85 F6000.0
M108 R11.1
M103
G1 X-27.66 Y8.82 Z0.85 F6000.0
G1 X-27.22 Y8.72 Z0.85 F6000.0
M108 R30.0
M101
G1 X-25.65 Y8.38 Z0.85 F6000.0
M108 R11.1
G1 X-24.78 Y9.84 Z0.85 F6000.0
G1 X-24.78 Y10.11 Z0.85 F6000.0
G1 X-25.86 Y11.17 Z0.85 F6000.0
G1 X-25.86 Y11.44 Z0.85 F6000.0
G1 X-24.78 Y12.5 Z0.85 F6000.0
G1 X-24.78 Y12.77 Z0.85 F6000.0
G1 X-25.98 Y13.83 Z0.85 F6000.0
G1 X-25.98 Y14.1 Z0.85 F6000.0
G1 X-25.19 Y14.65 Z0.85 F6000.0
G1 X-27.51 Y14.65 Z0.85 F6000.0
G1 X-27.19 Y12.5 Z0.85 F6000.0
G1 X-26.11 Y11.44 Z0.85 F6000.0
G1 X-26.11 Y11.17 Z0.85 F6000.0
G1 X-27.19 Y10.11 Z0.85 F6000.0
G1 X-27.19 Y9.84 Z0.85 F6000.0
G1 X-27.17 Y9.74 Z0.85 F6000.0
M108 R30.0
M102
G1 X-27.05 Y9.25 Z0.85 F6000.0
G1 X-26.12 Y8.9 Z0.85 F6000.0
M108 R11.1
M103
(</surroundingLoop>)
(<surroundingLoop>)
(<boundaryPerimeter>)
(<boundaryPoint> X11.046 Y15.55 Z0.85 </boundaryPoint>)
(<boundaryPoint> X-11.054 Y15.55 Z0.85 </boundaryPoint>)
(<boundaryPoint> X-11.054 Y-15.55 Z0.85 </boundaryPoint>)
(<boundaryPoint> X11.046 Y-15.55 Z0.85 </boundaryPoint>)
(<loop> inner )
G1 X-3.43 Y-3.25 Z0.85 F6000.0
M108 R30.0
M101
G1 X-2.02 Y-4.0 Z0.85 F6000.0
M108 R11.1
G1 X-1.08 Y-3.35 Z0.85 F6000.0
G1 X0.36 Y-3.17 Z0.85 F6000.0
G1 X1.71 Y-3.69 Z0.85 F6000.0
G1 X2.67 Y-4.77 Z0.85 F6000.0
G1 X3.02 Y-6.17 Z0.85 F6000.0
G1 X2.67 Y-7.58 Z0.85 F6000.0
G1 X1.71 Y-8.66 Z0.85 F6000.0
G1 X0.36 Y-9.18 Z0.85 F6000.0
G1 X-1.08 Y-9.0 Z0.85 F6000.0
G1 X-2.27 Y-8.18 Z0.85 F6000.0
G1 X-2.94 Y-6.9 Z0.85 F6000.0
G1 X-2.94 Y-5.45 Z0.85 F6000.0
G1 X-2.83 Y-5.24 Z0.85 F6000.0
M108 R30.0
M102
G1 X-2.27 Y-4.17 Z0.85 F6000.0
G1 X-2.02 Y-4.0 Z0.85 F6000.0
M108 R11.1
M103
(</loop>)
(<loop> inner )
G1 X-1.28 Y1.76 Z0.85 F6000.0
M108 R30.0
M101
G1 X-1.08 Y3.35 Z0.85 F6000.0
M108 R11.1
G1 X-2.27 Y4.17 Z0.85 F6000.0
G1 X-2.94 Y5.45 Z0.85 F6000.0
G1 X-2.94 Y6.9 Z0.85 F6000.0
G1 X-2.27 Y8.18 Z0.85 F6000.0
G1 X-1.08 Y9.0 Z0.85 F6000.0
G1 X0.36 Y9.18 Z0.85 F6000.0
G1 X1.71 Y8.66 Z0.85 F6000.0
G1 X2.67 Y7.58 Z0.85 F6000.0
G1 X3.02 Y6.17 Z0.85 F6000.0
G1 X2.67 Y4.77 Z0.85 F6000.0
G1 X1.71 Y3.69 Z0.85 F6000.0
G1 X0.41 Y3.19 Z0.85 F6000.0
M108 R30.0
M102
G1 X0.36 Y3.17 Z0.85 F6000.0
G1 X-1.08 Y3.35 Z0.85 F6000.0
M108 R11.1
M103
(</loop>)
(<loop> outer )
G1 X-8.83 Y3.35 Z0.85 F6000.0
M108 R30.0
M101
G1 X-10.43 Y3.35 Z0.85 F6000.0
M108 R11.1
G1 X-10.43 Y-14.92 Z0.85 F6000.0
G1 X10.42 Y-14.92 Z0.85 F6000.0
G1 X10.42 Y14.92 Z0.85 F6000.0
G1 X-10.43 Y14.92 Z0.85 F6000.0
G1 X-10.43 Y3.35 Z0.85 F6000.0
M103
(</loop>)
(<perimeter> outer )
G1 X-10.85 Y3.35 Z0.85 F6000.0
M101
G1 X-10.85 Y-15.34 Z0.85 F6000.0
G1 X10.84 Y-15.34 Z0.85 F6000.0
G1 X10.84 Y15.34 Z0.85 F6000.0
G1 X-10.85 Y15.34 Z0.85 F6000.0
G1 X-10.85 Y4.85 Z0.85 F6000.0
M108 R30.0
M102
G1 X-10.85 Y3.35 Z0.85 F6000.0
M108 R11.1
M103
(</perimeter>)
(</boundaryPerimeter>)
(<surroundingLoop>)
(<boundaryPerimeter>)
(<boundaryPoint> X-1.782 Y7.75 Z0.85 </boundaryPoint>)
(<boundaryPoint> X-0.846 Y8.396 Z0.85 </boundaryPoint>)
(<boundaryPoint> X0.282 Y8.533 Z0.85 </boundaryPoint>)
(<boundaryPoint> X1.345 Y8.13 Z0.85 </boundaryPoint>)
(<boundaryPoint> X2.099 Y7.279 Z0.85 </boundaryPoint>)
(<boundaryPoint> X2.371 Y6.175 Z0.85 </boundaryPoint>)
(<boundaryPoint> X2.099 Y5.071 Z0.85 </boundaryPoint>)
(<boundaryPoint> X1.345 Y4.22 Z0.85 </boundaryPoint>)
(<boundaryPoint> X0.282 Y3.817 Z0.85 </boundaryPoint>)
(<boundaryPoint> X-0.846 Y3.954 Z0.85 </boundaryPoint>)
(<boundaryPoint> X-1.782 Y4.6 Z0.85 </boundaryPoint>)
(<boundaryPoint> X-2.31 Y5.607 Z0.85 </boundaryPoint>)
(<boundaryPoint> X-2.31 Y6.743 Z0.85 </boundaryPoint>)
(<perimeter> inner )
G1 X-4.07 Y5.14 Z0.85 F6000.0
M108 R30.0
M101
G1 X-2.52 Y5.55 Z0.85 F6000.0
M108 R11.1
G1 X-2.52 Y6.79 Z0.85 F6000.0
G1 X-1.94 Y7.89 Z0.85 F6000.0
G1 X-0.92 Y8.6 Z0.85 F6000.0
G1 X0.31 Y8.75 Z0.85 F6000.0
G1 X1.47 Y8.31 Z0.85 F6000.0
G1 X2.29 Y7.38 Z0.85 F6000.0
G1 X2.59 Y6.17 Z0.85 F6000.0
G1 X2.29 Y4.97 Z0.85 F6000.0
G1 X1.47 Y4.04 Z0.85 F6000.0
G1 X0.31 Y3.6 Z0.85 F6000.0
G1 X-0.92 Y3.75 Z0.85 F6000.0
G1 X-1.73 Y4.31 Z0.85 F6000.0
M108 R30.0
M102
G1 X-1.94 Y4.46 Z0.85 F6000.0
G1 X-2.52 Y5.55 Z0.85 F6000.0
M108 R11.1
M103
(</perimeter>)
(</boundaryPerimeter>)
(</surroundingLoop>)
(<surroundingLoop>)
(<boundaryPerimeter>)
(<boundaryPoint> X-0.846 Y-3.954 Z0.85 </boundaryPoint>)
(<boundaryPoint> X0.282 Y-3.817 Z0.85 </boundaryPoint>)
(<boundaryPoint> X1.345 Y-4.22 Z0.85 </boundaryPoint>)
(<boundaryPoint> X2.099 Y-5.071 Z0.85 </boundaryPoint>)
(<boundaryPoint> X2.371 Y-6.175 Z0.85 </boundaryPoint>)
(<boundaryPoint> X2.099 Y-7.279 Z0.85 </boundaryPoint>)
(<boundaryPoint> X1.345 Y-8.13 Z0.85 </boundaryPoint>)
(<boundaryPoint> X0.282 Y-8.533 Z0.85 </boundaryPoint>)
(<boundaryPoint> X-0.846 Y-8.396 Z0.85 </boundaryPoint>)
(<boundaryPoint> X-1.782 Y-7.75 Z0.85 </boundaryPoint>)
(<boundaryPoint> X-2.31 Y-6.743 Z0.85 </boundaryPoint>)
(<boundaryPoint> X-2.31 Y-5.607 Z0.85 </boundaryPoint>)
(<boundaryPoint> X-1.782 Y-4.6 Z0.85 </boundaryPoint>)
(<perimeter> inner )
G1 X-1.19 Y-2.17 Z0.85 F6000.0
M108 R30.0
M101
G1 X-0.92 Y-3.75 Z0.85 F6000.0
M108 R11.1
G1 X0.31 Y-3.6 Z0.85 F6000.0
G1 X1.47 Y-4.04 Z0.85 F6000.0
G1 X2.29 Y-4.97 Z0.85 F6000.0
G1 X2.59 Y-6.17 Z0.85 F6000.0
G1 X2.29 Y-7.38 Z0.85 F6000.0
G1 X1.47 Y-8.31 Z0.85 F6000.0
G1 X0.31 Y-8.75 Z0.85 F6000.0
G1 X-0.92 Y-8.6 Z0.85 F6000.0
G1 X-1.94 Y-7.89 Z0.85 F6000.0
G1 X-2.52 Y-6.79 Z0.85 F6000.0
G1 X-2.52 Y-5.55 Z0.85 F6000.0
G1 X-2.06 Y-4.69 Z0.85 F6000.0
M108 R30.0
M102
G1 X-1.94 Y-4.46 Z0.85 F6000.0
G1 X-0.92 Y-3.75 Z0.85 F6000.0
M108 R11.1
M103
(</perimeter>)
(</boundaryPerimeter>)
(</surroundingLoop>)
G1 X-0.58 Y1.41 Z0.85 F6000.0
M108 R30.0
M101
G1 X-0.47 Y3.0 Z0.85 F6000.0
M108 R11.1
G1 X-0.06 Y2.48 Z0.85 F6000.0
G1 X0.54 Y2.13 Z0.85 F6000.0
G1 X0.54 Y1.86 Z0.85 F6000.0
G1 X-0.55 Y0.8 Z0.85 F6000.0
G1 X-0.55 Y0.53 Z0.85 F6000.0
G1 X0.54 Y-0.53 Z0.85 F6000.0
G1 X0.54 Y-0.8 Z0.85 F6000.0
G1 X-0.29 Y-1.61 Z0.85 F6000.0
M108 R30.0
M102
G1 X-0.55 Y-1.86 Z0.85 F6000.0
G1 X-0.47 Y-3.0 Z0.85 F6000.0
M108 R11.1
M103
M108 R30.0
M101
G1 X0.93 Y-3.1 Z0.85 F5247.622
M108 R11.1
G1 X1.39 Y-3.27 Z0.85 F6000.0
G1 X1.87 Y-2.13 Z0.85 F6000.0
G1 X1.87 Y-1.86 Z0.85 F6000.0
G1 X0.78 Y-0.8 Z0.85 F6000.0
G1 X0.78 Y-0.53 Z0.85 F6000.0
G1 X1.87 Y0.53 Z0.85 F6000.0
G1 X1.87 Y0.8 Z0.85 F6000.0
G1 X0.78 Y1.86 Z0.85 F6000.0
G1 X0.78 Y2.13 Z0.85 F6000.0
G1 X0.76 Y2.19 Z0.85 F6000.0
M108 R30.0
M102
G1 X0.63 Y2.49 Z0.85 F6000.0
G1 X0.93 Y3.1 Z0.85 F6000.0
G1 X1.39 Y3.27 Z0.85 F6000.0
M108 R11.1
M103
M108 R30.0
M101
G1 X2.32 Y3.97 Z0.85 F4347.804
M108 R11.1
G1 X1.99 Y3.46 Z0.85 F6000.0
G1 X2.11 Y-2.13 Z0.85 F6000.0
G1 X2.23 Y-3.17 Z0.85 F6000.0
M108 R30.0
M102
G1 X2.32 Y-3.97 Z0.85 F6000.0
G1 X2.79 Y-4.49 Z0.85 F6000.0
M108 R11.1
M103
G1 X8.44 Y-13.3 Z0.85 F6000.0
M108 R30.0
M101
G1 X9.3 Y-14.65 Z0.85 F6000.0
M108 R11.1
G1 X9.77 Y-14.65 Z0.85 F6000.0
G1 X9.77 Y14.65 Z0.85 F6000.0
G1 X8.37 Y14.65 Z0.85 F6000.0
G1 X8.76 Y12.77 Z0.85 F6000.0
G1 X8.64 Y-14.1 Z0.85 F6000.0
G1 X8.84 Y-14.65 Z0.85 F6000.0
G1 X6.98 Y-14.65 Z0.85 F6000.0
G1 X7.43 Y-12.77 Z0.85 F6000.0
G1 X7.43 Y11.44 Z0.85 F6000.0
G1 X8.52 Y12.5 Z0.85 F6000.0
G1 X8.52 Y12.77 Z0.85 F6000.0
G1 X7.31 Y13.83 Z0.85 F6000.0
G1 X7.31 Y14.1 Z0.85 F6000.0
G1 X7.91 Y14.65 Z0.85 F6000.0
G1 X5.58 Y14.65 Z0.85 F6000.0
G1 X5.98 Y12.77 Z0.85 F6000.0
G1 X5.98 Y12.5 Z0.85 F6000.0
G1 X7.19 Y11.44 Z0.85 F6000.0
G1 X7.19 Y11.17 Z0.85 F6000.0
G1 X5.98 Y10.11 Z0.85 F6000.0
G1 X5.98 Y9.84 Z0.85 F6000.0
G1 X7.19 Y8.78 Z0.85 F6000.0
G1 X7.19 Y8.51 Z0.85 F6000.0
G1 X5.98 Y7.45 Z0.85 F6000.0
G1 X5.98 Y7.18 Z0.85 F6000.0
G1 X7.19 Y6.12 Z0.85 F6000.0
G1 X7.19 Y5.85 Z0.85 F6000.0
G1 X5.98 Y4.79 Z0.85 F6000.0
G1 X5.98 Y4.52 Z0.85 F6000.0
G1 X7.19 Y3.46 Z0.85 F6000.0
G1 X7.19 Y3.19 Z0.85 F6000.0
G1 X5.98 Y2.13 Z0.85 F6000.0
G1 X5.98 Y1.86 Z0.85 F6000.0
G1 X7.19 Y0.8 Z0.85 F6000.0
G1 X7.19 Y0.53 Z0.85 F6000.0
G1 X5.98 Y-0.53 Z0.85 F6000.0
G1 X5.98 Y-0.8 Z0.85 F6000.0
G1 X7.19 Y-1.86 Z0.85 F6000.0
G1 X7.19 Y-2.13 Z0.85 F6000.0
G1 X5.98 Y-3.19 Z0.85 F6000.0
G1 X5.98 Y-3.46 Z0.85 F6000.0
G1 X7.19 Y-4.52 Z0.85 F6000.0
G1 X7.19 Y-4.79 Z0.85 F6000.0
G1 X5.98 Y-5.85 Z0.85 F6000.0
G1 X5.98 Y-6.12 Z0.85 F6000.0
G1 X7.19 Y-7.18 Z0.85 F6000.0
G1 X7.19 Y-7.45 Z0.85 F6000.0
G1 X5.98 Y-8.51 Z0.85 F6000.0
G1 X5.98 Y-8.78 Z0.85 F6000.0
G1 X7.19 Y-9.84 Z0.85 F6000.0
G1 X7.19 Y-10.11 Z0.85 F6000.0
G1 X5.98 Y-11.17 Z0.85 F6000.0
G1 X5.98 Y-11.44 Z0.85 F6000.0
G1 X7.19 Y-12.5 Z0.85 F6000.0
G1 X7.19 Y-12.77 Z0.85 F6000.0
G1 X5.98 Y-13.83 Z0.85 F6000.0
G1 X5.98 Y-14.1 Z0.85 F6000.0
G1 X6.51 Y-14.65 Z0.85 F6000.0
G1 X4.65 Y-14.65 Z0.85 F6000.0
G1 X4.77 Y14.1 Z0.85 F6000.0
G1 X5.12 Y14.65 Z0.85 F6000.0
G1 X3.25 Y14.65 Z0.85 F6000.0
G1 X4.53 Y13.83 Z0.85 F6000.0
G1 X3.44 Y12.77 Z0.85 F6000.0
G1 X3.44 Y12.5 Z0.85 F6000.0
G1 X4.53 Y11.44 Z0.85 F6000.0
G1 X4.53 Y11.17 Z0.85 F6000.0
G1 X3.44 Y10.11 Z0.85 F6000.0
G1 X3.44 Y9.84 Z0.85 F6000.0
G1 X4.53 Y8.78 Z0.85 F6000.0
G1 X4.53 Y8.51 Z0.85 F6000.0
G1 X2.79 Y7.86 Z0.85 F6000.0
G1 X3.32 Y7.45 Z0.85 F6000.0
G1 X3.25 Y5.99 Z0.85 F6000.0
G1 X4.53 Y6.12 Z0.85 F6000.0
G1 X4.53 Y5.85 Z0.85 F6000.0
G1 X3.32 Y4.79 Z0.85 F6000.0
G1 X2.79 Y4.49 Z0.85 F6000.0
G1 X3.32 Y4.52 Z0.85 F6000.0
G1 X4.53 Y3.46 Z0.85 F6000.0
G1 X4.53 Y3.19 Z0.85 F6000.0
G1 X3.32 Y2.13 Z0.85 F6000.0
G1 X3.32 Y1.86 Z0.85 F6000.0
G1 X4.53 Y0.8 Z0.85 F6000.0
G1 X4.53 Y0.53 Z0.85 F6000.0
G1 X3.32 Y-0.53 Z0.85 F6000.0
G1 X3.32 Y-0.8 Z0.85 F6000.0
G1 X4.53 Y-1.86 Z0.85 F6000.0
G1 X4.53 Y-2.13 Z0.85 F6000.0
G1 X3.32 Y-3.19 Z0.85 F6000.0
G1 X3.32 Y-3.46 Z0.85 F6000.0
G1 X4.53 Y-4.52 Z0.85 F6000.0
G1 X4.53 Y-4.79 Z0.85 F6000.0
G1 X3.32 Y-5.85 Z0.85 F6000.0
G1 X3.32 Y-6.12 Z0.85 F6000.0
G1 X3.25 Y-6.36 Z0.85 F6000.0
G1 X4.53 Y-7.18 Z0.85 F6000.0
G1 X4.53 Y-7.45 Z0.85 F6000.0
G1 X3.32 Y-8.51 Z0.85 F6000.0
G1 X3.32 Y-8.78 Z0.85 F6000.0
G1 X4.53 Y-9.84 Z0.85 F6000.0
G1 X4.53 Y-10.11 Z0.85 F6000.0
G1 X3.44 Y-11.17 Z0.85 F6000.0
G1 X3.44 Y-11.44 Z0.85 F6000.0
G1 X4.53 Y-12.5 Z0.85 F6000.0
G1 X4.53 Y-12.77 Z0.85 F6000.0
G1 X3.32 Y-13.83 Z0.85 F6000.0
G1 X3.32 Y-14.1 Z0.85 F6000.0
G1 X4.18 Y-14.65 Z0.85 F6000.0
G1 X1.86 Y-14.65 Z0.85 F6000.0
G1 X2.11 Y-12.5 Z0.85 F6000.0
G1 X3.2 Y-11.44 Z0.85 F6000.0
G1 X3.2 Y-11.17 Z0.85 F6000.0
G1 X2.11 Y-10.11 Z0.85 F6000.0
G1 X2.23 Y-9.18 Z0.85 F6000.0
M108 R30.0
M102
G1 X2.32 Y-8.38 Z0.85 F6000.0
G1 X2.79 Y-7.86 Z0.85 F6000.0
M108 R11.1
M103
G1 X2.21 Y-8.29 Z0.85 F6000.0
M108 R30.0
M101
G1 X0.93 Y-9.25 Z0.85 F6000.0
M108 R11.1
G1 X1.86 Y-8.9 Z0.85 F6000.0
G1 X1.87 Y-10.11 Z0.85 F6000.0
G1 X0.78 Y-11.17 Z0.85 F6000.0
G1 X0.78 Y-11.44 Z0.85 F6000.0
G1 X1.87 Y-12.5 Z0.85 F6000.0
G1 X1.87 Y-12.77 Z0.85 F6000.0
G1 X0.66 Y-13.83 Z0.85 F6000.0
G1 X0.66 Y-14.1 Z0.85 F6000.0
G1 X1.39 Y-14.65 Z0.85 F6000.0
G1 X-0.94 Y-14.65 Z0.85 F6000.0
G1 X-0.55 Y-12.77 Z0.85 F6000.0
G1 X-0.55 Y-12.5 Z0.85 F6000.0
G1 X0.54 Y-11.44 Z0.85 F6000.0
G1 X0.54 Y-11.17 Z0.85 F6000.0
G1 X-0.02 Y-10.62 Z0.85 F6000.0
M108 R30.0
M102
G1 X-0.55 Y-10.11 Z0.85 F6000.0
G1 X-0.47 Y-9.35 Z0.85 F6000.0
M108 R11.1
M103
M108 R30.0
M101
G1 X-1.87 Y-8.79 Z0.85 F5646.774
M108 R11.1
G1 X-1.4 Y-9.11 Z0.85 F6000.0
