; generated by Slic3r 0.8.2 on 2012-06-05 at 19:26:27

; layer_height = 0.25
; perimeters = 2
; solid_layers = 3
; fill_density = .2
; nozzle_diameter = .35
; filament_diameter = 1.75
; extrusion_multiplier = 1
; perimeter_speed = 100
; infill_speed = 120
; travel_speed = 150
; extrusion_width_ratio = 0
; scale = 1
; single wall width = 0.39mm

M190 S100 ; wait for bed temperature to be reached
M104 S220 ; set temperature
G28 ; home all axes
M109 S220 ; wait for temperature to be reached
G90 ; use absolute coordinates
G21 ; set units to millimeters
G92 E0 ; reset extrusion distance
M82 ; use absolute distances for extrusion
G1 Z0.550 F9000.000
G1 X76.500 Y80.870
G1 F1800.000 E1.00000
G1 X76.680 Y80.680 F4200.000 E1.01047
G1 X77.070 Y80.320 E1.03170
G1 X77.480 Y80.000 E1.05250
G1 X78.150 Y79.580 E1.08413
G1 X78.870 Y79.250 E1.11581
G1 X79.370 Y79.080 E1.13694
G1 X79.880 Y78.950 E1.15799
G1 X80.400 Y78.860 E1.17910
G1 X80.660 Y78.830 E1.18957
G1 X81.190 Y78.810 E1.21078
G1 X111.330 Y78.830 E2.41638
G1 X111.850 Y78.900 E2.43737
G1 X112.370 Y79.010 E2.45863
G1 X112.870 Y79.160 E2.47951
G1 X113.360 Y79.350 E2.50054
G1 X113.840 Y79.580 E2.52183
G1 X114.290 Y79.850 E2.54282
G1 X114.510 Y80.000 E2.55347
G1 X114.920 Y80.320 E2.57427
G1 X115.310 Y80.680 E2.59550
G1 X115.670 Y81.070 E2.61673
G1 X115.990 Y81.480 E2.63754
G1 X116.410 Y82.150 E2.66917
G1 X116.740 Y82.870 E2.70085
G1 X116.910 Y83.370 E2.72197
G1 X117.040 Y83.880 E2.74302
G1 X117.130 Y84.400 E2.76413
G1 X117.160 Y84.660 E2.77460
G1 X117.160 Y155.330 E5.60140
G1 X117.090 Y155.850 E5.62239
G1 X116.980 Y156.370 E5.64365
G1 X116.830 Y156.870 E5.66453
G1 X116.640 Y157.360 E5.68555
G1 X116.410 Y157.840 E5.70684
G1 X116.140 Y158.290 E5.72783
G1 X115.990 Y158.510 E5.73848
G1 X115.670 Y158.920 E5.75929
G1 X115.310 Y159.310 E5.78052
G1 X114.920 Y159.670 E5.80175
G1 X114.510 Y159.990 E5.82255
G1 X113.840 Y160.410 E5.85418
G1 X113.120 Y160.740 E5.88586
G1 X112.620 Y160.910 E5.90699
G1 X112.110 Y161.040 E5.92804
G1 X111.590 Y161.130 E5.94915
G1 X111.330 Y161.160 E5.95962
G1 X110.800 Y161.180 E5.98083
G1 X80.660 Y161.160 E7.18643
G1 X80.140 Y161.090 E7.20742
G1 X79.620 Y160.980 E7.22868
G1 X79.120 Y160.830 E7.24956
G1 X78.630 Y160.640 E7.27058
G1 X78.150 Y160.410 E7.29188
G1 X77.700 Y160.140 E7.31287
G1 X77.480 Y159.990 E7.32352
G1 X77.070 Y159.670 E7.34432
G1 X76.680 Y159.310 E7.36555
G1 X76.320 Y158.920 E7.38678
G1 X76.000 Y158.510 E7.40759
G1 X75.580 Y157.840 E7.43922
G1 X75.250 Y157.120 E7.47090
G1 X75.080 Y156.620 E7.49202
G1 X74.950 Y156.110 E7.51307
G1 X74.860 Y155.590 E7.53418
G1 X74.830 Y155.330 E7.54465
G1 X74.830 Y84.660 E10.37145
G1 X74.900 Y84.140 E10.39244
G1 X75.010 Y83.620 E10.41370
G1 X75.160 Y83.120 E10.43458
G1 X75.350 Y82.630 E10.45560
G1 X75.580 Y82.150 E10.47689
G1 X75.850 Y81.700 E10.49788
G1 X76.000 Y81.480 E10.50853
G1 X76.320 Y81.070 E10.52934
G1 X76.460 Y80.914 E10.53774
G1 X76.860 Y81.040 F9000.000
G1 X77.040 Y80.860 F4200.000 E10.54792
G1 X77.420 Y80.520 E10.56831
G1 X78.040 Y80.080 E10.59872
G1 X78.260 Y79.950 E10.60895
G1 X78.720 Y79.720 E10.62952
G1 X79.190 Y79.530 E10.64980
G1 X79.680 Y79.380 E10.67029
G1 X79.930 Y79.320 E10.68058
G1 X80.680 Y79.210 E10.71090
G1 X81.190 Y79.190 E10.73131
G1 X111.310 Y79.210 E11.93611
G1 X112.060 Y79.320 E11.96644
G1 X112.560 Y79.450 E11.98710
G1 X113.040 Y79.620 E12.00747
G1 X113.500 Y79.830 E12.02770
G1 X113.730 Y79.950 E12.03807
G1 X113.950 Y80.080 E12.04829
G1 X114.570 Y80.520 E12.07870
G1 X114.950 Y80.860 E12.09910
G1 X115.130 Y81.040 E12.10928
G1 X115.470 Y81.420 E12.12968
G1 X115.910 Y82.040 E12.16009
G1 X116.040 Y82.260 E12.17031
G1 X116.270 Y82.720 E12.19088
G1 X116.460 Y83.190 E12.21116
G1 X116.610 Y83.680 E12.23166
G1 X116.670 Y83.930 E12.24194
G1 X116.780 Y84.680 E12.27226
G1 X116.780 Y155.310 E15.09746
G1 X116.670 Y156.060 E15.12778
G1 X116.540 Y156.560 E15.14845
G1 X116.370 Y157.040 E15.16882
G1 X116.160 Y157.500 E15.18905
G1 X116.040 Y157.730 E15.19942
G1 X115.910 Y157.950 E15.20964
G1 X115.470 Y158.570 E15.24005
G1 X115.130 Y158.950 E15.26045
G1 X114.950 Y159.130 E15.27063
G1 X114.570 Y159.470 E15.29103
G1 X113.950 Y159.910 E15.32144
G1 X113.730 Y160.040 E15.33166
G1 X113.270 Y160.270 E15.35223
G1 X112.800 Y160.460 E15.37251
G1 X112.310 Y160.610 E15.39301
G1 X112.060 Y160.670 E15.40329
G1 X111.310 Y160.780 E15.43361
G1 X110.800 Y160.800 E15.45403
G1 X80.680 Y160.780 E16.65883
G1 X79.930 Y160.670 E16.68915
G1 X79.430 Y160.540 E16.70982
G1 X78.950 Y160.370 E16.73018
G1 X78.490 Y160.160 E16.75041
G1 X78.260 Y160.040 E16.76079
G1 X78.040 Y159.910 E16.77101
G1 X77.420 Y159.470 E16.80142
G1 X77.040 Y159.130 E16.82182
G1 X76.860 Y158.950 E16.83200
G1 X76.520 Y158.570 E16.85239
G1 X76.080 Y157.950 E16.88280
G1 X75.950 Y157.730 E16.89303
G1 X75.720 Y157.270 E16.91360
G1 X75.530 Y156.800 E16.93388
G1 X75.380 Y156.310 E16.95437
G1 X75.320 Y156.060 E16.96466
G1 X75.210 Y155.310 E16.99498
G1 X75.210 Y84.680 E19.82018
G1 X75.320 Y83.930 E19.85050
G1 X75.450 Y83.430 E19.87116
G1 X75.620 Y82.950 E19.89153
G1 X75.830 Y82.490 E19.91176
G1 X75.950 Y82.260 E19.92214
G1 X76.080 Y82.040 E19.93236
G1 X76.520 Y81.420 E19.96277
G1 X76.821 Y81.084 E19.98080
G1 F1800.000 E18.98080
G92 E0
G1 X110.426 Y154.426 F9000.000
G1 F1800.000 E1.00000
G1 X81.574 Y154.426 F4200.000 E2.15407
G1 X81.574 Y149.693 E2.34340
G1 X82.656 Y149.692 E2.38668
G1 X110.426 Y149.693 E3.49747
G1 X110.426 Y154.367 E3.68442
G1 X110.803 Y154.803 F9000.000
G1 X81.197 Y154.803 F4200.000 E4.86864
G1 X81.197 Y149.316 E5.08812
G1 X82.656 Y149.315 E5.14647
G1 X110.803 Y149.316 E6.27234
G1 X110.803 Y154.744 E6.48945
G1 F1800.000 E5.48945
G92 E0
G1 X107.025 Y125.816 F9000.000
G1 F1800.000 E1.00000
G1 X100.975 Y125.816 F4200.000 E1.24204
G1 X100.975 Y122.922 E1.35777
G1 X100.802 Y123.209 E1.37117
G1 X100.465 Y123.664 E1.39383
G1 X100.083 Y124.085 E1.41655
G1 X99.663 Y124.466 E1.43921
G1 X99.208 Y124.803 E1.46188
G1 X98.722 Y125.094 E1.48455
G1 X98.210 Y125.337 E1.50722
G1 X97.676 Y125.528 E1.52989
G1 X97.126 Y125.665 E1.55256
G1 X96.566 Y125.748 E1.57522
G1 X96.001 Y125.776 E1.59785
G1 X95.434 Y125.748 E1.62055
G1 X94.874 Y125.665 E1.64321
G1 X94.324 Y125.528 E1.66588
G1 X93.790 Y125.337 E1.68855
G1 X93.278 Y125.094 E1.71122
G1 X92.792 Y124.803 E1.73389
G1 X92.337 Y124.466 E1.75655
G1 X91.917 Y124.085 E1.77921
G1 X91.536 Y123.666 E1.80188
G1 X91.198 Y123.211 E1.82454
G1 X90.907 Y122.725 E1.84721
G1 X90.663 Y122.208 E1.87005
G1 X90.472 Y121.675 E1.89272
G1 X90.335 Y121.129 E1.91522
G1 X90.252 Y120.567 E1.93794
G1 X90.224 Y120.000 E1.96066
G1 X90.252 Y119.434 E1.98332
G1 X90.335 Y118.874 E2.00599
G1 X90.472 Y118.324 E2.02866
G1 X90.663 Y117.790 E2.05133
G1 X90.906 Y117.278 E2.07400
G1 X91.197 Y116.792 E2.09666
G1 X91.534 Y116.337 E2.11933
G1 X91.915 Y115.917 E2.14199
G1 X92.334 Y115.536 E2.16465
G1 X92.789 Y115.198 E2.18732
G1 X93.275 Y114.907 E2.20999
G1 X93.792 Y114.663 E2.23283
G1 X94.325 Y114.472 E2.25550
G1 X94.875 Y114.335 E2.27817
G1 X95.436 Y114.252 E2.30083
G1 X96.001 Y114.224 E2.32350
G1 X96.567 Y114.252 E2.34616
G1 X97.128 Y114.335 E2.36883
G1 X97.678 Y114.473 E2.39149
G1 X98.211 Y114.664 E2.41416
G1 X98.723 Y114.906 E2.43683
G1 X99.209 Y115.198 E2.45950
G1 X99.665 Y115.535 E2.48216
G1 X100.084 Y115.916 E2.50483
G1 X100.466 Y116.337 E2.52755
G1 X100.804 Y116.793 E2.55028
G1 X100.975 Y117.078 E2.56355
G1 X100.975 Y114.177 E2.67960
G1 X107.025 Y114.177 E2.92163
G1 X107.025 Y125.757 E3.38483
G1 F1800.000 E2.38483
G92 E0
G1 X100.761 Y122.546 F9000.000
G1 F1800.000 E1.00000
G1 X100.489 Y123.000 F4200.000 E1.02116
G1 X100.173 Y123.425 E1.04234
G1 X99.817 Y123.818 E1.06358
G1 X99.424 Y124.174 E1.08477
G1 X98.999 Y124.489 E1.10595
G1 X98.544 Y124.762 E1.12714
G1 X98.065 Y124.988 E1.14833
G1 X97.567 Y125.166 E1.16951
G1 X97.053 Y125.295 E1.19070
G1 X96.529 Y125.373 E1.21189
G1 X96.000 Y125.399 E1.23305
G1 X95.471 Y125.373 E1.25425
G1 X94.947 Y125.295 E1.27543
G1 X94.433 Y125.166 E1.29662
G1 X93.935 Y124.988 E1.31781
G1 X93.456 Y124.762 E1.33900
G1 X93.001 Y124.489 E1.36018
G1 X92.576 Y124.174 E1.38137
G1 X92.183 Y123.818 E1.40255
G1 X91.828 Y123.426 E1.42373
G1 X91.512 Y123.001 E1.44491
G1 X91.240 Y122.547 E1.46610
G1 X91.011 Y122.064 E1.48745
G1 X90.833 Y121.565 E1.50864
G1 X90.706 Y121.055 E1.52967
G1 X90.627 Y120.530 E1.55090
G1 X90.601 Y120.000 E1.57214
G1 X90.627 Y119.471 E1.59332
G1 X90.705 Y118.947 E1.61451
G1 X90.834 Y118.433 E1.63569
G1 X91.012 Y117.935 E1.65688
G1 X91.238 Y117.456 E1.67807
G1 X91.511 Y117.001 E1.69926
G1 X91.826 Y116.576 E1.72044
G1 X92.182 Y116.183 E1.74163
G1 X92.574 Y115.828 E1.76281
G1 X92.999 Y115.512 E1.78399
G1 X93.453 Y115.240 E1.80518
G1 X93.936 Y115.011 E1.82653
G1 X94.435 Y114.833 E1.84772
G1 X94.949 Y114.705 E1.86891
G1 X95.472 Y114.627 E1.89009
G1 X96.001 Y114.601 E1.91127
G1 X96.530 Y114.627 E1.93245
G1 X97.054 Y114.705 E1.95364
G1 X97.568 Y114.834 E1.97483
G1 X98.067 Y115.013 E1.99601
G1 X98.545 Y115.239 E2.01720
G1 X99.000 Y115.511 E2.03839
G1 X99.425 Y115.827 E2.05957
G1 X99.817 Y116.183 E2.08075
G1 X100.174 Y116.576 E2.10199
G1 X100.490 Y117.003 E2.12324
G1 X100.762 Y117.457 E2.14444
G1 X100.986 Y117.929 E2.16530
G1 X101.166 Y118.432 E2.18668
G1 X101.293 Y118.939 E2.20760
G1 X101.373 Y119.472 E2.22916
G1 X101.399 Y119.995 E2.25010
G1 X101.372 Y120.534 E2.27169
G1 X101.295 Y121.052 E2.29262
G1 X101.164 Y121.573 E2.31412
G1 X100.988 Y122.065 E2.33502
G1 X100.786 Y122.493 E2.35393
G1 F1800.000 E1.35393
G92 E0
G1 X101.352 Y125.439 F9000.000
G1 F1800.000 E1.00000
G1 X101.352 Y114.554 F4200.000 E1.43541
G1 X106.648 Y114.554 E1.64729
G1 X106.648 Y125.439 E2.08270
G1 X101.411 Y125.439 E2.29221
G1 F1800.000 E1.29221
G92 E0
G1 X110.426 Y140.307 F9000.000
G1 F1800.000 E1.00000
G1 X109.346 Y140.308 F4200.000 E1.04320
G1 X81.574 Y140.307 E2.15407
G1 X81.574 Y99.693 E3.77865
G1 X82.656 Y99.692 E3.82193
G1 X110.426 Y99.693 E4.93272
G1 X110.426 Y140.248 E6.55493
G1 X110.803 Y140.684 F9000.000
G1 X109.346 Y140.685 F4200.000 E6.61320
G1 X81.197 Y140.684 E7.73915
G1 X81.197 Y99.316 E9.39388
G1 X82.656 Y99.315 E9.45223
G1 X110.803 Y99.316 E10.57810
G1 X110.803 Y140.625 E12.23046
G1 F1800.000 E11.23046
G92 E0
G1 X110.426 Y90.307 F9000.000
G1 F1800.000 E1.00000
G1 X109.346 Y90.308 F4200.000 E1.04320
G1 X81.574 Y90.307 E2.15407
G1 X81.574 Y85.574 E2.34340
G1 X110.426 Y85.574 E3.49747
G1 X110.426 Y90.248 E3.68443
G1 X110.803 Y90.684 F9000.000
G1 X109.346 Y90.685 F4200.000 E3.74270
G1 X81.197 Y90.684 E4.86865
G1 X81.197 Y85.197 E5.08813
G1 X110.803 Y85.197 E6.27235
G1 X110.803 Y90.625 E6.48946
G1 F1800.000 E5.48946
G92 E0
G1 X109.937 Y149.959 F9000.000
G1 F1800.000 E1.00000
G1 X110.160 Y150.182 F4200.000 E1.01268
G1 X110.160 Y150.716 F9000.000
G1 X109.403 Y149.959 F4200.000 E1.05573
G1 X108.868 Y149.959 F9000.000
G1 X110.160 Y151.251 F4200.000 E1.12915
G1 X110.160 Y151.785 F9000.000
G1 X108.333 Y149.959 F4200.000 E1.23295
G1 X107.799 Y149.959 F9000.000
G1 X110.160 Y152.320 F4200.000 E1.36712
G1 X110.160 Y152.854 F9000.000
G1 X107.264 Y149.959 F4200.000 E1.53167
G1 X106.730 Y149.959 F9000.000
G1 X110.160 Y153.389 F4200.000 E1.72659
G1 X110.160 Y153.924 F9000.000
G1 X106.195 Y149.959 F4200.000 E1.95188
G1 X105.660 Y149.959 F9000.000
G1 X109.862 Y154.160 F4200.000 E2.19064
G1 X109.328 Y154.160 F9000.000
G1 X105.126 Y149.959 F4200.000 E2.42939
G1 X104.591 Y149.958 F9000.000
G1 X108.793 Y154.160 F4200.000 E2.66819
G1 X108.259 Y154.160 F9000.000
G1 X104.056 Y149.958 F4200.000 E2.90698
G1 X103.521 Y149.958 F9000.000
G1 X107.724 Y154.160 F4200.000 E3.14578
G1 X107.190 Y154.160 F9000.000
G1 X102.987 Y149.958 F4200.000 E3.38457
G1 X102.452 Y149.958 F9000.000
G1 X106.655 Y154.160 F4200.000 E3.62337
G1 X106.120 Y154.160 F9000.000
G1 X101.918 Y149.958 F4200.000 E3.86217
G1 X101.383 Y149.958 F9000.000
G1 X105.586 Y154.160 F4200.000 E4.10096
G1 X105.051 Y154.160 F9000.000
G1 X100.849 Y149.958 F4200.000 E4.33976
G1 X100.314 Y149.958 F9000.000
G1 X104.517 Y154.160 F4200.000 E4.57855
G1 X103.982 Y154.160 F9000.000
G1 X99.779 Y149.958 F4200.000 E4.81735
G1 X99.245 Y149.958 F9000.000
G1 X103.448 Y154.160 F4200.000 E5.05614
G1 X102.913 Y154.160 F9000.000
G1 X98.710 Y149.958 F4200.000 E5.29494
G1 X98.176 Y149.958 F9000.000
G1 X102.378 Y154.160 F4200.000 E5.53374
G1 X101.844 Y154.160 F9000.000
G1 X97.641 Y149.958 F4200.000 E5.77254
G1 X97.106 Y149.958 F9000.000
G1 X101.309 Y154.160 F4200.000 E6.01135
G1 X100.775 Y154.160 F9000.000
G1 X96.572 Y149.958 F4200.000 E6.25015
G1 X96.037 Y149.958 F9000.000
G1 X100.240 Y154.160 F4200.000 E6.48896
G1 X99.706 Y154.160 F9000.000
G1 X95.503 Y149.958 F4200.000 E6.72777
G1 X94.968 Y149.958 F9000.000
G1 X99.171 Y154.160 F4200.000 E6.96658
G1 X98.636 Y154.161 F9000.000
G1 X94.433 Y149.958 F4200.000 E7.20540
G1 X93.898 Y149.958 F9000.000
G1 X98.101 Y154.161 F4200.000 E7.44421
G1 X97.567 Y154.161 F9000.000
G1 X93.363 Y149.958 F4200.000 E7.68303
G1 X92.829 Y149.958 F9000.000
G1 X97.032 Y154.161 F4200.000 E7.92185
G1 X96.497 Y154.161 F9000.000
G1 X92.294 Y149.958 F4200.000 E8.16067
G1 X91.760 Y149.958 F9000.000
G1 X95.962 Y154.160 F4200.000 E8.39946
G1 X95.428 Y154.161 F9000.000
G1 X91.225 Y149.958 F4200.000 E8.63826
G1 X90.690 Y149.958 F9000.000
G1 X94.893 Y154.161 F4200.000 E8.87706
G1 X94.359 Y154.161 F9000.000
G1 X90.156 Y149.958 F4200.000 E9.11587
G1 X89.621 Y149.958 F9000.000
G1 X93.824 Y154.161 F4200.000 E9.35468
G1 X93.290 Y154.161 F9000.000
G1 X89.087 Y149.958 F4200.000 E9.59348
G1 X88.552 Y149.958 F9000.000
G1 X92.755 Y154.161 F4200.000 E9.83230
G1 X92.220 Y154.161 F9000.000
G1 X88.017 Y149.958 F4200.000 E10.07111
G1 X87.483 Y149.958 F9000.000
G1 X91.686 Y154.161 F4200.000 E10.30992
G1 X91.151 Y154.161 F9000.000
G1 X86.948 Y149.958 F4200.000 E10.54873
G1 X86.414 Y149.958 F9000.000
G1 X90.617 Y154.161 F4200.000 E10.78754
G1 X90.082 Y154.161 F9000.000
G1 X85.879 Y149.958 F4200.000 E11.02636
G1 X85.344 Y149.958 F9000.000
G1 X89.547 Y154.161 F4200.000 E11.26517
G1 X89.013 Y154.161 F9000.000
G1 X84.810 Y149.958 F4200.000 E11.50399
G1 X84.275 Y149.958 F9000.000
G1 X88.478 Y154.161 F4200.000 E11.74280
G1 X87.944 Y154.161 F9000.000
G1 X83.740 Y149.958 F4200.000 E11.98162
G1 X83.206 Y149.958 F9000.000
G1 X87.409 Y154.161 F4200.000 E12.22044
G1 X86.874 Y154.161 F9000.000
G1 X82.671 Y149.958 F4200.000 E12.45925
G1 X82.137 Y149.958 F9000.000
G1 X86.340 Y154.161 F4200.000 E12.69806
G1 X85.805 Y154.161 F9000.000
G1 X81.839 Y150.195 F4200.000 E12.92338
G1 X81.839 Y150.730 F9000.000
G1 X85.270 Y154.161 F4200.000 E13.11833
G1 X84.736 Y154.161 F9000.000
G1 X81.839 Y151.264 F4200.000 E13.28290
G1 X81.839 Y151.799 F9000.000
G1 X84.201 Y154.161 F4200.000 E13.41709
G1 X83.667 Y154.161 F9000.000
G1 X81.839 Y152.333 F4200.000 E13.52091
G1 X81.839 Y152.868 F9000.000
G1 X83.132 Y154.161 F4200.000 E13.59435
G1 X82.597 Y154.161 F9000.000
G1 X81.839 Y153.403 F4200.000 E13.63742
G1 X81.839 Y153.937 F9000.000
G1 X82.063 Y154.161 F4200.000 E13.65010
G1 F1800.000 E12.65010
G92 E0
G1 X82.063 Y140.042 F9000.000
G1 F1800.000 E1.00000
G1 X81.840 Y139.819 F4200.000 E1.01271
G1 X81.839 Y139.284 F9000.000
G1 X82.598 Y140.043 F4200.000 E1.05587
G1 X83.134 Y140.042 F9000.000
G1 X81.840 Y138.748 F4200.000 E1.12949
G1 X81.839 Y138.213 F9000.000
G1 X83.668 Y140.042 F4200.000 E1.23355
G1 X84.203 Y140.043 F9000.000
G1 X81.839 Y137.679 F4200.000 E1.36807
G1 X81.840 Y137.143 F9000.000
G1 X84.739 Y140.042 F4200.000 E1.53303
G1 X85.274 Y140.043 F9000.000
G1 X81.839 Y136.608 F4200.000 E1.72844
G1 X81.839 Y136.073 F9000.000
G1 X85.808 Y140.043 F4200.000 E1.95429
G1 X86.344 Y140.042 F9000.000
G1 X81.840 Y135.538 F4200.000 E2.21060
G1 X81.839 Y135.003 F9000.000
G1 X86.879 Y140.043 F4200.000 E2.49735
G1 X87.414 Y140.042 F9000.000
G1 X81.840 Y134.467 F4200.000 E2.81455
G1 X81.839 Y133.933 F9000.000
G1 X87.949 Y140.042 F4200.000 E3.16219
G1 X88.484 Y140.043 F9000.000
G1 X81.839 Y133.398 F4200.000 E3.54028
G1 X81.840 Y132.862 F9000.000
G1 X89.020 Y140.042 F4200.000 E3.94883
G1 X89.555 Y140.043 F9000.000
G1 X81.839 Y132.327 F4200.000 E4.38781
G1 X81.839 Y131.793 F9000.000
G1 X90.089 Y140.043 F4200.000 E4.85725
G1 X90.625 Y140.042 F9000.000
