; generated by Slic3r 0.8.3 on 2012-06-23 at 20:58:11

; layer_height = 0.25
; perimeters = 3
; solid_layers = 3
; fill_density = .2
; nozzle_diameter = .35
; filament_diameter = 1.75
; extrusion_multiplier = 1.2
; perimeter_speed = 100
; infill_speed = 120
; travel_speed = 180
; scale = 1
; single wall width = 0.39mm

M190 S110 ; wait for bed temperature to be reached
M104 S220 ; set temperature
M104 S220 ;start extruder
G28 ; home all axes
M109 S220 ; wait for temperature to be reached
G90 ; use absolute coordinates
G21 ; set units to millimeters
G92 E0 ; reset extrusion distance
M82 ; use absolute distances for extrusion
G1 Z0.200 F10800.000
G1 X43.425 Y78.620
G1 F1800.000 E1.00000
G1 X43.605 Y78.430 F3000.000 E1.01005
G1 X43.995 Y78.070 E1.03043
G1 X44.405 Y77.750 E1.05040
G1 X45.075 Y77.330 E1.08077
G1 X45.795 Y77.000 E1.11118
G1 X46.295 Y76.830 E1.13146
G1 X46.805 Y76.700 E1.15167
G1 X47.325 Y76.610 E1.17194
G1 X47.585 Y76.580 E1.18199
G1 X48.115 Y76.560 E1.20235
G1 X116.855 Y76.580 E3.84197
G1 X117.375 Y76.650 E3.86212
G1 X117.895 Y76.760 E3.88253
G1 X118.395 Y76.910 E3.90257
G1 X118.885 Y77.100 E3.92275
G1 X119.365 Y77.330 E3.94319
G1 X119.815 Y77.600 E3.96334
G1 X120.035 Y77.750 E3.97357
G1 X120.455 Y78.080 E3.99408
G1 X120.835 Y78.430 E4.01392
G1 X121.195 Y78.820 E4.03430
G1 X121.365 Y79.030 E4.04467
G1 X121.805 Y79.680 E4.07481
G1 X122.055 Y80.150 E4.09526
G1 X122.265 Y80.630 E4.11538
G1 X132.865 Y116.470 E5.55056
G1 X133.135 Y118.110 E5.61439
G1 X133.245 Y119.660 E5.67406
G1 X133.195 Y121.290 E5.73668
G1 X132.995 Y122.850 E5.79707
G1 X132.865 Y123.520 E5.82328
G1 X122.355 Y159.110 E7.24828
G1 X122.165 Y159.600 E7.26846
G1 X121.935 Y160.080 E7.28890
G1 X121.665 Y160.530 E7.30905
G1 X121.365 Y160.960 E7.32919
G1 X121.025 Y161.360 E7.34935
G1 X120.835 Y161.560 E7.35994
G1 X120.455 Y161.910 E7.37978
G1 X120.035 Y162.240 E7.40029
G1 X119.595 Y162.530 E7.42052
G1 X119.125 Y162.780 E7.44097
G1 X118.645 Y162.990 E7.46108
G1 X118.145 Y163.160 E7.48136
G1 X117.635 Y163.290 E7.50157
G1 X117.115 Y163.380 E7.52184
G1 X116.855 Y163.410 E7.53189
G1 X116.325 Y163.430 E7.55226
G1 X47.585 Y163.410 E10.19187
G1 X47.065 Y163.340 E10.21202
G1 X46.545 Y163.230 E10.23243
G1 X46.045 Y163.080 E10.25248
G1 X45.555 Y162.890 E10.27266
G1 X45.075 Y162.660 E10.29310
G1 X44.625 Y162.390 E10.31325
G1 X44.405 Y162.240 E10.32347
G1 X43.995 Y161.920 E10.34344
G1 X43.605 Y161.560 E10.36382
G1 X43.245 Y161.170 E10.38421
G1 X42.925 Y160.760 E10.40418
G1 X42.505 Y160.090 E10.43454
G1 X42.175 Y159.370 E10.46496
G1 X42.005 Y158.870 E10.48524
G1 X41.875 Y158.360 E10.50545
G1 X41.785 Y157.840 E10.52571
G1 X41.755 Y157.580 E10.53576
G1 X41.755 Y82.410 E13.42229
G1 X41.825 Y81.890 E13.44244
G1 X41.935 Y81.370 E13.46285
G1 X42.085 Y80.870 E13.48289
G1 X42.275 Y80.380 E13.50307
G1 X42.505 Y79.900 E13.52351
G1 X42.775 Y79.450 E13.54366
G1 X42.925 Y79.230 E13.55389
G1 X43.245 Y78.820 E13.57386
G1 X43.385 Y78.664 E13.58192
G1 X43.785 Y78.790 F10800.000
G1 X43.965 Y78.610 F3000.000 E13.59170
G1 X44.345 Y78.270 E13.61128
G1 X44.965 Y77.830 E13.64047
G1 X45.185 Y77.700 E13.65028
G1 X45.645 Y77.470 E13.67003
G1 X46.115 Y77.280 E13.68950
G1 X46.605 Y77.130 E13.70918
G1 X46.855 Y77.070 E13.71905
G1 X47.605 Y76.960 E13.74816
G1 X48.115 Y76.940 E13.76776
G1 X116.835 Y76.960 E16.40660
G1 X117.345 Y77.030 E16.42637
G1 X117.845 Y77.140 E16.44603
G1 X118.335 Y77.290 E16.46571
G1 X118.815 Y77.480 E16.48553
G1 X119.275 Y77.710 E16.50528
G1 X119.495 Y77.840 E16.51509
G1 X119.915 Y78.130 E16.53469
G1 X120.505 Y78.630 E16.56439
G1 X120.685 Y78.810 E16.57417
G1 X120.855 Y79.000 E16.58396
G1 X121.175 Y79.400 E16.60363
G1 X121.585 Y80.050 E16.63314
G1 X121.815 Y80.510 E16.65289
G1 X121.915 Y80.750 E16.66287
G1 X132.495 Y116.570 E18.09710
G1 X132.625 Y117.190 E18.12143
G1 X132.765 Y118.160 E18.15906
G1 X132.865 Y119.680 E18.21756
G1 X132.815 Y121.280 E18.27903
G1 X132.765 Y121.830 E18.30023
G1 X132.625 Y122.800 E18.33787
G1 X121.915 Y159.240 E19.79635
G1 X121.705 Y159.710 E19.81612
G1 X121.585 Y159.940 E19.82608
G1 X121.455 Y160.160 E19.83589
G1 X121.175 Y160.590 E19.85560
G1 X120.855 Y160.990 E19.87527
G1 X120.685 Y161.180 E19.88506
G1 X120.505 Y161.360 E19.89483
G1 X119.915 Y161.860 E19.92453
G1 X119.495 Y162.150 E19.94413
G1 X119.275 Y162.280 E19.95394
G1 X118.815 Y162.510 E19.97369
G1 X118.335 Y162.700 E19.99351
G1 X117.845 Y162.850 E20.01319
G1 X117.345 Y162.960 E20.03285
G1 X116.835 Y163.030 E20.05262
G1 X116.325 Y163.050 E20.07222
G1 X47.605 Y163.030 E22.71106
G1 X46.855 Y162.920 E22.74017
G1 X46.355 Y162.790 E22.76001
G1 X45.875 Y162.620 E22.77956
G1 X45.415 Y162.410 E22.79898
G1 X45.185 Y162.290 E22.80894
G1 X44.965 Y162.160 E22.81876
G1 X44.345 Y161.720 E22.84795
G1 X43.965 Y161.380 E22.86753
G1 X43.785 Y161.200 E22.87731
G1 X43.445 Y160.820 E22.89689
G1 X43.005 Y160.200 E22.92608
G1 X42.875 Y159.980 E22.93589
G1 X42.645 Y159.520 E22.95564
G1 X42.455 Y159.050 E22.97511
G1 X42.305 Y158.560 E22.99479
G1 X42.245 Y158.310 E23.00466
G1 X42.135 Y157.560 E23.03377
G1 X42.135 Y82.430 E25.91876
G1 X42.245 Y81.680 E25.94787
G1 X42.375 Y81.180 E25.96771
G1 X42.545 Y80.700 E25.98726
G1 X42.755 Y80.240 E26.00668
G1 X42.875 Y80.010 E26.01664
G1 X43.005 Y79.790 E26.02645
G1 X43.445 Y79.170 E26.05565
G1 X43.746 Y78.834 E26.07295
G1 F1800.000 E25.07295
G92 E0
G1 X48.728 Y93.011 F10800.000
G1 F1800.000 E1.00000
G1 X66.122 Y93.011 F3000.000 E1.66794
G1 X66.122 Y106.787 E2.19697
G1 X48.728 Y106.787 E2.86491
G1 X48.728 Y93.070 E3.39167
G1 F1800.000 E2.39167
G92 E0
G1 X95.123 Y132.092 F10800.000
G1 F1800.000 E1.00000
G1 X99.017 Y128.198 F3000.000 E1.21144
G1 X107.011 Y136.193 E1.64561
G1 X103.118 Y140.086 E1.85705
G1 X95.165 Y132.133 E2.28894
G1 X95.656 Y132.092 F10800.000
G1 X99.017 Y128.731 F3000.000 E2.47144
G1 X106.478 Y136.193 E2.87665
G1 X103.118 Y139.553 E3.05915
G1 X95.698 Y132.133 E3.46209
G1 X96.189 Y132.092 F10800.000
G1 X99.017 Y129.264 F3000.000 E3.61564
G1 X105.945 Y136.193 E3.99190
G1 X103.118 Y139.020 E4.14545
G1 X102.485 Y138.388 E4.17979
G1 X102.485 Y138.388 E4.17979
G1 X96.231 Y132.133 E4.51944
G1 F1800.000 E3.51944
G92 E0
G1 X112.136 Y122.306 F10800.000
G1 F1800.000 E1.00000
G1 X111.610 Y120.000 F3000.000 E1.09084
G1 X112.136 Y117.694 E1.18168
G1 X113.611 Y115.844 E1.27252
G1 X115.742 Y114.818 E1.36335
G1 X118.108 Y114.818 E1.45419
G1 X120.239 Y115.844 E1.54503
G1 X121.714 Y117.694 E1.63587
G1 X122.240 Y120.000 E1.72671
G1 X121.714 Y122.306 E1.81755
G1 X120.239 Y124.156 E1.90839
G1 X118.141 Y125.166 E1.99781
G1 X116.311 Y125.278 E2.06822
G1 X115.794 Y125.067 E2.08965
G1 X115.794 Y125.067 E2.08966
G1 X113.634 Y124.185 E2.17925
G1 X112.173 Y122.353 E2.26925
G1 X112.484 Y122.139 F10800.000
G1 X111.996 Y120.000 F3000.000 E2.35348
G1 X112.484 Y117.861 E2.43771
G1 X113.852 Y116.147 E2.52194
G1 X115.828 Y115.195 E2.60618
G1 X118.022 Y115.195 E2.69041
G1 X119.998 Y116.147 E2.77464
G1 X121.366 Y117.861 E2.85887
G1 X121.854 Y120.000 E2.94310
G1 X121.366 Y122.139 E3.02733
G1 X119.998 Y123.853 E3.11156
G1 X118.044 Y124.794 E3.19484
G1 X116.374 Y124.897 E3.25911
G1 X113.868 Y123.873 E3.36305
G1 X112.521 Y122.185 E3.44598
G1 X112.833 Y121.971 F10800.000
G1 X112.383 Y120.000 F3000.000 E3.52360
G1 X112.833 Y118.029 E3.60123
G1 X114.093 Y116.449 E3.67885
G1 X115.914 Y115.572 E3.75647
G1 X117.936 Y115.572 E3.83410
G1 X119.757 Y116.449 E3.91172
G1 X121.017 Y118.029 E3.98934
G1 X121.467 Y120.000 E4.06697
G1 X121.017 Y121.971 E4.14459
G1 X119.757 Y123.551 E4.22222
G1 X117.947 Y124.423 E4.29935
G1 X116.437 Y124.515 E4.35747
G1 X114.101 Y123.561 E4.45434
G1 X112.870 Y122.017 E4.53019
G1 F1800.000 E3.53019
G92 E0
G1 X99.017 Y111.802 F10800.000
G1 F1800.000 E1.00000
G1 X97.481 Y110.267 F3000.000 E1.08338
G1 X97.481 Y110.267 E1.08338
G1 X95.123 Y107.908 E1.21144
G1 X103.118 Y99.914 E1.64561
G1 X107.011 Y103.807 E1.85705
G1 X99.058 Y111.760 E2.28894
G1 X99.017 Y111.269 F10800.000
G1 X97.954 Y110.206 F3000.000 E2.34667
G1 X97.954 Y110.206 E2.34667
G1 X95.656 Y107.908 E2.47144
G1 X103.118 Y100.447 E2.87665
G1 X106.478 Y103.807 E3.05915
G1 X99.058 Y111.227 E3.46209
G1 X99.017 Y110.736 F10800.000
G1 X98.487 Y110.206 F3000.000 E3.49087
G1 X98.487 Y110.206 E3.49087
G1 X96.189 Y107.908 E3.61563
G1 X103.118 Y100.980 E3.99190
G1 X105.945 Y103.807 E4.14545
G1 X99.058 Y110.694 E4.51944
G1 F1800.000 E3.51944
G92 E0
G1 X78.194 Y107.908 F10800.000
G1 F1800.000 E1.00000
G1 X74.833 Y111.269 F3000.000 E1.18249
G1 X73.824 Y110.260 E1.23731
G1 X73.824 Y110.260 E1.23731
G1 X67.372 Y103.807 E1.58771
G1 X70.732 Y100.447 E1.77020
G1 X78.152 Y107.867 E2.17315
G1 X77.661 Y107.908 F10800.000
G1 X74.833 Y110.736 F3000.000 E2.32669
G1 X74.201 Y110.103 E2.36104
G1 X74.201 Y110.103 E2.36104
G1 X67.905 Y103.807 E2.70296
G1 X70.732 Y100.980 E2.85650
G1 X77.619 Y107.867 E3.23050
G1 F1800.000 E2.23050
G92 E0
G1 X82.719 Y114.042 F10800.000
G1 F1800.000 E1.00000
G1 X83.570 Y113.525 F3000.000 E1.03822
G1 X84.483 Y113.128 E1.07645
G1 X85.430 Y112.863 E1.11422
G1 X86.426 Y112.724 E1.15286
G1 X87.423 Y112.724 E1.19111
G1 X88.409 Y112.859 E1.22933
G1 X89.356 Y113.125 E1.26711
G1 X90.280 Y113.524 E1.30575
G1 X91.131 Y114.042 E1.34400
G1 X91.903 Y114.670 E1.38222
G1 X92.582 Y115.397 E1.42045
G1 X93.156 Y116.211 E1.45867
G1 X93.614 Y117.094 E1.49689
G1 X93.948 Y118.032 E1.53512
G1 X94.150 Y119.008 E1.57340
G1 X94.216 Y120.023 E1.61245
G1 X94.150 Y120.993 E1.64978
G1 X93.948 Y121.968 E1.68800
G1 X93.614 Y122.906 E1.72622
G1 X93.156 Y123.789 E1.76445
G1 X92.582 Y124.603 E1.80267
G1 X91.902 Y125.331 E1.84092
G1 X91.121 Y125.964 E1.87956
G1 X90.280 Y126.475 E1.91734
G1 X89.367 Y126.872 E1.95556
G1 X88.409 Y127.141 E1.99378
G1 X87.423 Y127.276 E2.03201
G1 X86.427 Y127.276 E2.07023
G1 X85.441 Y127.141 E2.10845
G1 X84.483 Y126.872 E2.14668
G1 X83.570 Y126.475 E2.18490
G1 X82.719 Y125.958 E2.22312
G1 X81.947 Y125.330 E2.26134
G1 X81.268 Y124.603 E2.29957
G1 X80.694 Y123.789 E2.33779
G1 X80.236 Y122.906 E2.37601
G1 X79.902 Y121.968 E2.41424
G1 X79.700 Y120.993 E2.45246
G1 X79.632 Y120.000 E2.49068
G1 X79.700 Y119.007 E2.52891
G1 X79.893 Y118.077 E2.56539
G1 X79.887 Y118.077 E2.56564
G1 X80.236 Y117.094 E2.60567
G1 X80.694 Y116.211 E2.64389
G1 X81.268 Y115.397 E2.68212
G1 X81.947 Y114.670 E2.72034
G1 X82.673 Y114.079 E2.75629
G1 X82.937 Y114.350 F10800.000
G1 X83.744 Y113.860 F3000.000 E2.79254
G1 X84.609 Y113.484 E2.82878
G1 X85.507 Y113.232 E2.86459
G1 X86.453 Y113.101 E2.90124
G1 X87.397 Y113.101 E2.93750
G1 X88.332 Y113.229 E2.97375
G1 X89.230 Y113.481 E3.00956
G1 X90.106 Y113.860 E3.04621
G1 X90.913 Y114.350 E3.08247
G1 X91.645 Y114.946 E3.11871
G1 X92.289 Y115.636 E3.15496
G1 X92.834 Y116.407 E3.19120
G1 X93.268 Y117.245 E3.22744
G1 X93.584 Y118.134 E3.26369
G1 X93.776 Y119.059 E3.29997
G1 X93.839 Y120.023 E3.33703
G1 X93.776 Y120.942 E3.37241
G1 X93.584 Y121.866 E3.40865
G1 X93.268 Y122.755 E3.44489
G1 X92.834 Y123.593 E3.48114
G1 X92.289 Y124.364 E3.51738
G1 X91.645 Y125.054 E3.55364
G1 X90.903 Y125.655 E3.59030
G1 X90.106 Y126.140 E3.62610
G1 X89.241 Y126.516 E3.66235
G1 X88.332 Y126.771 E3.69859
G1 X87.397 Y126.899 E3.73483
G1 X86.453 Y126.899 E3.77108
G1 X85.518 Y126.771 E3.80732
G1 X84.609 Y126.516 E3.84356
G1 X83.744 Y126.140 E3.87980
G1 X82.937 Y125.650 E3.91605
G1 X82.205 Y125.054 E3.95229
G1 X81.561 Y124.364 E3.98853
G1 X81.016 Y123.593 E4.02478
G1 X80.582 Y122.755 E4.06102
G1 X80.266 Y121.866 E4.09726
G1 X80.074 Y120.942 E4.13351
G1 X80.010 Y120.000 E4.16975
G1 X80.074 Y119.058 E4.20599
G1 X80.266 Y118.134 E4.24223
G1 X80.421 Y117.700 E4.25994
G1 X80.421 Y117.700 E4.25994
G1 X80.582 Y117.245 E4.27848
G1 X81.016 Y116.407 E4.31472
G1 X81.561 Y115.636 E4.35096
G1 X82.205 Y114.946 E4.38721
G1 X82.891 Y114.388 E4.42118
G1 X83.155 Y114.659 F10800.000
G1 X83.917 Y114.196 F3000.000 E4.45544
G1 X84.736 Y113.840 E4.48970
G1 X85.584 Y113.602 E4.52354
G1 X86.479 Y113.478 E4.55822
G1 X87.371 Y113.478 E4.59249
G1 X88.255 Y113.599 E4.62675
G1 X89.104 Y113.837 E4.66059
G1 X89.932 Y114.195 E4.69527
G1 X90.695 Y114.659 E4.72953
G1 X91.387 Y115.222 E4.76380
G1 X91.996 Y115.874 E4.79806
G1 X92.511 Y116.603 E4.83232
G1 X92.921 Y117.395 E4.86659
G1 X93.220 Y118.236 E4.90085
G1 X93.402 Y119.110 E4.93512
G1 X93.461 Y120.022 E4.97021
G1 X93.402 Y120.890 E5.00363
G1 X93.220 Y121.764 E5.03789
G1 X92.921 Y122.605 E5.07215
G1 X92.511 Y123.397 E5.10642
G1 X91.996 Y124.126 E5.14068
G1 X91.387 Y124.778 E5.17495
G1 X90.686 Y125.347 E5.20962
G1 X89.933 Y125.804 E5.24346
G1 X89.114 Y126.160 E5.27773
G1 X88.255 Y126.401 E5.31199
G1 X87.371 Y126.522 E5.34625
G1 X86.479 Y126.522 E5.38051
G1 X85.595 Y126.401 E5.41478
G1 X84.736 Y126.160 E5.44904
G1 X83.917 Y125.804 E5.48330
G1 X83.155 Y125.341 E5.51757
G1 X82.463 Y124.778 E5.55183
G1 X81.854 Y124.126 E5.58609
G1 X81.339 Y123.397 E5.62035
G1 X80.929 Y122.605 E5.65462
G1 X80.630 Y121.764 E5.68888
G1 X80.448 Y120.890 E5.72314
G1 X80.388 Y120.000 E5.75741
G1 X80.448 Y119.110 E5.79167
G1 X80.630 Y118.236 E5.82593
G1 X80.929 Y117.395 E5.86019
G1 X81.339 Y116.603 E5.89446
G1 X81.854 Y115.874 E5.92872
G1 X82.463 Y115.222 E5.96298
G1 X83.109 Y114.696 E5.99497
G1 F1800.000 E4.99497
G92 E0
G1 X74.833 Y128.731 F10800.000
G1 F1800.000 E1.00000
G1 X78.194 Y132.092 F3000.000 E1.18249
G1 X70.732 Y139.553 E1.58771
G1 X67.372 Y136.193 E1.77021
G1 X74.792 Y128.773 E2.17315
G1 X74.833 Y129.264 F10800.000
G1 X77.661 Y132.092 F3000.000 E2.32669
G1 X70.732 Y139.020 E2.70296
G1 X67.905 Y136.193 E2.85651
G1 X74.792 Y129.306 E3.23050
G1 F1800.000 E2.23050
G92 E0
G1 X66.122 Y133.213 F10800.000
G1 F1800.000 E1.00000
G1 X66.122 Y146.989 F3000.000 E1.52903
G1 X48.728 Y146.989 E2.19697
G1 X48.728 Y133.213 E2.72600
G1 X66.063 Y133.213 E3.39167
G1 F1800.000 E2.39167
G92 E0
G1 X115.575 Y156.299 F10800.000
G1 F1800.000 E1.00000
G1 X109.876 Y156.299 F3000.000 E1.21884
G1 X109.876 Y143.549 E1.70844
G1 X67.974 Y143.549 E3.31748
G1 X67.974 Y156.299 E3.80708
G1 X48.876 Y156.299 E4.54044
G1 X48.876 Y147.743 E4.86897
G1 X66.876 Y147.743 E5.56017
G1 X66.876 Y136.433 E5.99448
G1 X67.020 Y136.374 E6.00045
G1 X70.732 Y140.086 E6.20206
G1 X78.727 Y132.092 E6.63623
G1 X74.833 Y128.198 E6.84767
G1 X67.020 Y136.012 E7.27200
G1 X66.876 Y135.952 E7.27797
G1 X66.876 Y132.459 E7.41212
G1 X48.876 Y132.459 E8.10332
G1 X48.876 Y107.541 E9.06016
G1 X66.876 Y107.541 E9.75136
G1 X66.876 Y104.048 E9.88550
G1 X67.020 Y103.988 E9.89147
G1 X73.447 Y110.416 E10.24052
G1 X73.447 Y110.416 E10.24052
G1 X74.833 Y111.802 E10.31581
G1 X78.727 Y107.908 E10.52725
G1 X70.732 Y99.914 E10.96141
G1 X67.020 Y103.626 E11.16303
G1 X66.876 Y103.567 E11.16900
G1 X66.876 Y92.257 E11.60330
G1 X48.876 Y92.257 E12.29450
G1 X48.876 Y83.701 E12.62304
G1 X67.974 Y83.701 E13.35639
G1 X67.974 Y96.451 E13.84599
G1 X109.876 Y96.451 E15.45504
G1 X109.876 Y83.701 E15.94464
G1 X115.575 Y83.701 E16.16347
G1 X115.575 Y110.768 E17.20286
G1 X117.833 Y110.847 E17.28962
G1 X118.719 Y110.979 E17.32403
G1 X119.595 Y111.198 E17.35869
G1 X120.445 Y111.502 E17.39335
G1 X121.255 Y111.886 E17.42778
G1 X122.035 Y112.352 E17.46268
G1 X122.760 Y112.890 E17.49733
G1 X123.424 Y113.492 E17.53176
G1 X124.035 Y114.165 E17.56666
G1 X124.573 Y114.890 E17.60131
G1 X125.037 Y115.664 E17.63597
G1 X125.423 Y116.480 E17.67064
G1 X125.727 Y117.330 E17.70530
G1 X125.946 Y118.206 E17.73996
G1 X126.078 Y119.098 E17.77462
G1 X126.122 Y119.994 E17.80905
G1 X126.078 Y120.902 E17.84395
G1 X125.946 Y121.794 E17.87860
G1 X125.727 Y122.670 E17.91326
G1 X125.423 Y123.520 E17.94792
G1 X125.037 Y124.336 E17.98258
G1 X124.573 Y125.110 E18.01724
G1 X124.035 Y125.835 E18.05190
G1 X123.429 Y126.504 E18.08656
G1 X122.760 Y127.110 E18.12123
G1 X122.035 Y127.648 E18.15589
G1 X121.261 Y128.112 E18.19055
G1 X120.445 Y128.498 E18.22521
G1 X119.595 Y128.802 E18.25987
G1 X118.719 Y129.021 E18.29453
G1 X117.833 Y129.153 E18.32893
G1 X115.575 Y129.232 E18.41570
G1 X115.575 Y156.240 E19.45281
G1 X115.952 Y156.676 F10800.000
G1 X109.499 Y156.676 F3000.000 E19.70060
G1 X109.499 Y143.926 E20.19020
G1 X68.351 Y143.926 E21.77029
G1 X68.351 Y156.676 E22.25989
G1 X48.499 Y156.676 E23.02220
G1 X48.499 Y147.366 E23.37968
G1 X66.499 Y147.366 E24.07088
