; generated by Slic3r 0.8.3 on 2012-06-16 at 12:09:22

; layer_height = 0.25
; perimeters = 3
; solid_layers = 3
; fill_density = .2
; nozzle_diameter = .35
; filament_diameter = 1.75
; extrusion_multiplier = 1
; perimeter_speed = 100
; infill_speed = 120
; travel_speed = 180
; scale = 1
; single wall width = 0.39mm

M190 S110 ; wait for bed temperature to be reached
M104 S220 ; set temperature
M104 S220 ;start extruder
G28 ; home all axes
M109 S220 ; wait for temperature to be reached
G90 ; use absolute coordinates
G21 ; set units to millimeters
G92 E0 ; reset extrusion distance
M82 ; use absolute distances for extrusion
G1 Z0.250 F10800.000
G1 X78.360 Y102.510
G1 F1800.000 E1.00000
G1 X78.770 Y102.160 F0.000 E1.02156
G1 X79.420 Y101.720 E1.05296
G1 X79.880 Y101.460 E1.07410
G1 X80.610 Y101.160 E1.10567
G1 X81.120 Y101.010 E1.12693
G1 X81.640 Y100.900 E1.14819
G1 X82.160 Y100.830 E1.16918
G1 X82.690 Y100.810 E1.19039
G1 X109.830 Y100.830 E2.27599
G1 X110.350 Y100.900 E2.29698
G1 X110.870 Y101.010 E2.31824
G1 X111.380 Y101.160 E2.33950
G1 X111.870 Y101.350 E2.36053
G1 X112.110 Y101.460 E2.37109
G1 X112.790 Y101.860 E2.40264
G1 X113.220 Y102.160 E2.42362
G1 X113.820 Y102.690 E2.45564
G1 X114.000 Y102.880 E2.46611
G1 X114.340 Y103.280 E2.48711
G1 X114.650 Y103.710 E2.50831
G1 X115.040 Y104.400 E2.54001
G1 X115.250 Y104.890 E2.56134
G1 X115.420 Y105.390 E2.58246
G1 X121.990 Y131.640 E3.66485
G1 X122.110 Y132.260 E3.69011
G1 X122.150 Y132.570 E3.70261
G1 X122.160 Y140.330 E4.01301
G1 X122.090 Y140.850 E4.03400
G1 X121.980 Y141.370 E4.05526
G1 X121.830 Y141.870 E4.07614
G1 X121.640 Y142.360 E4.09716
G1 X121.410 Y142.840 E4.11845
G1 X121.140 Y143.290 E4.13945
G1 X120.990 Y143.510 E4.15010
G1 X120.670 Y143.920 E4.17090
G1 X120.310 Y144.310 E4.19213
G1 X119.920 Y144.670 E4.21336
G1 X119.510 Y144.990 E4.23416
G1 X118.840 Y145.410 E4.26580
G1 X118.120 Y145.740 E4.29748
G1 X117.620 Y145.910 E4.31860
G1 X117.110 Y146.040 E4.33965
G1 X116.590 Y146.130 E4.36076
G1 X116.330 Y146.160 E4.37123
G1 X115.800 Y146.180 E4.39245
G1 X75.660 Y146.160 E5.99805
G1 X75.140 Y146.090 E6.01903
G1 X74.620 Y145.980 E6.04029
G1 X74.120 Y145.830 E6.06117
G1 X73.630 Y145.640 E6.08220
G1 X73.150 Y145.410 E6.10349
G1 X72.700 Y145.140 E6.12448
G1 X72.480 Y144.990 E6.13513
G1 X72.070 Y144.670 E6.15593
G1 X71.680 Y144.310 E6.17716
G1 X71.320 Y143.920 E6.19839
G1 X71.000 Y143.510 E6.21920
G1 X70.580 Y142.840 E6.25083
G1 X70.250 Y142.120 E6.28251
G1 X70.080 Y141.620 E6.30363
G1 X69.950 Y141.110 E6.32469
G1 X69.860 Y140.590 E6.34579
G1 X69.830 Y140.330 E6.35626
G1 X69.820 Y132.880 E6.65426
G1 X69.840 Y132.570 E6.66669
G1 X69.880 Y132.260 E6.67919
G1 X70.000 Y131.640 E6.70445
G1 X76.570 Y105.390 E7.78684
G1 X76.740 Y104.890 E7.80797
G1 X76.950 Y104.400 E7.82929
G1 X77.340 Y103.710 E7.86099
G1 X77.650 Y103.280 E7.88220
G1 X77.990 Y102.880 E7.90320
G1 X78.170 Y102.690 E7.91366
G1 X78.317 Y102.551 E7.92177
G1 X78.510 Y102.880 F10800.000
G1 X79.100 Y102.380 F0.000 E7.95270
G1 X79.520 Y102.090 E7.97312
G1 X79.740 Y101.960 E7.98334
G1 X80.200 Y101.730 E8.00391
G1 X80.680 Y101.540 E8.02456
G1 X81.170 Y101.390 E8.04506
G1 X81.670 Y101.280 E8.06554
G1 X82.180 Y101.210 E8.08613
G1 X82.690 Y101.190 E8.10654
G1 X109.810 Y101.210 E9.19134
G1 X110.320 Y101.280 E9.21194
G1 X110.820 Y101.390 E9.23241
G1 X111.310 Y101.540 E9.25291
G1 X111.790 Y101.730 E9.27356
G1 X112.250 Y101.960 E9.29413
G1 X112.470 Y102.090 E9.30435
G1 X112.890 Y102.380 E9.32477
G1 X113.480 Y102.880 E9.35570
G1 X113.660 Y103.060 E9.36589
G1 X113.830 Y103.250 E9.37609
G1 X114.300 Y103.870 E9.40721
G1 X114.680 Y104.530 E9.43767
G1 X114.890 Y105.000 E9.45826
G1 X114.980 Y105.240 E9.46851
G1 X121.690 Y132.020 E10.57283
G1 X121.740 Y132.310 E10.58460
G1 X121.800 Y133.190 E10.61988
G1 X121.780 Y140.310 E10.90468
G1 X121.670 Y141.060 E10.93500
G1 X121.540 Y141.560 E10.95567
G1 X121.370 Y142.040 E10.97603
G1 X121.160 Y142.500 E10.99626
G1 X121.040 Y142.730 E11.00664
G1 X120.910 Y142.950 E11.01686
G1 X120.470 Y143.570 E11.04727
G1 X120.130 Y143.950 E11.06767
G1 X119.950 Y144.130 E11.07785
G1 X119.570 Y144.470 E11.09824
G1 X118.950 Y144.910 E11.12866
G1 X118.730 Y145.040 E11.13888
G1 X118.270 Y145.270 E11.15945
G1 X117.800 Y145.460 E11.17973
G1 X117.310 Y145.610 E11.20022
G1 X117.060 Y145.670 E11.21051
G1 X116.310 Y145.780 E11.24083
G1 X115.800 Y145.800 E11.26125
G1 X75.680 Y145.780 E12.86605
G1 X74.930 Y145.670 E12.89637
G1 X74.430 Y145.540 E12.91703
G1 X73.950 Y145.370 E12.93740
G1 X73.490 Y145.160 E12.95763
G1 X73.260 Y145.040 E12.96800
G1 X73.040 Y144.910 E12.97822
G1 X72.420 Y144.470 E13.00864
G1 X72.040 Y144.130 E13.02903
G1 X71.860 Y143.950 E13.03921
G1 X71.520 Y143.570 E13.05961
G1 X71.080 Y142.950 E13.09002
G1 X70.950 Y142.730 E13.10024
G1 X70.720 Y142.270 E13.12081
G1 X70.530 Y141.800 E13.14109
G1 X70.380 Y141.310 E13.16159
G1 X70.320 Y141.060 E13.17187
G1 X70.210 Y140.310 E13.20219
G1 X70.200 Y132.900 E13.49859
G1 X70.250 Y132.310 E13.52228
G1 X70.300 Y132.020 E13.53405
G1 X77.010 Y105.240 E14.63836
G1 X77.310 Y104.530 E14.66920
G1 X77.690 Y103.870 E14.69966
G1 X78.160 Y103.250 E14.73078
G1 X78.330 Y103.060 E14.74098
G1 X78.468 Y102.922 E14.74879
G1 F1800.000 E13.74879
G92 E0
G1 X104.132 Y109.933 F10800.000
G1 F1800.000 E1.00000
G1 X104.279 Y109.580 F0.000 E1.01531
G1 X104.491 Y109.262 E1.03061
G1 X104.762 Y108.991 E1.04592
G1 X105.080 Y108.779 E1.06122
G1 X105.433 Y108.632 E1.07653
G1 X105.809 Y108.557 E1.09183
G1 X106.191 Y108.557 E1.10714
G1 X106.567 Y108.632 E1.12245
G1 X106.920 Y108.779 E1.13775
G1 X107.238 Y108.991 E1.15306
G1 X107.509 Y109.262 E1.16836
G1 X107.721 Y109.580 E1.18367
G1 X107.868 Y109.933 E1.19897
G1 X107.942 Y110.308 E1.21426
G1 X107.943 Y110.664 E1.22851
G1 X107.911 Y110.892 E1.23772
G1 X107.803 Y111.247 E1.25254
G1 X107.623 Y111.584 E1.26784
G1 X107.380 Y111.880 E1.28315
G1 X107.084 Y112.123 E1.29846
G1 X106.747 Y112.303 E1.31376
G1 X106.381 Y112.414 E1.32907
G1 X106.014 Y112.451 E1.34380
G1 X105.633 Y112.416 E1.35912
G1 X105.420 Y112.362 E1.36788
G1 X105.080 Y112.221 E1.38262
G1 X104.762 Y112.009 E1.39793
G1 X104.491 Y111.738 E1.41323
G1 X104.279 Y111.420 E1.42854
G1 X104.132 Y111.067 E1.44384
G1 X104.057 Y110.691 E1.45915
G1 X104.057 Y110.309 E1.47446
G1 X104.121 Y109.991 E1.48739
G1 X104.495 Y110.043 F10800.000
G1 X104.613 Y109.758 F0.000 E1.49973
G1 X104.784 Y109.502 E1.51207
G1 X105.002 Y109.284 E1.52440
G1 X105.258 Y109.113 E1.53674
G1 X105.543 Y108.995 E1.54907
G1 X105.846 Y108.934 E1.56141
G1 X106.154 Y108.934 E1.57374
G1 X106.457 Y108.995 E1.58608
G1 X106.742 Y109.113 E1.59841
G1 X106.998 Y109.284 E1.61075
G1 X107.216 Y109.502 E1.62309
G1 X107.387 Y109.758 E1.63542
G1 X107.505 Y110.043 E1.64776
G1 X107.566 Y110.346 E1.66009
G1 X107.566 Y110.638 E1.67179
G1 X107.542 Y110.811 E1.67877
G1 X107.453 Y111.102 E1.69093
G1 X107.308 Y111.374 E1.70327
G1 X107.112 Y111.612 E1.71560
G1 X106.874 Y111.808 E1.72794
G1 X106.602 Y111.953 E1.74028
G1 X106.307 Y112.043 E1.75261
G1 X106.005 Y112.073 E1.76475
G1 X105.698 Y112.043 E1.77709
G1 X105.539 Y112.004 E1.78364
G1 X105.258 Y111.887 E1.79579
G1 X105.002 Y111.716 E1.80812
G1 X104.784 Y111.498 E1.82046
G1 X104.613 Y111.242 E1.83279
G1 X104.495 Y110.957 E1.84513
G1 X104.434 Y110.654 E1.85746
G1 X104.434 Y110.346 E1.86980
G1 X104.483 Y110.101 E1.87977
G1 F1800.000 E0.87977
G92 E0
G1 X87.942 Y110.308 F10800.000
G1 F1800.000 E1.00000
G1 X87.943 Y110.664 F0.000 E1.01425
G1 X87.911 Y110.892 E1.02346
G1 X87.803 Y111.247 E1.03828
G1 X87.623 Y111.584 E1.05359
G1 X87.380 Y111.880 E1.06889
G1 X87.084 Y112.123 E1.08420
G1 X86.747 Y112.303 E1.09950
G1 X86.381 Y112.414 E1.11481
G1 X86.014 Y112.451 E1.12955
G1 X85.633 Y112.416 E1.14487
G1 X85.420 Y112.362 E1.15363
G1 X85.080 Y112.221 E1.16837
G1 X84.762 Y112.009 E1.18367
G1 X84.491 Y111.738 E1.19898
G1 X84.279 Y111.420 E1.21428
G1 X84.132 Y111.067 E1.22959
G1 X84.057 Y110.691 E1.24489
G1 X84.057 Y110.309 E1.26020
G1 X84.132 Y109.933 E1.27550
G1 X84.279 Y109.580 E1.29081
G1 X84.491 Y109.262 E1.30612
G1 X84.762 Y108.991 E1.32142
G1 X85.080 Y108.779 E1.33673
G1 X85.433 Y108.632 E1.35203
G1 X85.809 Y108.557 E1.36734
G1 X86.191 Y108.557 E1.38264
G1 X86.567 Y108.632 E1.39795
G1 X86.920 Y108.779 E1.41326
G1 X87.238 Y108.991 E1.42856
G1 X87.509 Y109.262 E1.44387
G1 X87.721 Y109.580 E1.45917
G1 X87.868 Y109.933 E1.47448
G1 X87.931 Y110.250 E1.48739
G1 X87.566 Y110.346 F10800.000
G1 X87.566 Y110.638 F0.000 E1.49910
G1 X87.542 Y110.811 E1.50608
G1 X87.453 Y111.102 E1.51824
G1 X87.308 Y111.374 E1.53058
G1 X87.112 Y111.612 E1.54291
G1 X86.874 Y111.808 E1.55525
G1 X86.602 Y111.953 E1.56759
G1 X86.307 Y112.043 E1.57992
G1 X86.005 Y112.073 E1.59206
G1 X85.698 Y112.043 E1.60440
G1 X85.539 Y112.004 E1.61095
G1 X85.258 Y111.887 E1.62309
G1 X85.002 Y111.716 E1.63543
G1 X84.784 Y111.498 E1.64777
G1 X84.613 Y111.242 E1.66010
G1 X84.495 Y110.957 E1.67244
G1 X84.434 Y110.654 E1.68477
G1 X84.434 Y110.346 E1.69711
G1 X84.495 Y110.043 E1.70944
G1 X84.613 Y109.758 E1.72178
G1 X84.784 Y109.502 E1.73411
G1 X85.002 Y109.284 E1.74645
G1 X85.258 Y109.113 E1.75879
G1 X85.543 Y108.995 E1.77112
G1 X85.846 Y108.934 E1.78346
G1 X86.154 Y108.934 E1.79579
G1 X86.457 Y108.995 E1.80813
G1 X86.742 Y109.113 E1.82046
G1 X86.998 Y109.284 E1.83280
G1 X87.216 Y109.502 E1.84513
G1 X87.387 Y109.758 E1.85747
G1 X87.505 Y110.043 E1.86981
G1 X87.554 Y110.288 E1.87977
G1 F1800.000 E0.87977
G92 E0
G1 X80.162 Y134.271 F10800.000
G1 F1800.000 E1.00000
G1 X80.403 Y134.357 F0.000 E1.01026
G1 X80.793 Y134.565 E1.02794
G1 X81.145 Y134.855 E1.04618
G1 X81.435 Y135.207 E1.06443
G1 X81.650 Y135.610 E1.08267
G1 X81.782 Y136.046 E1.10092
G1 X81.827 Y136.500 E1.11917
G1 X81.782 Y136.954 E1.13741
G1 X81.650 Y137.390 E1.15566
G1 X81.435 Y137.793 E1.17391
G1 X81.145 Y138.145 E1.19215
G1 X80.793 Y138.435 E1.21040
G1 X80.390 Y138.650 E1.22864
G1 X79.954 Y138.782 E1.24689
G1 X79.514 Y138.826 E1.26457
G1 X79.060 Y138.784 E1.28281
G1 X78.811 Y138.721 E1.29306
G1 X78.403 Y138.552 E1.31074
G1 X78.024 Y138.299 E1.32898
G1 X77.701 Y137.976 E1.34723
G1 X77.448 Y137.597 E1.36548
G1 X77.273 Y137.175 E1.38372
G1 X77.184 Y136.728 E1.40197
G1 X77.184 Y136.272 E1.42022
G1 X77.273 Y135.825 E1.43846
G1 X77.448 Y135.403 E1.45671
G1 X77.701 Y135.024 E1.47495
G1 X78.024 Y134.701 E1.49320
G1 X78.403 Y134.448 E1.51145
G1 X78.825 Y134.273 E1.52969
G1 X79.272 Y134.184 E1.54794
G1 X79.728 Y134.184 E1.56618
G1 X80.104 Y134.259 E1.58150
G1 X80.061 Y134.635 F10800.000
G1 X80.250 Y134.702 F0.000 E1.58953
G1 X80.582 Y134.880 E1.60461
G1 X80.878 Y135.122 E1.61989
G1 X81.120 Y135.418 E1.63516
G1 X81.300 Y135.754 E1.65044
G1 X81.411 Y136.120 E1.66572
G1 X81.448 Y136.500 E1.68099
G1 X81.411 Y136.880 E1.69627
G1 X81.300 Y137.246 E1.71154
G1 X81.120 Y137.582 E1.72682
G1 X80.878 Y137.878 E1.74210
G1 X80.582 Y138.120 E1.75737
G1 X80.246 Y138.300 E1.77265
G1 X79.880 Y138.411 E1.78792
G1 X79.505 Y138.448 E1.80301
G1 X79.125 Y138.411 E1.81828
G1 X78.930 Y138.362 E1.82631
G1 X78.582 Y138.218 E1.84139
G1 X78.264 Y138.006 E1.85667
G1 X77.994 Y137.736 E1.87194
G1 X77.782 Y137.418 E1.88722
G1 X77.636 Y137.066 E1.90250
G1 X77.561 Y136.691 E1.91777
G1 X77.561 Y136.309 E1.93305
G1 X77.636 Y135.934 E1.94832
G1 X77.782 Y135.582 E1.96360
G1 X77.994 Y135.264 E1.97888
G1 X78.264 Y134.994 E1.99415
G1 X78.582 Y134.782 E2.00943
G1 X78.934 Y134.636 E2.02470
G1 X79.309 Y134.561 E2.03998
G1 X79.691 Y134.561 E2.05526
G1 X80.003 Y134.623 E2.06797
G1 F1800.000 E1.06797
G92 E0
G1 X84.491 Y131.738 F10800.000
G1 F1800.000 E1.00000
G1 X84.279 Y131.420 F0.000 E1.01531
G1 X84.132 Y131.067 E1.03061
G1 X84.057 Y130.691 E1.04592
G1 X84.057 Y130.309 E1.06122
G1 X84.132 Y129.933 E1.07653
G1 X84.279 Y129.580 E1.09183
G1 X84.491 Y129.262 E1.10714
G1 X84.762 Y128.991 E1.12244
G1 X85.080 Y128.779 E1.13775
G1 X85.433 Y128.632 E1.15306
G1 X85.809 Y128.557 E1.16836
G1 X86.191 Y128.557 E1.18367
G1 X86.567 Y128.632 E1.19897
G1 X86.920 Y128.779 E1.21428
G1 X87.238 Y128.991 E1.22958
G1 X87.509 Y129.262 E1.24489
G1 X87.721 Y129.580 E1.26019
G1 X87.868 Y129.933 E1.27550
G1 X87.942 Y130.308 E1.29078
G1 X87.943 Y130.664 E1.30503
G1 X87.911 Y130.892 E1.31425
G1 X87.803 Y131.247 E1.32907
G1 X87.623 Y131.584 E1.34437
G1 X87.380 Y131.880 E1.35968
G1 X87.084 Y132.123 E1.37498
G1 X86.747 Y132.303 E1.39029
G1 X86.381 Y132.414 E1.40559
G1 X86.014 Y132.451 E1.42033
G1 X85.633 Y132.416 E1.43565
G1 X85.420 Y132.362 E1.44441
G1 X85.080 Y132.221 E1.45915
G1 X84.762 Y132.009 E1.47445
G1 X84.533 Y131.780 E1.48739
G1 X84.784 Y131.498 F10800.000
G1 X84.613 Y131.242 F0.000 E1.49973
G1 X84.495 Y130.957 E1.51207
G1 X84.434 Y130.654 E1.52440
G1 X84.434 Y130.346 E1.53674
G1 X84.495 Y130.043 E1.54907
G1 X84.613 Y129.758 E1.56141
G1 X84.784 Y129.502 E1.57374
G1 X85.002 Y129.284 E1.58608
G1 X85.258 Y129.113 E1.59841
G1 X85.543 Y128.995 E1.61075
G1 X85.846 Y128.934 E1.62309
G1 X86.154 Y128.934 E1.63542
G1 X86.457 Y128.995 E1.64776
G1 X86.742 Y129.113 E1.66009
G1 X86.998 Y129.284 E1.67243
G1 X87.216 Y129.502 E1.68476
G1 X87.387 Y129.758 E1.69710
G1 X87.505 Y130.043 E1.70943
G1 X87.566 Y130.346 E1.72176
G1 X87.566 Y130.638 E1.73347
G1 X87.542 Y130.811 E1.74044
G1 X87.453 Y131.102 E1.75261
G1 X87.308 Y131.374 E1.76495
G1 X87.112 Y131.612 E1.77728
G1 X86.874 Y131.808 E1.78962
G1 X86.602 Y131.953 E1.80195
G1 X86.307 Y132.043 E1.81429
G1 X86.005 Y132.073 E1.82643
G1 X85.698 Y132.043 E1.83877
G1 X85.539 Y132.004 E1.84532
G1 X85.258 Y131.887 E1.85746
G1 X85.002 Y131.716 E1.86980
G1 X84.826 Y131.540 E1.87977
G1 F1800.000 E0.87977
G92 E0
G1 X85.835 Y127.698 F10800.000
G1 F1800.000 E1.00000
G1 X84.814 Y125.960 F0.000 E1.08061
G1 X84.120 Y124.216 E1.15570
G1 X83.696 Y122.387 E1.23079
G1 X83.552 Y120.500 E1.30649
G1 X83.692 Y118.644 E1.38096
G1 X84.129 Y116.756 E1.45845
G1 X84.831 Y115.005 E1.53392
G1 X85.835 Y113.302 E1.61298
G1 X87.607 Y113.309 E1.68386
G1 X89.236 Y110.513 E1.81331
G1 X89.037 Y110.164 E1.82939
G1 X90.767 Y109.206 E1.90851
G1 X92.449 Y108.570 E1.98043
G1 X94.169 Y108.190 E2.05092
G1 X95.998 Y108.055 E2.12425
G1 X97.791 Y108.185 E2.19618
G1 X99.513 Y108.563 E2.26667
G1 X101.261 Y109.222 E2.34143
G1 X102.963 Y110.164 E2.41924
G1 X102.764 Y110.513 E2.43532
G1 X104.393 Y113.309 E2.56478
G1 X106.165 Y113.302 E2.63566
G1 X107.172 Y115.013 E2.71506
G1 X107.874 Y116.773 E2.79086
G1 X108.302 Y118.619 E2.86667
G1 X108.445 Y120.509 E2.94248
G1 X108.300 Y122.399 E3.01828
G1 X107.870 Y124.244 E3.09408
G1 X107.165 Y126.003 E3.16987
G1 X106.165 Y127.698 E3.24858
G1 X104.393 Y127.691 E3.31946
G1 X102.764 Y130.487 E3.44891
G1 X102.963 Y130.836 E3.46500
G1 X101.234 Y131.792 E3.54403
G1 X99.498 Y132.443 E3.61819
G1 X97.770 Y132.820 E3.68894
G1 X96.010 Y132.947 E3.75955
G1 X94.199 Y132.816 E3.83217
G1 X92.471 Y132.436 E3.90293
G1 X90.738 Y131.779 E3.97708
G1 X89.037 Y130.836 E4.05488
G1 X89.236 Y130.487 E4.07095
G1 X87.607 Y127.691 E4.20041
G1 X85.894 Y127.698 E4.26893
G1 F1800.000 E3.26893
G92 E0
G1 X104.057 Y130.309 F10800.000
G1 F1800.000 E1.00000
G1 X104.132 Y129.933 F0.000 E1.01531
G1 X104.279 Y129.580 E1.03061
G1 X104.491 Y129.262 E1.04592
G1 X104.762 Y128.991 E1.06122
G1 X105.080 Y128.779 E1.07653
G1 X105.433 Y128.632 E1.09183
G1 X105.809 Y128.557 E1.10714
G1 X106.191 Y128.557 E1.12244
G1 X106.567 Y128.632 E1.13775
G1 X106.920 Y128.779 E1.15306
G1 X107.238 Y128.991 E1.16836
G1 X107.509 Y129.262 E1.18367
G1 X107.721 Y129.580 E1.19897
G1 X107.868 Y129.933 E1.21428
G1 X107.942 Y130.308 E1.22956
G1 X107.943 Y130.664 E1.24381
G1 X107.911 Y130.892 E1.25303
G1 X107.803 Y131.247 E1.26784
G1 X107.623 Y131.584 E1.28315
G1 X107.380 Y131.880 E1.29845
G1 X107.084 Y132.123 E1.31376
G1 X106.747 Y132.303 E1.32907
G1 X106.381 Y132.414 E1.34437
G1 X106.014 Y132.451 E1.35911
G1 X105.633 Y132.416 E1.37443
G1 X105.420 Y132.362 E1.38319
G1 X105.080 Y132.221 E1.39793
G1 X104.762 Y132.009 E1.41323
G1 X104.491 Y131.738 E1.42854
G1 X104.279 Y131.420 E1.44384
G1 X104.132 Y131.067 E1.45915
G1 X104.057 Y130.691 E1.47446
G1 X104.057 Y130.368 E1.48739
G1 X104.434 Y130.346 F10800.000
G1 X104.495 Y130.043 F0.000 E1.49973
G1 X104.613 Y129.758 E1.51207
G1 X104.784 Y129.502 E1.52440
