; generated by Slic3r 0.8.3 on 2012-06-15 at 21:38:04

; layer_height = 0.25
; perimeters = 3
; solid_layers = 3
; fill_density = .2
; nozzle_diameter = .35
; filament_diameter = 1.75
; extrusion_multiplier = 1
; perimeter_speed = 100
; infill_speed = 120
; travel_speed = 180
; scale = 1
; single wall width = 0.39mm

M190 S110 ; wait for bed temperature to be reached
M104 S220 ; set temperature
M104 S220 ;start extruder
G28 ; home all axes
M109 S220 ; wait for temperature to be reached
G90 ; use absolute coordinates
G21 ; set units to millimeters
G92 E0 ; reset extrusion distance
M82 ; use absolute distances for extrusion
G1 Z0.250 F10800.000
G1 X47.220 Y98.780
G1 F1800.000 E1.00000
G1 X49.390 Y96.770 F0.000 E1.11831
G1 X49.900 Y96.350 E1.14474
G1 X51.790 Y94.960 E1.23859
G1 X54.290 Y93.430 E1.35583
G1 X56.980 Y92.120 E1.47551
G1 X60.370 Y90.900 E1.61962
G1 X62.650 Y90.330 E1.71363
G1 X65.600 Y89.870 E1.83305
G1 X68.870 Y89.680 E1.96408
G1 X125.800 Y89.810 E4.24128
G1 X129.340 Y90.330 E4.38440
G1 X131.620 Y90.900 E4.47841
G1 X134.430 Y91.880 E4.59745
G1 X137.140 Y93.130 E4.71682
G1 X140.200 Y94.960 E4.85944
G1 X142.090 Y96.350 E4.95329
G1 X144.340 Y98.350 E5.07370
G1 X146.350 Y100.520 E5.19202
G1 X146.770 Y101.030 E5.21844
G1 X148.160 Y102.920 E5.31229
G1 X149.690 Y105.420 E5.42953
G1 X151.000 Y108.110 E5.54921
G1 X152.220 Y111.500 E5.69332
G1 X152.790 Y113.780 E5.78733
G1 X153.250 Y116.730 E5.90676
G1 X153.430 Y119.670 E6.02458
G1 X153.310 Y122.670 E6.14467
G1 X152.790 Y126.210 E6.28779
G1 X152.220 Y128.490 E6.38180
G1 X151.240 Y131.300 E6.50084
G1 X149.990 Y134.010 E6.62021
G1 X148.160 Y137.070 E6.76283
G1 X146.770 Y138.960 E6.85668
G1 X144.770 Y141.210 E6.97709
G1 X142.600 Y143.220 E7.09541
G1 X142.090 Y143.640 E7.12183
G1 X140.200 Y145.030 E7.21568
G1 X137.700 Y146.560 E7.33292
G1 X135.010 Y147.870 E7.45260
G1 X131.620 Y149.090 E7.59671
G1 X129.340 Y149.660 E7.69072
G1 X126.390 Y150.120 E7.81015
G1 X123.150 Y150.310 E7.93997
G1 X66.190 Y150.180 E10.21838
G1 X62.650 Y149.660 E10.36149
G1 X60.370 Y149.090 E10.45550
G1 X57.560 Y148.110 E10.57454
G1 X54.850 Y146.860 E10.69392
G1 X51.790 Y145.030 E10.83654
G1 X49.900 Y143.640 E10.93038
G1 X47.650 Y141.640 E11.05080
G1 X45.640 Y139.470 E11.16911
G1 X45.220 Y138.960 E11.19554
G1 X43.830 Y137.070 E11.28938
G1 X42.300 Y134.570 E11.40662
G1 X40.990 Y131.880 E11.52630
G1 X39.770 Y128.490 E11.67042
G1 X39.200 Y126.210 E11.76442
G1 X38.740 Y123.260 E11.88385
G1 X38.560 Y120.330 E12.00127
G1 X38.680 Y117.320 E12.12177
G1 X39.200 Y113.780 E12.26489
G1 X39.770 Y111.500 E12.35889
G1 X40.750 Y108.690 E12.47793
G1 X42.000 Y105.980 E12.59731
G1 X43.830 Y102.920 E12.73993
G1 X45.220 Y101.030 E12.83377
G1 X47.180 Y98.824 E12.95182
G1 X47.500 Y99.040 F10800.000
G1 X49.650 Y97.050 F0.000 E13.06900
G1 X52.480 Y94.960 E13.20973
G1 X55.010 Y93.470 E13.32717
G1 X57.690 Y92.230 E13.44529
G1 X60.460 Y91.270 E13.56256
G1 X63.330 Y90.580 E13.68063
G1 X65.650 Y90.240 E13.77442
G1 X68.870 Y90.060 E13.90342
G1 X125.780 Y90.190 E16.17983
G1 X126.340 Y90.240 E16.20232
G1 X128.660 Y90.580 E16.29611
G1 X131.530 Y91.270 E16.41418
G1 X134.300 Y92.230 E16.53145
G1 X136.980 Y93.470 E16.64956
G1 X139.510 Y94.960 E16.76701
G1 X141.860 Y96.660 E16.88303
G1 X142.340 Y97.050 E16.90777
G1 X144.490 Y99.040 E17.02495
G1 X146.070 Y100.780 E17.11896
G1 X148.160 Y103.610 E17.25969
G1 X149.650 Y106.140 E17.37713
G1 X150.890 Y108.820 E17.49525
G1 X151.850 Y111.590 E17.61252
G1 X152.540 Y114.460 E17.73059
G1 X152.880 Y116.780 E17.82438
G1 X153.050 Y119.690 E17.94098
G1 X152.880 Y123.210 E18.08194
G1 X152.540 Y125.530 E18.17573
G1 X151.850 Y128.400 E18.29380
G1 X150.890 Y131.170 E18.41107
G1 X149.650 Y133.850 E18.52919
G1 X148.160 Y136.380 E18.64663
G1 X146.460 Y138.730 E18.76265
G1 X146.070 Y139.210 E18.78739
G1 X144.080 Y141.360 E18.90458
G1 X142.340 Y142.940 E18.99859
G1 X139.510 Y145.030 E19.13931
G1 X136.980 Y146.520 E19.25676
G1 X134.300 Y147.760 E19.37488
G1 X131.530 Y148.720 E19.49214
G1 X128.660 Y149.410 E19.61021
G1 X126.340 Y149.750 E19.70400
G1 X123.150 Y149.930 E19.83181
G1 X66.210 Y149.800 E22.10941
G1 X65.650 Y149.750 E22.13190
G1 X63.330 Y149.410 E22.22569
G1 X60.460 Y148.720 E22.34376
G1 X57.690 Y147.760 E22.46103
G1 X55.010 Y146.520 E22.57915
G1 X52.480 Y145.030 E22.69659
G1 X50.130 Y143.330 E22.81261
G1 X49.650 Y142.940 E22.83735
G1 X47.500 Y140.950 E22.95454
G1 X45.920 Y139.210 E23.04855
G1 X43.830 Y136.380 E23.18927
G1 X42.340 Y133.850 E23.30672
G1 X41.100 Y131.170 E23.42484
G1 X40.140 Y128.400 E23.54210
G1 X39.450 Y125.530 E23.66017
G1 X39.110 Y123.210 E23.75396
G1 X38.940 Y120.310 E23.87016
G1 X39.110 Y116.780 E24.01153
G1 X39.450 Y114.460 E24.10532
G1 X40.140 Y111.590 E24.22339
G1 X41.100 Y108.820 E24.34066
G1 X42.340 Y106.140 E24.45877
G1 X43.830 Y103.610 E24.57622
G1 X45.530 Y101.260 E24.69224
G1 X45.920 Y100.780 E24.71698
G1 X47.460 Y99.084 E24.80862
G1 F1800.000 E23.80862
G92 E0
G1 X56.749 Y100.361 F10800.000
G1 F1800.000 E1.00000
G1 X58.284 Y99.529 F0.000 E1.06983
G1 X58.284 Y99.529 E1.06983
G1 X58.907 Y99.191 E1.09820
G1 X58.907 Y100.512 E1.15107
G1 X56.787 Y100.512 E1.23586
G1 X56.764 Y100.418 E1.23973
G1 F1800.000 E0.23973
G92 E0
G1 X78.632 Y129.762 F10800.000
G1 F1800.000 E1.00000
G1 X87.683 Y129.762 F0.000 E1.36207
G1 X87.683 Y133.693 E1.51931
G1 X85.317 Y136.447 E1.66456
G1 X82.563 Y138.813 E1.80981
G1 X78.632 Y138.813 E1.96705
G1 X78.632 Y129.821 E2.32676
G1 F1800.000 E1.32676
G92 E0
G1 X78.611 Y139.266 F10800.000
G1 F1800.000 E1.00000
G1 X81.125 Y139.266 F0.000 E1.10057
G1 X81.248 Y139.752 E1.12062
G1 X78.611 Y141.182 E1.24064
G1 X78.611 Y139.325 E1.31492
G1 X78.158 Y138.813 F10800.000
G1 X69.107 Y138.813 F0.000 E1.67696
G1 X69.107 Y129.762 E2.03900
G1 X78.158 Y129.762 E2.40104
G1 X78.158 Y138.754 E2.76072
G1 X78.160 Y139.285 F10800.000
G1 X78.160 Y141.339 F0.000 E2.84290
G1 X75.889 Y142.176 E2.93973
G1 X73.801 Y142.732 E3.02614
G1 X71.671 Y143.091 E3.11256
G1 X69.105 Y143.282 E3.21546
G1 X69.105 Y139.285 E3.37534
G1 X78.101 Y139.285 E3.73518
G1 F1800.000 E2.73518
G92 E0
G1 X68.633 Y138.813 F10800.000
G1 F1800.000 E1.00000
G1 X59.582 Y138.813 F0.000 E1.36204
G1 X59.582 Y129.762 E1.72408
G1 X68.633 Y129.762 E2.08613
G1 X68.633 Y138.754 E2.44580
G1 X68.635 Y139.285 F10800.000
G1 X68.635 Y143.282 F0.000 E2.60568
G1 X66.130 Y143.096 E2.70618
G1 X63.940 Y142.732 E2.79497
G1 X61.851 Y142.176 E2.88141
G1 X59.580 Y141.339 E2.97824
G1 X59.580 Y139.285 E3.06042
G1 X68.576 Y139.285 E3.42025
G1 F1800.000 E2.42025
G92 E0
G1 X59.129 Y139.266 F10800.000
G1 F1800.000 E1.00000
G1 X59.129 Y141.182 F0.000 E1.07665
G1 X56.492 Y139.752 E1.19667
G1 X56.615 Y139.266 E1.21671
G1 X59.070 Y139.266 E1.31492
G1 X59.108 Y138.813 F10800.000
G1 X55.177 Y138.813 F0.000 E1.47216
G1 X52.423 Y136.447 E1.61741
G1 X50.057 Y133.693 E1.76266
G1 X50.057 Y129.762 E1.91990
G1 X59.108 Y129.762 E2.28197
G1 X59.108 Y138.754 E2.64167
G1 F1800.000 E1.64167
G92 E0
G1 X49.604 Y132.255 F10800.000
G1 F1800.000 E1.00000
G1 X49.118 Y132.378 F0.000 E1.02005
G1 X47.688 Y129.741 E1.14006
G1 X49.604 Y129.741 E1.21671
G1 X49.604 Y132.196 E1.31492
G1 F1800.000 E0.31492
G92 E0
G1 X49.585 Y129.290 F10800.000
G1 F1800.000 E1.00000
G1 X47.531 Y129.290 F0.000 E1.08218
G1 X46.715 Y127.075 E1.17660
G1 X46.138 Y124.931 E1.26539
G1 X45.779 Y122.801 E1.35183
G1 X45.588 Y120.235 E1.45473
G1 X49.585 Y120.235 E1.61461
G1 X49.585 Y129.231 E1.97445
G1 X50.057 Y129.288 F10800.000
G1 X50.057 Y120.237 F0.000 E2.33649
G1 X59.108 Y120.237 E2.69853
G1 X59.108 Y129.288 E3.06057
G1 X50.116 Y129.288 E3.42025
G1 F1800.000 E2.42025
G92 E0
G1 X59.673 Y129.197 F10800.000
G1 F1800.000 E1.00000
G1 X59.673 Y110.803 F0.000 E1.73577
G1 X78.067 Y110.803 E2.47155
G1 X78.067 Y129.197 E3.20732
G1 X59.732 Y129.197 E3.94073
G1 F1800.000 E2.94073
G92 E0
G1 X59.108 Y119.763 F10800.000
G1 F1800.000 E1.00000
G1 X50.057 Y119.763 F0.000 E1.36204
G1 X50.057 Y110.712 E1.72408
G1 X59.108 Y110.712 E2.08613
G1 X59.108 Y119.704 E2.44580
G1 F1800.000 E1.44580
G92 E0
G1 X49.585 Y119.765 F10800.000
G1 F1800.000 E1.00000
G1 X45.588 Y119.765 F0.000 E1.15988
G1 X45.774 Y117.260 E1.26038
G1 X46.138 Y115.070 E1.34917
G1 X46.694 Y112.981 E1.43561
G1 X47.531 Y110.710 E1.53243
G1 X49.585 Y110.710 E1.61461
G1 X49.585 Y119.706 E1.97445
G1 F1800.000 E0.97445
G92 E0
G1 X49.604 Y110.259 F10800.000
G1 F1800.000 E1.00000
G1 X47.688 Y110.259 F0.000 E1.07665
G1 X49.118 Y107.622 E1.19667
G1 X49.604 Y107.745 E1.21671
G1 X49.604 Y110.200 E1.31492
G1 X50.057 Y110.238 F10800.000
G1 X50.057 Y106.307 F0.000 E1.47216
G1 X52.423 Y103.553 E1.61741
G1 X55.177 Y101.187 E1.76266
G1 X59.108 Y101.187 E1.91990
G1 X59.108 Y110.238 E2.28197
G1 X50.116 Y110.238 E2.64167
G1 F1800.000 E1.64167
G92 E0
G1 X59.582 Y110.238 F10800.000
G1 F1800.000 E1.00000
G1 X59.582 Y101.187 F0.000 E1.36204
G1 X68.633 Y101.187 E1.72408
G1 X68.633 Y110.238 E2.08613
G1 X59.641 Y110.238 E2.44580
G1 F1800.000 E1.44580
G92 E0
G1 X59.580 Y100.715 F10800.000
G1 F1800.000 E1.00000
G1 X59.580 Y98.661 F0.000 E1.08218
G1 X61.851 Y97.824 E1.17901
G1 X63.939 Y97.268 E1.26542
G1 X66.069 Y96.909 E1.35184
G1 X68.635 Y96.718 E1.45474
G1 X68.635 Y100.715 E1.61462
G1 X59.639 Y100.715 E1.97446
G1 F1800.000 E0.97446
G92 E0
G1 X78.611 Y100.734 F10800.000
G1 F1800.000 E1.00000
G1 X78.611 Y98.818 F0.000 E1.07665
G1 X81.248 Y100.248 E1.19667
G1 X81.125 Y100.734 E1.21671
G1 X78.670 Y100.734 E1.31492
G1 X78.160 Y100.715 F10800.000
G1 X69.105 Y100.715 F0.000 E1.67712
G1 X69.105 Y96.718 E1.83700
G1 X71.671 Y96.909 E1.93990
G1 X73.801 Y97.268 E2.02632
G1 X75.889 Y97.824 E2.11273
G1 X78.160 Y98.661 E2.20956
G1 X78.160 Y100.656 E2.28938
G1 X78.158 Y101.187 F10800.000
G1 X78.158 Y110.238 F0.000 E2.65142
G1 X69.107 Y110.238 E3.01346
G1 X69.107 Y101.187 E3.37550
G1 X78.099 Y101.187 E3.73518
G1 X78.632 Y101.187 F10800.000
G1 X82.563 Y101.187 F0.000 E3.89242
G1 X85.317 Y103.553 E4.03767
G1 X87.683 Y106.307 E4.18292
G1 X87.683 Y110.238 E4.34016
G1 X78.632 Y110.238 E4.70223
G1 X78.632 Y101.246 E5.06193
G1 F1800.000 E4.06193
G92 E0
G1 X88.136 Y107.745 F10800.000
G1 F1800.000 E1.00000
G1 X88.622 Y107.622 F0.000 E1.02005
G1 X90.052 Y110.259 E1.14006
G1 X88.136 Y110.259 E1.21671
G1 X88.136 Y107.804 E1.31492
G1 F1800.000 E0.31492
G92 E0
G1 X88.155 Y110.710 F10800.000
G1 F1800.000 E1.00000
G1 X90.209 Y110.710 F0.000 E1.08218
G1 X91.046 Y112.981 E1.17901
G1 X91.602 Y115.069 E1.26542
G1 X91.961 Y117.199 E1.35184
G1 X92.152 Y119.765 E1.45474
G1 X88.155 Y119.765 E1.61462
G1 X88.155 Y110.769 E1.97446
G1 X87.683 Y110.712 F10800.000
G1 X87.683 Y119.763 F0.000 E2.33650
G1 X78.632 Y119.763 E2.69854
G1 X78.632 Y110.712 E3.06058
G1 X87.624 Y110.712 E3.42026
G1 F1800.000 E2.42026
G92 E0
G1 X87.683 Y120.237 F10800.000
G1 F1800.000 E1.00000
G1 X87.683 Y129.288 F0.000 E1.36204
G1 X78.632 Y129.288 E1.72408
G1 X78.632 Y120.237 E2.08613
G1 X87.624 Y120.237 E2.44580
G1 F1800.000 E1.44580
G92 E0
G1 X88.136 Y129.741 F10800.000
G1 F1800.000 E1.00000
G1 X90.052 Y129.741 F0.000 E1.07665
G1 X88.622 Y132.378 E1.19667
G1 X88.136 Y132.255 E1.21671
G1 X88.136 Y129.800 E1.31492
G1 X88.155 Y129.290 F10800.000
G1 X88.155 Y120.235 F0.000 E1.67712
G1 X92.152 Y120.235 E1.83700
G1 X91.961 Y122.801 E1.93990
G1 X91.602 Y124.931 E2.02632
G1 X91.046 Y127.019 E2.11273
G1 X90.209 Y129.290 E2.20956
G1 X88.214 Y129.290 E2.28938
G1 F1800.000 E1.28938
G92 E0
G1 X82.191 Y139.190 F10800.000
G1 F1800.000 E1.00000
G1 X82.250 Y139.368 F0.000 E1.00748
G1 X81.957 Y139.585 E1.02209
G1 X81.643 Y139.773 E1.03672
G1 X81.495 Y139.190 E1.06078
G1 X82.132 Y139.190 E1.08627
G1 F1800.000 E0.08627
G92 E0
G1 X56.245 Y139.190 F10800.000
G1 F1800.000 E1.00000
G1 X56.097 Y139.773 F0.000 E1.02406
G1 X55.783 Y139.585 E1.03869
G1 X55.490 Y139.368 E1.05330
G1 X55.549 Y139.190 E1.06078
G1 X56.186 Y139.190 E1.08627
G1 F1800.000 E0.08627
G92 E0
G1 X88.060 Y133.321 F10800.000
G1 F1800.000 E1.00000
G1 X88.060 Y132.625 F0.000 E1.02785
G1 X88.643 Y132.773 E1.05192
G1 X88.455 Y133.087 E1.06654
G1 X88.238 Y133.380 E1.08115
G1 X88.116 Y133.340 E1.08627
G1 F1800.000 E0.08627
G92 E0
G1 X49.680 Y133.321 F10800.000
G1 F1800.000 E1.00000
G1 X49.502 Y133.380 F0.000 E1.00748
G1 X49.285 Y133.087 E1.02209
G1 X49.097 Y132.773 E1.03672
G1 X49.680 Y132.625 E1.06078
G1 X49.680 Y133.262 E1.08627
G1 F1800.000 E0.08627
G92 E0
G1 X49.680 Y107.375 F10800.000
G1 F1800.000 E1.00000
G1 X49.097 Y107.227 F0.000 E1.02406
G1 X49.285 Y106.913 E1.03869
G1 X49.502 Y106.620 E1.05330
G1 X49.680 Y106.679 E1.06078
G1 X49.680 Y107.316 E1.08627
G1 F1800.000 E0.08627
G92 E0
G1 X88.060 Y107.375 F10800.000
G1 F1800.000 E1.00000
G1 X88.060 Y106.679 F0.000 E1.02785
G1 X88.238 Y106.620 E1.03533
G1 X88.455 Y106.913 E1.04994
G1 X88.643 Y107.227 E1.06457
G1 X88.118 Y107.361 E1.08627
G1 F1800.000 E0.08627
G92 E0
G1 X56.474 Y100.810 F10800.000
G1 F1800.000 E1.00000
G1 X55.549 Y100.810 F0.000 E1.03701
G1 X55.490 Y100.632 E1.04449
G1 X55.783 Y100.415 E1.05910
G1 X56.296 Y100.107 E1.08299
G1 X56.459 Y100.752 E1.10960
G1 F1800.000 E0.10960
G92 E0
G1 X81.495 Y100.810 F10800.000
G1 F1800.000 E1.00000
G1 X81.643 Y100.227 F0.000 E1.02406
G1 X81.957 Y100.415 E1.03869
G1 X82.250 Y100.632 E1.05330
G1 X82.191 Y100.810 E1.06078
G1 X81.554 Y100.810 E1.08627
G1 X82.166 Y100.101 F10800.000
G1 X84.053 Y101.500 F0.000 E1.18021
G1 X85.793 Y103.077 E1.27416
G1 X87.370 Y104.817 E1.36810
G1 X88.769 Y106.704 E1.46205
G1 X89.977 Y108.718 E1.55599
G1 X90.981 Y110.841 E1.64994
G1 X91.772 Y113.053 E1.74388
G1 X92.343 Y115.331 E1.83783
G1 X92.687 Y117.654 E1.93177
G1 X92.803 Y120.000 E2.02572
G1 X92.687 Y122.346 E2.11966
G1 X92.343 Y124.669 E2.21361
G1 X91.772 Y126.947 E2.30755
G1 X90.981 Y129.159 E2.40150
G1 X89.977 Y131.282 E2.49544
G1 X88.769 Y133.296 E2.58939
G1 X87.370 Y135.183 E2.68334
G1 X85.793 Y136.923 E2.77728
G1 X84.053 Y138.500 E2.87123
G1 X82.166 Y139.899 E2.96517
G1 X80.152 Y141.107 E3.05912
G1 X78.029 Y142.111 E3.15306
G1 X75.817 Y142.902 E3.24701
G1 X73.539 Y143.473 E3.34095
G1 X71.216 Y143.817 E3.43490
G1 X68.870 Y143.933 E3.52884
G1 X66.524 Y143.817 E3.62279
G1 X64.201 Y143.473 E3.71673
G1 X61.923 Y142.902 E3.81068
G1 X59.711 Y142.111 E3.90462
G1 X57.588 Y141.107 E3.99857
G1 X55.574 Y139.899 E4.09251
G1 X53.687 Y138.500 E4.18646
G1 X51.947 Y136.923 E4.28041
G1 X50.370 Y135.183 E4.37435
G1 X48.971 Y133.296 E4.46830
G1 X47.763 Y131.282 E4.56224
G1 X46.759 Y129.159 E4.65619
G1 X45.968 Y126.947 E4.75013
G1 X45.397 Y124.669 E4.84408
G1 X45.053 Y122.346 E4.93802
G1 X44.937 Y120.000 E5.03197
G1 X45.053 Y117.654 E5.12591
G1 X45.397 Y115.331 E5.21986
G1 X45.968 Y113.053 E5.31380
G1 X46.759 Y110.841 E5.40775
G1 X47.763 Y108.718 E5.50169
G1 X48.971 Y106.704 E5.59564
G1 X50.370 Y104.817 E5.68958
G1 X51.947 Y103.077 E5.78353
G1 X53.687 Y101.500 E5.87747
G1 X55.574 Y100.101 E5.97142
G1 X57.588 Y98.893 E6.06537
G1 X59.711 Y97.889 E6.15931
G1 X61.923 Y97.098 E6.25326
G1 X64.201 Y96.527 E6.34720
G1 X66.524 Y96.183 E6.44115
G1 X68.870 Y96.067 E6.53509
G1 X71.216 Y96.183 E6.62904
G1 X73.539 Y96.527 E6.72298
G1 X75.817 Y97.098 E6.81693
G1 X78.029 Y97.889 E6.91087
G1 X80.152 Y98.893 E7.00482
G1 X82.115 Y100.070 E7.09640
G1 F1800.000 E6.09640
G92 E0
G1 X58.403 Y99.020 F10800.000
G1 F1800.000 E1.00000
G1 X58.336 Y98.986 F0.000 E1.00299
G1 X57.379 Y99.517 E1.04678
G1 X56.545 Y99.999 E1.08531
G1 X56.380 Y100.096 E1.09296
G1 F1800.000 E0.09296
G92 E0
G1 X111.009 Y100.361 F10800.000
G1 F1800.000 E1.00000
G1 X112.544 Y99.529 F0.000 E1.06983
G1 X112.544 Y99.529 E1.06983
G1 X113.167 Y99.191 E1.09820
G1 X113.167 Y100.512 E1.15107
G1 X111.047 Y100.512 E1.23586
G1 X111.024 Y100.418 E1.23973
G1 F1800.000 E0.23973
G92 E0
G1 X132.892 Y129.762 F10800.000
G1 F1800.000 E1.00000
G1 X141.943 Y129.762 F0.000 E1.36207
G1 X141.943 Y133.693 E1.51931
G1 X139.577 Y136.447 E1.66456
G1 X136.823 Y138.813 E1.80981
G1 X132.892 Y138.813 E1.96705
G1 X132.892 Y129.821 E2.32676
G1 F1800.000 E1.32676
G92 E0
G1 X132.871 Y139.266 F10800.000
G1 F1800.000 E1.00000
G1 X135.385 Y139.266 F0.000 E1.10057
G1 X135.508 Y139.752 E1.12062
G1 X132.871 Y141.182 E1.24064
G1 X132.871 Y139.325 E1.31492
G1 X132.418 Y138.813 F10800.000
G1 X123.367 Y138.813 F0.000 E1.67696
