; generated by Slic3r 0.8.4 on 2012-07-28 at 10:27:45

; layer_height = 0.25
; perimeters = 3
; solid_layers = 3
; fill_density = .2
; nozzle_diameter = .35
; filament_diameter = 1.75
; extrusion_multiplier = 1.2
; perimeter_speed = 100
; infill_speed = 120
; travel_speed = 180
; scale = 1
; single wall width = 0.39mm

M190 S110 ; wait for bed temperature to be reached
M104 S220 ; set temperature
M104 S220 ;start extruder
G28 ; home all axes
M109 S220 ; wait for temperature to be reached
G90 ; use absolute coordinates
G21 ; set units to millimeters
G92 E0 ; reset extrusion distance
M82 ; use absolute distances for extrusion
G1 Z0.200 F10800.000
G1 X67.470 Y78.550
G1 F1800.000 E1.00000
G1 X67.830 Y78.240 F3000.000 E1.01824
G1 X70.580 Y76.240 E1.14882
G1 X70.980 Y76.000 E1.16673
G1 X74.200 Y74.410 E1.30463
G1 X77.740 Y73.360 E1.44642
G1 X78.100 Y73.280 E1.46058
G1 X82.560 Y72.600 E1.63382
G1 X87.360 Y72.340 E1.81841
G1 X92.150 Y72.570 E2.00256
G1 X96.890 Y73.280 E2.18661
G1 X97.250 Y73.360 E2.20077
G1 X100.800 Y74.410 E2.34293
G1 X100.990 Y74.490 E2.35084
G1 X104.020 Y76.010 E2.48102
G1 X104.410 Y76.240 E2.49840
G1 X107.160 Y78.240 E2.62898
G1 X107.520 Y78.550 E2.64722
G1 X109.890 Y80.990 E2.77784
G1 X110.180 Y81.360 E2.79589
G1 X112.090 Y84.160 E2.92604
G1 X112.330 Y84.570 E2.94429
G1 X113.750 Y87.680 E3.07557
G1 X113.900 Y88.120 E3.09342
G1 X114.770 Y91.410 E3.22410
G1 X114.850 Y91.880 E3.24241
G1 X115.150 Y95.500 E3.38189
G1 X115.140 Y144.720 E5.27194
G1 X114.850 Y148.110 E5.40259
G1 X114.770 Y148.580 E5.42090
G1 X113.900 Y151.870 E5.55158
G1 X113.750 Y152.310 E5.56943
G1 X112.340 Y155.410 E5.70020
G1 X112.100 Y155.820 E5.71845
G1 X110.180 Y158.630 E5.84913
G1 X109.890 Y159.000 E5.86719
G1 X107.520 Y161.440 E5.99781
G1 X107.160 Y161.750 E6.01605
G1 X104.410 Y163.750 E6.14662
G1 X104.010 Y163.990 E6.16454
G1 X100.790 Y165.580 E6.30244
G1 X97.250 Y166.630 E6.44423
G1 X96.880 Y166.710 E6.45876
G1 X92.120 Y167.420 E6.64357
G1 X87.630 Y167.650 E6.81621
G1 X82.840 Y167.420 E7.00036
G1 X78.100 Y166.710 E7.18440
G1 X77.740 Y166.630 E7.19857
G1 X74.200 Y165.580 E7.34036
G1 X70.980 Y163.990 E7.47826
G1 X70.580 Y163.750 E7.49617
G1 X67.830 Y161.750 E7.62674
G1 X67.470 Y161.440 E7.64499
G1 X65.100 Y159.000 E7.77561
G1 X64.810 Y158.630 E7.79366
G1 X62.900 Y155.830 E7.92381
G1 X62.660 Y155.420 E7.94205
G1 X61.240 Y152.310 E8.07334
G1 X61.090 Y151.870 E8.09119
G1 X60.220 Y148.580 E8.22187
G1 X60.140 Y148.110 E8.24017
G1 X59.840 Y144.490 E8.37966
G1 X59.850 Y95.270 E10.26971
G1 X60.140 Y91.880 E10.40036
G1 X60.220 Y91.410 E10.41867
G1 X61.090 Y88.120 E10.54935
G1 X61.240 Y87.680 E10.56720
G1 X62.650 Y84.580 E10.69797
G1 X62.890 Y84.170 E10.71621
G1 X64.810 Y81.360 E10.84690
G1 X65.100 Y80.990 E10.86495
G1 X67.429 Y78.592 E10.99330
G1 X67.740 Y78.810 F10800.000
G1 X68.050 Y78.550 F3000.000 E11.00884
G1 X70.800 Y76.550 E11.13941
G1 X71.150 Y76.340 E11.15508
G1 X74.200 Y74.830 E11.28577
G1 X74.270 Y74.790 E11.28887
G1 X74.500 Y74.700 E11.29835
G1 X77.850 Y73.720 E11.43238
G1 X78.160 Y73.650 E11.44459
G1 X82.620 Y72.970 E11.61783
G1 X87.380 Y72.720 E11.80087
G1 X92.370 Y72.970 E11.99272
G1 X96.830 Y73.650 E12.16597
G1 X97.140 Y73.720 E12.17817
G1 X100.590 Y74.730 E12.31621
G1 X100.750 Y74.790 E12.32277
G1 X103.860 Y76.350 E12.45638
G1 X104.190 Y76.550 E12.47120
G1 X106.940 Y78.550 E12.60177
G1 X107.250 Y78.810 E12.61731
G1 X109.620 Y81.250 E12.74793
G1 X109.870 Y81.570 E12.76352
G1 X111.780 Y84.370 E12.89367
G1 X111.980 Y84.720 E12.90915
G1 X113.400 Y87.830 E13.04044
G1 X113.540 Y88.210 E13.05599
G1 X114.410 Y91.500 E13.18667
G1 X114.480 Y91.910 E13.20264
G1 X114.780 Y95.500 E13.34097
G1 X114.770 Y144.690 E15.22987
G1 X114.480 Y148.080 E15.36052
G1 X114.410 Y148.490 E15.37649
G1 X113.540 Y151.780 E15.50717
G1 X113.400 Y152.150 E15.52236
G1 X111.990 Y155.250 E15.65314
G1 X111.790 Y155.610 E15.66895
G1 X109.870 Y158.420 E15.79964
G1 X109.620 Y158.740 E15.81523
G1 X107.250 Y161.180 E15.94585
G1 X106.940 Y161.440 E15.96139
G1 X104.190 Y163.440 E16.09196
G1 X103.840 Y163.650 E16.10764
G1 X100.790 Y165.160 E16.23832
G1 X100.720 Y165.200 E16.24142
G1 X100.490 Y165.290 E16.25090
G1 X97.140 Y166.270 E16.38493
G1 X96.830 Y166.340 E16.39714
G1 X92.340 Y167.020 E16.57152
G1 X87.610 Y167.270 E16.75341
G1 X82.620 Y167.020 E16.94526
G1 X78.160 Y166.340 E17.11851
G1 X77.850 Y166.270 E17.13071
G1 X74.500 Y165.290 E17.26474
G1 X74.270 Y165.200 E17.27422
G1 X74.200 Y165.160 E17.27732
G1 X71.150 Y163.650 E17.40801
G1 X70.800 Y163.440 E17.42368
G1 X68.050 Y161.440 E17.55426
G1 X67.740 Y161.180 E17.56979
G1 X65.370 Y158.740 E17.70041
G1 X65.120 Y158.420 E17.71600
G1 X63.210 Y155.620 E17.84616
G1 X63.010 Y155.270 E17.86164
G1 X61.590 Y152.160 E17.99292
G1 X61.450 Y151.780 E18.00847
G1 X60.580 Y148.490 E18.13915
G1 X60.510 Y148.080 E18.15512
G1 X60.210 Y144.490 E18.29346
G1 X60.220 Y95.300 E20.18236
G1 X60.510 Y91.910 E20.31301
G1 X60.580 Y91.500 E20.32898
G1 X61.450 Y88.210 E20.45966
G1 X61.590 Y87.840 E20.47485
G1 X63.000 Y84.740 E20.60562
G1 X63.200 Y84.380 E20.62144
G1 X65.120 Y81.570 E20.75212
G1 X65.370 Y81.250 E20.76772
G1 X67.699 Y78.852 E20.89607
G1 F1800.000 E19.89607
G92 E0
G1 X81.900 Y83.176 F10800.000
G1 F1800.000 E1.00000
G1 X82.093 Y82.635 F3000.000 E1.02205
G1 X82.339 Y82.116 E1.04411
G1 X82.634 Y81.624 E1.06616
G1 X82.976 Y81.162 E1.08821
G1 X83.362 Y80.737 E1.11027
G1 X83.787 Y80.351 E1.13232
G1 X84.249 Y80.009 E1.15437
G1 X84.741 Y79.714 E1.17642
G1 X85.261 Y79.468 E1.19848
G1 X85.801 Y79.275 E1.22053
G1 X86.358 Y79.135 E1.24258
G1 X86.926 Y79.051 E1.26464
G1 X87.500 Y79.023 E1.28669
G1 X88.074 Y79.051 E1.30874
G1 X88.642 Y79.135 E1.33080
G1 X89.199 Y79.275 E1.35285
G1 X89.740 Y79.468 E1.37490
G1 X90.259 Y79.714 E1.39696
G1 X90.751 Y80.009 E1.41901
G1 X91.213 Y80.351 E1.44106
G1 X91.638 Y80.737 E1.46311
G1 X92.024 Y81.162 E1.48517
G1 X92.366 Y81.624 E1.50722
G1 X92.661 Y82.116 E1.52927
G1 X92.907 Y82.635 E1.55133
G1 X93.100 Y83.176 E1.57338
G1 X93.240 Y83.733 E1.59543
G1 X93.324 Y84.301 E1.61748
G1 X93.352 Y84.875 E1.63954
G1 X93.324 Y85.449 E1.66159
G1 X93.240 Y86.017 E1.68364
G1 X93.100 Y86.574 E1.70570
G1 X92.907 Y87.115 E1.72775
G1 X92.661 Y87.634 E1.74980
G1 X92.366 Y88.126 E1.77186
G1 X92.024 Y88.588 E1.79391
G1 X91.638 Y89.013 E1.81596
G1 X91.213 Y89.399 E1.83801
G1 X90.751 Y89.741 E1.86007
G1 X90.259 Y90.036 E1.88212
G1 X89.739 Y90.282 E1.90418
G1 X89.199 Y90.475 E1.92623
G1 X88.642 Y90.615 E1.94828
G1 X88.074 Y90.699 E1.97033
G1 X87.500 Y90.727 E1.99239
G1 X86.926 Y90.699 E2.01444
G1 X86.358 Y90.615 E2.03649
G1 X85.801 Y90.475 E2.05855
G1 X85.261 Y90.282 E2.08060
G1 X84.741 Y90.036 E2.10265
G1 X84.249 Y89.741 E2.12470
G1 X83.787 Y89.399 E2.14676
G1 X83.362 Y89.013 E2.16881
G1 X82.976 Y88.588 E2.19086
G1 X82.634 Y88.126 E2.21292
G1 X82.339 Y87.634 E2.23497
G1 X82.093 Y87.115 E2.25702
G1 X81.900 Y86.574 E2.27908
G1 X81.760 Y86.017 E2.30113
G1 X81.676 Y85.449 E2.32318
G1 X81.648 Y84.875 E2.34524
G1 X81.676 Y84.301 E2.36729
G1 X81.760 Y83.733 E2.38934
G1 X81.886 Y83.234 E2.40912
G1 X82.261 Y83.286 F10800.000
G1 X82.442 Y82.780 F3000.000 E2.42975
G1 X82.672 Y82.294 E2.45038
G1 X82.948 Y81.833 E2.47101
G1 X83.268 Y81.402 E2.49165
G1 X83.629 Y81.004 E2.51228
G1 X84.027 Y80.643 E2.53291
G1 X84.458 Y80.323 E2.55354
G1 X84.919 Y80.047 E2.57417
G1 X85.405 Y79.817 E2.59480
G1 X85.911 Y79.636 E2.61543
G1 X86.432 Y79.505 E2.63606
G1 X86.963 Y79.427 E2.65669
G1 X87.500 Y79.400 E2.67732
G1 X88.037 Y79.427 E2.69795
G1 X88.568 Y79.505 E2.71858
G1 X89.089 Y79.636 E2.73922
G1 X89.595 Y79.817 E2.75985
G1 X90.081 Y80.047 E2.78048
G1 X90.542 Y80.323 E2.80111
G1 X90.973 Y80.643 E2.82174
G1 X91.371 Y81.004 E2.84237
G1 X91.732 Y81.402 E2.86300
G1 X92.052 Y81.833 E2.88363
G1 X92.328 Y82.294 E2.90426
G1 X92.558 Y82.780 E2.92489
G1 X92.739 Y83.286 E2.94552
G1 X92.870 Y83.807 E2.96616
G1 X92.948 Y84.338 E2.98679
G1 X92.975 Y84.875 E3.00742
G1 X92.948 Y85.412 E3.02805
G1 X92.870 Y85.943 E3.04868
G1 X92.739 Y86.464 E3.06931
G1 X92.558 Y86.970 E3.08994
G1 X92.328 Y87.456 E3.11057
G1 X92.052 Y87.917 E3.13120
G1 X91.732 Y88.348 E3.15183
G1 X91.371 Y88.746 E3.17246
G1 X90.973 Y89.107 E3.19309
G1 X90.542 Y89.427 E3.21373
G1 X90.081 Y89.703 E3.23436
G1 X89.595 Y89.933 E3.25499
G1 X89.089 Y90.114 E3.27562
G1 X88.568 Y90.245 E3.29625
G1 X88.037 Y90.323 E3.31688
G1 X87.500 Y90.350 E3.33751
G1 X86.963 Y90.323 E3.35814
G1 X86.432 Y90.245 E3.37877
G1 X85.911 Y90.114 E3.39940
G1 X85.405 Y89.933 E3.42003
G1 X84.919 Y89.703 E3.44067
G1 X84.458 Y89.427 E3.46129
G1 X84.027 Y89.107 E3.48193
G1 X83.629 Y88.746 E3.50256
G1 X83.268 Y88.348 E3.52319
G1 X82.948 Y87.917 E3.54382
G1 X82.672 Y87.456 E3.56445
G1 X82.442 Y86.970 E3.58508
G1 X82.261 Y86.464 E3.60571
G1 X82.130 Y85.943 E3.62634
G1 X82.052 Y85.412 E3.64697
G1 X82.025 Y84.875 E3.66760
G1 X82.052 Y84.338 E3.68823
G1 X82.130 Y83.807 E3.70887
G1 X82.247 Y83.343 E3.72722
G1 X82.622 Y83.395 F10800.000
G1 X82.791 Y82.924 F3000.000 E3.74643
G1 X83.005 Y82.472 E3.76564
G1 X83.262 Y82.043 E3.78485
G1 X83.560 Y81.641 E3.80406
G1 X83.896 Y81.271 E3.82327
G1 X84.266 Y80.935 E3.84248
G1 X84.668 Y80.637 E3.86169
G1 X85.097 Y80.380 E3.88089
G1 X85.549 Y80.166 E3.90010
G1 X86.020 Y79.997 E3.91931
G1 X86.506 Y79.876 E3.93852
G1 X87.000 Y79.802 E3.95773
G1 X87.500 Y79.778 E3.97694
G1 X88.000 Y79.802 E3.99615
G1 X88.494 Y79.876 E4.01535
G1 X88.980 Y79.997 E4.03456
G1 X89.451 Y80.166 E4.05377
G1 X89.903 Y80.380 E4.07298
G1 X90.332 Y80.637 E4.09219
G1 X90.734 Y80.935 E4.11140
G1 X91.104 Y81.271 E4.13061
G1 X91.440 Y81.641 E4.14982
G1 X91.738 Y82.043 E4.16902
G1 X91.995 Y82.472 E4.18823
G1 X92.209 Y82.924 E4.20744
G1 X92.378 Y83.395 E4.22665
G1 X92.499 Y83.881 E4.24586
G1 X92.573 Y84.375 E4.26507
G1 X92.597 Y84.875 E4.28428
G1 X92.573 Y85.375 E4.30348
G1 X92.499 Y85.869 E4.32269
G1 X92.378 Y86.355 E4.34190
G1 X92.209 Y86.826 E4.36111
G1 X91.995 Y87.278 E4.38032
G1 X91.738 Y87.707 E4.39953
G1 X91.440 Y88.109 E4.41874
G1 X91.104 Y88.479 E4.43794
G1 X90.734 Y88.815 E4.45715
G1 X90.332 Y89.113 E4.47636
G1 X89.903 Y89.370 E4.49557
G1 X89.451 Y89.584 E4.51478
G1 X88.980 Y89.753 E4.53399
G1 X88.494 Y89.874 E4.55320
G1 X88.000 Y89.948 E4.57241
G1 X87.500 Y89.972 E4.59161
G1 X87.000 Y89.948 E4.61082
G1 X86.506 Y89.874 E4.63003
G1 X86.020 Y89.753 E4.64924
G1 X85.549 Y89.584 E4.66845
G1 X85.097 Y89.370 E4.68766
G1 X84.668 Y89.113 E4.70687
G1 X84.266 Y88.815 E4.72607
G1 X83.896 Y88.479 E4.74528
G1 X83.560 Y88.109 E4.76449
G1 X83.262 Y87.707 E4.78370
G1 X83.005 Y87.278 E4.80291
G1 X82.791 Y86.826 E4.82212
G1 X82.622 Y86.355 E4.84133
G1 X82.501 Y85.869 E4.86054
G1 X82.427 Y85.375 E4.87974
G1 X82.403 Y84.875 E4.89895
G1 X82.427 Y84.375 E4.91816
G1 X82.501 Y83.881 E4.93737
G1 X82.608 Y83.453 E4.95431
G1 F1800.000 E3.95431
G92 E0
G1 X86.926 Y149.301 F10800.000
G1 F1800.000 E1.00000
G1 X87.500 Y149.273 F3000.000 E1.02205
G1 X88.074 Y149.301 E1.04411
G1 X88.642 Y149.385 E1.06616
G1 X89.199 Y149.525 E1.08821
G1 X89.739 Y149.718 E1.11026
G1 X90.259 Y149.964 E1.13232
G1 X90.751 Y150.259 E1.15437
G1 X91.213 Y150.601 E1.17642
G1 X91.638 Y150.987 E1.19848
G1 X92.024 Y151.412 E1.22053
G1 X92.366 Y151.874 E1.24258
G1 X92.661 Y152.366 E1.26464
G1 X92.907 Y152.885 E1.28669
G1 X93.100 Y153.426 E1.30874
G1 X93.240 Y153.983 E1.33080
G1 X93.324 Y154.551 E1.35285
G1 X93.352 Y155.125 E1.37490
G1 X93.324 Y155.699 E1.39696
G1 X93.240 Y156.267 E1.41901
G1 X93.100 Y156.824 E1.44106
G1 X92.907 Y157.365 E1.46311
G1 X92.661 Y157.884 E1.48517
G1 X92.366 Y158.376 E1.50722
G1 X92.024 Y158.838 E1.52927
G1 X91.638 Y159.263 E1.55133
G1 X91.213 Y159.649 E1.57338
G1 X90.751 Y159.991 E1.59543
G1 X90.259 Y160.286 E1.61749
G1 X89.739 Y160.532 E1.63954
G1 X89.199 Y160.725 E1.66159
G1 X88.642 Y160.865 E1.68364
G1 X88.074 Y160.949 E1.70570
G1 X87.500 Y160.977 E1.72775
G1 X86.926 Y160.949 E1.74980
G1 X86.358 Y160.865 E1.77186
G1 X85.801 Y160.725 E1.79391
G1 X85.261 Y160.532 E1.81596
G1 X84.741 Y160.286 E1.83802
G1 X84.249 Y159.991 E1.86007
G1 X83.787 Y159.649 E1.88212
G1 X83.362 Y159.263 E1.90417
G1 X82.976 Y158.838 E1.92623
G1 X82.634 Y158.376 E1.94828
G1 X82.339 Y157.884 E1.97033
G1 X82.093 Y157.364 E1.99239
G1 X81.900 Y156.824 E2.01444
G1 X81.760 Y156.267 E2.03649
G1 X81.676 Y155.699 E2.05855
G1 X81.648 Y155.125 E2.08060
G1 X81.676 Y154.551 E2.10265
G1 X81.760 Y153.983 E2.12470
G1 X81.900 Y153.426 E2.14676
G1 X82.093 Y152.885 E2.16881
G1 X82.339 Y152.366 E2.19086
G1 X82.634 Y151.874 E2.21292
G1 X82.976 Y151.412 E2.23497
G1 X83.362 Y150.987 E2.25702
G1 X83.787 Y150.601 E2.27908
G1 X84.249 Y150.259 E2.30113
G1 X84.741 Y149.964 E2.32318
G1 X85.261 Y149.718 E2.34524
G1 X85.801 Y149.525 E2.36729
G1 X86.358 Y149.385 E2.38934
G1 X86.868 Y149.310 E2.40912
G1 X86.963 Y149.677 F10800.000
G1 X87.500 Y149.650 F3000.000 E2.42975
G1 X88.037 Y149.677 E2.45038
G1 X88.568 Y149.755 E2.47102
G1 X89.089 Y149.886 E2.49165
G1 X89.595 Y150.067 E2.51228
G1 X90.081 Y150.297 E2.53291
G1 X90.542 Y150.573 E2.55354
G1 X90.973 Y150.893 E2.57417
G1 X91.371 Y151.254 E2.59480
G1 X91.732 Y151.652 E2.61543
G1 X92.052 Y152.083 E2.63606
G1 X92.328 Y152.544 E2.65669
G1 X92.558 Y153.030 E2.67732
G1 X92.739 Y153.536 E2.69796
G1 X92.870 Y154.057 E2.71859
G1 X92.948 Y154.588 E2.73922
G1 X92.975 Y155.125 E2.75985
G1 X92.948 Y155.662 E2.78048
G1 X92.870 Y156.193 E2.80111
G1 X92.739 Y156.714 E2.82174
G1 X92.558 Y157.220 E2.84237
G1 X92.328 Y157.706 E2.86300
G1 X92.052 Y158.167 E2.88363
G1 X91.732 Y158.598 E2.90426
G1 X91.371 Y158.996 E2.92489
G1 X90.973 Y159.357 E2.94552
G1 X90.542 Y159.677 E2.96616
G1 X90.081 Y159.953 E2.98679
G1 X89.595 Y160.183 E3.00742
G1 X89.089 Y160.364 E3.02805
G1 X88.568 Y160.495 E3.04868
G1 X88.037 Y160.573 E3.06931
G1 X87.500 Y160.600 E3.08994
G1 X86.963 Y160.573 E3.11057
G1 X86.432 Y160.495 E3.13120
G1 X85.911 Y160.364 E3.15183
G1 X85.405 Y160.183 E3.17246
G1 X84.919 Y159.953 E3.19309
G1 X84.458 Y159.677 E3.21372
G1 X84.027 Y159.357 E3.23436
G1 X83.629 Y158.996 E3.25499
G1 X83.268 Y158.598 E3.27562
G1 X82.948 Y158.167 E3.29625
G1 X82.672 Y157.706 E3.31688
G1 X82.442 Y157.220 E3.33751
G1 X82.261 Y156.714 E3.35814
G1 X82.130 Y156.193 E3.37877
G1 X82.052 Y155.662 E3.39940
G1 X82.025 Y155.125 E3.42003
G1 X82.052 Y154.588 E3.44066
G1 X82.130 Y154.057 E3.46129
G1 X82.261 Y153.536 E3.48193
G1 X82.442 Y153.030 E3.50256
G1 X82.672 Y152.544 E3.52319
G1 X82.948 Y152.083 E3.54382
G1 X83.268 Y151.652 E3.56445
G1 X83.629 Y151.254 E3.58508
G1 X84.027 Y150.893 E3.60571
G1 X84.458 Y150.573 E3.62634
G1 X84.919 Y150.297 E3.64697
G1 X85.405 Y150.067 E3.66760
G1 X85.911 Y149.886 E3.68824
G1 X86.432 Y149.755 E3.70887
G1 X86.905 Y149.685 E3.72722
G1 X87.000 Y150.052 F10800.000
G1 X87.500 Y150.028 F3000.000 E3.74643
G1 X88.000 Y150.052 E3.76564
G1 X88.494 Y150.126 E3.78485
G1 X88.980 Y150.247 E3.80406
G1 X89.451 Y150.416 E3.82327
G1 X89.903 Y150.630 E3.84248
G1 X90.332 Y150.887 E3.86168
G1 X90.734 Y151.185 E3.88089
G1 X91.104 Y151.521 E3.90010
G1 X91.440 Y151.891 E3.91931
G1 X91.738 Y152.293 E3.93852
G1 X91.995 Y152.722 E3.95773
G1 X92.209 Y153.174 E3.97694
G1 X92.378 Y153.645 E3.99615
G1 X92.499 Y154.131 E4.01535
G1 X92.573 Y154.625 E4.03456
G1 X92.597 Y155.125 E4.05377
G1 X92.573 Y155.625 E4.07298
G1 X92.499 Y156.119 E4.09219
G1 X92.378 Y156.605 E4.11140
G1 X92.209 Y157.076 E4.13061
G1 X91.995 Y157.528 E4.14982
G1 X91.738 Y157.957 E4.16902
G1 X91.440 Y158.359 E4.18823
G1 X91.104 Y158.729 E4.20744
G1 X90.734 Y159.065 E4.22665
G1 X90.332 Y159.363 E4.24586
G1 X89.903 Y159.620 E4.26507
G1 X89.451 Y159.834 E4.28428
G1 X88.980 Y160.003 E4.30349
G1 X88.494 Y160.124 E4.32269
G1 X88.000 Y160.198 E4.34190
G1 X87.500 Y160.222 E4.36111
G1 X87.000 Y160.198 E4.38032
G1 X86.506 Y160.124 E4.39953
G1 X86.020 Y160.003 E4.41874
G1 X85.549 Y159.834 E4.43794
G1 X85.097 Y159.620 E4.45715
G1 X84.668 Y159.363 E4.47636
G1 X84.266 Y159.065 E4.49557
G1 X83.896 Y158.729 E4.51478
G1 X83.560 Y158.359 E4.53399
G1 X83.262 Y157.957 E4.55320
G1 X83.005 Y157.528 E4.57240
G1 X82.791 Y157.076 E4.59161
G1 X82.622 Y156.605 E4.61082
G1 X82.501 Y156.119 E4.63003
G1 X82.427 Y155.625 E4.64924
G1 X82.403 Y155.125 E4.66845
G1 X82.427 Y154.625 E4.68766
