; generated by Slic3r 0.8.3 on 2012-06-15 at 21:02:23

; layer_height = 0.25
; perimeters = 3
; solid_layers = 3
; fill_density = .2
; nozzle_diameter = .35
; filament_diameter = 1.75
; extrusion_multiplier = 1
; perimeter_speed = 100
; infill_speed = 120
; travel_speed = 180
; scale = 1
; single wall width = 0.39mm

M190 S110 ; wait for bed temperature to be reached
M104 S220 ; set temperature
M104 S220 ;start extruder
G28 ; home all axes
M109 S220 ; wait for temperature to be reached
G90 ; use absolute coordinates
G21 ; set units to millimeters
G92 E0 ; reset extrusion distance
M82 ; use absolute distances for extrusion
G1 Z0.250 F10800.000
G1 X79.030 Y103.480
G1 F1800.000 E1.00000
G1 X80.740 Y101.890 F0.000 E1.09340
G1 X82.580 Y100.490 E1.18588
G1 X84.580 Y99.260 E1.27980
G1 X86.600 Y98.260 E1.36996
G1 X88.840 Y97.430 E1.46551
G1 X91.050 Y96.840 E1.55701
G1 X93.960 Y96.410 E1.67467
G1 X95.650 Y96.320 E1.74237
G1 X96.330 Y96.320 E1.76957
G1 X98.030 Y96.410 E1.83766
G1 X100.270 Y96.710 E1.92806
G1 X100.940 Y96.840 E1.95536
G1 X103.160 Y97.430 E2.04725
G1 X105.370 Y98.250 E2.14153
G1 X106.900 Y98.980 E2.20934
G1 X108.870 Y100.130 E2.30059
G1 X110.770 Y101.500 E2.39428
G1 X111.250 Y101.890 E2.41902
G1 X112.960 Y103.480 E2.51242
G1 X114.100 Y104.740 E2.58039
G1 X115.500 Y106.580 E2.67287
G1 X117.010 Y109.090 E2.79004
G1 X117.740 Y110.620 E2.85785
G1 X118.560 Y112.830 E2.95214
G1 X119.150 Y115.050 E3.04402
G1 X119.580 Y117.960 E3.16168
G1 X119.670 Y119.650 E3.22938
G1 X119.670 Y120.330 E3.25658
G1 X119.580 Y122.030 E3.32468
G1 X119.280 Y124.270 E3.41508
G1 X119.150 Y124.940 E3.44238
G1 X118.560 Y127.160 E3.53426
G1 X117.740 Y129.370 E3.62855
G1 X117.010 Y130.900 E3.69636
G1 X115.860 Y132.870 E3.78760
G1 X114.490 Y134.770 E3.88130
G1 X114.100 Y135.250 E3.90603
G1 X112.510 Y136.960 E3.99943
G1 X111.250 Y138.100 E4.06740
G1 X109.410 Y139.500 E4.15988
G1 X106.900 Y141.010 E4.27705
G1 X105.370 Y141.740 E4.34486
G1 X103.160 Y142.560 E4.43915
G1 X100.940 Y143.150 E4.53103
G1 X98.030 Y143.580 E4.64870
G1 X96.330 Y143.670 E4.71679
G1 X95.650 Y143.670 E4.74399
G1 X93.960 Y143.580 E4.81169
G1 X91.720 Y143.280 E4.90209
G1 X91.050 Y143.150 E4.92939
G1 X88.830 Y142.560 E5.02127
G1 X86.620 Y141.740 E5.11556
G1 X85.090 Y141.010 E5.18337
G1 X83.120 Y139.860 E5.27461
G1 X81.220 Y138.490 E5.36831
G1 X80.740 Y138.100 E5.39305
G1 X79.030 Y136.510 E5.48645
G1 X77.890 Y135.250 E5.55441
G1 X76.490 Y133.410 E5.64690
G1 X74.980 Y130.900 E5.76406
G1 X74.250 Y129.370 E5.83187
G1 X73.430 Y127.160 E5.92616
G1 X72.840 Y124.940 E6.01804
G1 X72.410 Y122.030 E6.13571
G1 X72.320 Y120.330 E6.20380
G1 X72.320 Y119.650 E6.23100
G1 X72.410 Y117.960 E6.29870
G1 X72.710 Y115.720 E6.38910
G1 X72.840 Y115.050 E6.41640
G1 X73.430 Y112.830 E6.50828
G1 X74.250 Y110.620 E6.60257
G1 X74.980 Y109.090 E6.67038
G1 X76.130 Y107.120 E6.76162
G1 X77.500 Y105.220 E6.85532
G1 X77.890 Y104.740 E6.88006
G1 X78.990 Y103.524 E6.94566
G1 X79.310 Y103.730 F10800.000
G1 X80.990 Y102.170 F0.000 E7.03736
G1 X82.800 Y100.790 E7.12841
G1 X85.240 Y99.330 E7.24214
G1 X86.760 Y98.600 E7.30959
G1 X87.360 Y98.350 E7.33559
G1 X88.970 Y97.780 E7.40391
G1 X91.140 Y97.210 E7.49365
G1 X91.770 Y97.080 E7.51938
G1 X93.980 Y96.790 E7.60854
G1 X95.670 Y96.700 E7.67624
G1 X96.310 Y96.700 E7.70184
G1 X98.540 Y96.840 E7.79121
G1 X100.220 Y97.080 E7.85910
G1 X102.500 Y97.630 E7.95291
G1 X104.630 Y98.360 E8.04298
G1 X105.200 Y98.590 E8.06756
G1 X106.730 Y99.320 E8.13537
G1 X109.190 Y100.790 E8.25000
G1 X111.000 Y102.170 E8.34105
G1 X112.680 Y103.730 E8.43275
G1 X114.190 Y105.440 E8.52400
G1 X115.200 Y106.800 E8.59176
G1 X116.670 Y109.260 E8.70639
G1 X117.400 Y110.790 E8.77420
G1 X118.200 Y112.960 E8.86671
G1 X118.780 Y115.140 E8.95694
G1 X118.910 Y115.770 E8.98267
G1 X119.200 Y117.980 E9.07183
G1 X119.290 Y119.670 E9.13953
G1 X119.290 Y120.310 E9.16513
G1 X119.150 Y122.540 E9.25450
G1 X118.910 Y124.220 E9.32239
G1 X118.360 Y126.500 E9.41620
G1 X117.630 Y128.630 E9.50627
G1 X117.400 Y129.200 E9.53085
G1 X116.670 Y130.730 E9.59866
G1 X115.200 Y133.190 E9.71329
G1 X113.820 Y135.000 E9.80434
G1 X112.260 Y136.680 E9.89604
G1 X110.550 Y138.190 E9.98729
G1 X109.190 Y139.200 E10.05505
G1 X106.730 Y140.670 E10.16968
G1 X105.200 Y141.400 E10.23749
G1 X103.030 Y142.200 E10.33000
G1 X100.850 Y142.780 E10.42023
G1 X100.220 Y142.910 E10.44596
G1 X98.010 Y143.200 E10.53512
G1 X96.310 Y143.290 E10.60322
G1 X95.670 Y143.290 E10.62882
G1 X93.450 Y143.150 E10.71779
G1 X91.770 Y142.910 E10.78568
G1 X89.490 Y142.360 E10.87949
G1 X87.360 Y141.630 E10.96956
G1 X86.790 Y141.400 E10.99414
G1 X85.260 Y140.670 E11.06195
G1 X82.800 Y139.200 E11.17658
G1 X80.990 Y137.820 E11.26763
G1 X79.310 Y136.260 E11.35933
G1 X77.800 Y134.550 E11.45058
G1 X76.790 Y133.190 E11.51834
G1 X75.320 Y130.730 E11.63297
G1 X74.590 Y129.200 E11.70078
G1 X73.790 Y127.030 E11.79329
G1 X73.210 Y124.850 E11.88352
G1 X73.080 Y124.220 E11.90925
G1 X72.790 Y122.010 E11.99841
G1 X72.700 Y120.310 E12.06651
G1 X72.700 Y119.670 E12.09211
G1 X72.840 Y117.450 E12.18108
G1 X73.080 Y115.770 E12.24897
G1 X73.630 Y113.490 E12.34278
G1 X74.360 Y111.360 E12.43285
G1 X74.590 Y110.790 E12.45743
G1 X75.320 Y109.260 E12.52524
G1 X76.790 Y106.800 E12.63987
G1 X78.170 Y104.990 E12.73092
G1 X79.270 Y103.774 E12.79652
G1 F1800.000 E11.79652
G92 E0
G1 X86.049 Y110.049 F10800.000
G1 F1800.000 E1.00000
G1 X105.951 Y110.049 F0.000 E1.79609
G1 X105.951 Y129.951 E2.59217
G1 X86.049 Y129.951 E3.38826
G1 X86.049 Y110.108 E4.18198
G1 X86.426 Y110.426 F10800.000
G1 X105.574 Y110.426 F0.000 E4.94791
G1 X105.574 Y129.574 E5.71384
G1 X86.426 Y129.574 E6.47977
G1 X86.426 Y110.485 E7.24333
G1 X86.803 Y110.803 F10800.000
G1 X105.197 Y110.803 F0.000 E7.97910
G1 X105.197 Y129.197 E8.71488
G1 X86.803 Y129.197 E9.45065
G1 X86.803 Y110.862 E10.18406
G1 F1800.000 E9.18406
G92 E0
G1 X102.333 Y135.288 F10800.000
G1 F1800.000 E1.00000
G1 X100.804 Y135.835 F0.000 E1.06496
G1 X99.228 Y136.230 E1.12991
G1 X97.622 Y136.468 E1.19487
G1 X96.000 Y136.548 E1.25983
G1 X94.378 Y136.468 E1.32478
G1 X92.772 Y136.230 E1.38974
G1 X91.196 Y135.835 E1.45470
G1 X89.667 Y135.288 E1.51966
G1 X88.199 Y134.594 E1.58461
G1 X86.807 Y133.759 E1.64957
G1 X85.502 Y132.792 E1.71453
G1 X84.299 Y131.701 E1.77948
G1 X83.208 Y130.498 E1.84444
G1 X82.241 Y129.193 E1.90940
G1 X81.406 Y127.801 E1.97435
G1 X80.712 Y126.333 E2.03931
G1 X80.165 Y124.804 E2.10427
G1 X79.770 Y123.228 E2.16922
G1 X79.532 Y121.622 E2.23418
G1 X79.452 Y120.000 E2.29914
G1 X79.532 Y118.378 E2.36409
G1 X79.770 Y116.772 E2.42905
G1 X80.165 Y115.196 E2.49401
G1 X80.712 Y113.667 E2.55897
G1 X81.406 Y112.199 E2.62392
G1 X82.241 Y110.807 E2.68888
G1 X83.208 Y109.502 E2.75384
G1 X84.299 Y108.299 E2.81879
G1 X85.502 Y107.208 E2.88375
G1 X86.807 Y106.241 E2.94871
G1 X88.199 Y105.406 E3.01366
G1 X89.658 Y104.716 E3.07820
G1 X91.197 Y104.165 E3.14359
G1 X92.772 Y103.770 E3.20853
G1 X94.378 Y103.532 E3.27349
G1 X96.000 Y103.452 E3.33845
G1 X97.622 Y103.532 E3.40340
G1 X99.228 Y103.770 E3.46836
G1 X100.804 Y104.165 E3.53332
G1 X102.333 Y104.712 E3.59827
G1 X103.801 Y105.406 E3.66323
G1 X105.193 Y106.241 E3.72819
G1 X106.498 Y107.208 E3.79314
G1 X107.701 Y108.299 E3.85810
G1 X108.792 Y109.502 E3.92306
G1 X109.759 Y110.807 E3.98802
G1 X110.594 Y112.199 E4.05297
G1 X111.288 Y113.667 E4.11793
G1 X111.835 Y115.196 E4.18289
G1 X112.230 Y116.772 E4.24784
G1 X112.468 Y118.378 E4.31280
G1 X112.548 Y120.000 E4.37776
G1 X112.468 Y121.622 E4.44271
G1 X112.230 Y123.228 E4.50767
G1 X111.835 Y124.804 E4.57263
G1 X111.288 Y126.333 E4.63758
G1 X110.594 Y127.801 E4.70254
G1 X109.759 Y129.193 E4.76750
G1 X108.792 Y130.498 E4.83245
G1 X107.701 Y131.701 E4.89741
G1 X106.498 Y132.792 E4.96237
G1 X105.193 Y133.759 E5.02733
G1 X103.801 Y134.594 E5.09228
G1 X102.386 Y135.263 E5.15487
G1 X102.477 Y135.637 F10800.000
G1 X100.913 Y136.196 F0.000 E5.22131
G1 X99.302 Y136.600 E5.28775
G1 X97.659 Y136.844 E5.35419
G1 X96.000 Y136.925 E5.42063
G1 X94.341 Y136.844 E5.48706
G1 X92.698 Y136.600 E5.55350
G1 X91.087 Y136.196 E5.61994
G1 X89.523 Y135.637 E5.68638
G1 X88.022 Y134.927 E5.75282
G1 X86.597 Y134.073 E5.81926
G1 X85.263 Y133.083 E5.88569
G1 X84.032 Y131.968 E5.95213
G1 X82.917 Y130.737 E6.01857
G1 X81.927 Y129.403 E6.08501
G1 X81.073 Y127.978 E6.15145
G1 X80.363 Y126.477 E6.21789
G1 X79.804 Y124.913 E6.28432
G1 X79.400 Y123.302 E6.35076
G1 X79.156 Y121.659 E6.41720
G1 X79.075 Y120.000 E6.48364
G1 X79.156 Y118.341 E6.55008
G1 X79.400 Y116.698 E6.61652
G1 X79.804 Y115.087 E6.68295
G1 X80.363 Y113.523 E6.74939
G1 X81.073 Y112.022 E6.81583
G1 X81.927 Y110.597 E6.88227
G1 X82.917 Y109.263 E6.94871
G1 X84.032 Y108.032 E7.01515
G1 X85.263 Y106.917 E7.08158
G1 X86.597 Y105.927 E7.14802
G1 X88.022 Y105.073 E7.21446
G1 X89.513 Y104.368 E7.28048
G1 X91.087 Y103.804 E7.34734
G1 X92.698 Y103.400 E7.41377
G1 X94.341 Y103.156 E7.48021
G1 X96.000 Y103.075 E7.54665
G1 X97.659 Y103.156 E7.61309
G1 X99.302 Y103.400 E7.67953
G1 X100.913 Y103.804 E7.74597
G1 X102.477 Y104.363 E7.81240
G1 X103.978 Y105.073 E7.87884
G1 X105.403 Y105.927 E7.94528
G1 X106.737 Y106.917 E8.01172
G1 X107.968 Y108.032 E8.07816
G1 X109.083 Y109.263 E8.14460
G1 X110.073 Y110.597 E8.21103
G1 X110.927 Y112.022 E8.27747
G1 X111.637 Y113.523 E8.34391
G1 X112.196 Y115.087 E8.41035
G1 X112.600 Y116.698 E8.47679
G1 X112.844 Y118.341 E8.54323
G1 X112.925 Y120.000 E8.60966
G1 X112.844 Y121.659 E8.67610
G1 X112.600 Y123.302 E8.74254
G1 X112.196 Y124.913 E8.80898
G1 X111.637 Y126.477 E8.87542
G1 X110.927 Y127.978 E8.94186
G1 X110.073 Y129.403 E9.00829
G1 X109.083 Y130.737 E9.07473
G1 X107.968 Y131.968 E9.14117
G1 X106.737 Y133.083 E9.20761
G1 X105.403 Y134.073 E9.27405
G1 X103.978 Y134.927 E9.34049
G1 X102.530 Y135.612 E9.40456
G1 X102.621 Y135.985 F10800.000
G1 X101.023 Y136.558 F0.000 E9.47248
G1 X99.376 Y136.970 E9.54040
G1 X97.696 Y137.219 E9.60832
G1 X96.000 Y137.303 E9.67624
G1 X94.304 Y137.219 E9.74416
G1 X92.624 Y136.970 E9.81208
G1 X90.977 Y136.558 E9.88000
G1 X89.379 Y135.985 E9.94792
G1 X87.844 Y135.260 E10.01584
G1 X86.387 Y134.387 E10.08376
G1 X85.023 Y133.375 E10.15168
G1 X83.765 Y132.235 E10.21960
G1 X82.625 Y130.977 E10.28752
G1 X81.613 Y129.613 E10.35544
G1 X80.740 Y128.156 E10.42335
G1 X80.015 Y126.621 E10.49127
G1 X79.442 Y125.023 E10.55919
G1 X79.030 Y123.376 E10.62711
G1 X78.781 Y121.696 E10.69503
G1 X78.697 Y120.000 E10.76295
G1 X78.781 Y118.304 E10.83087
G1 X79.030 Y116.624 E10.89879
G1 X79.442 Y114.977 E10.96671
G1 X80.015 Y113.379 E11.03463
G1 X80.740 Y111.844 E11.10255
G1 X81.613 Y110.387 E11.17047
G1 X82.625 Y109.023 E11.23839
G1 X83.765 Y107.765 E11.30631
G1 X85.023 Y106.625 E11.37423
G1 X86.387 Y105.613 E11.44215
G1 X87.844 Y104.740 E11.51007
G1 X89.369 Y104.019 E11.57756
G1 X90.977 Y103.442 E11.64591
G1 X92.624 Y103.030 E11.71383
G1 X94.304 Y102.781 E11.78175
G1 X96.000 Y102.697 E11.84967
G1 X97.696 Y102.781 E11.91759
G1 X99.376 Y103.030 E11.98551
G1 X101.023 Y103.442 E12.05343
G1 X102.621 Y104.015 E12.12135
G1 X104.156 Y104.740 E12.18927
G1 X105.613 Y105.613 E12.25719
G1 X106.977 Y106.625 E12.32511
G1 X108.235 Y107.765 E12.39303
G1 X109.375 Y109.023 E12.46095
G1 X110.387 Y110.387 E12.52887
G1 X111.260 Y111.844 E12.59679
G1 X111.985 Y113.379 E12.66471
G1 X112.558 Y114.977 E12.73263
G1 X112.970 Y116.624 E12.80055
G1 X113.219 Y118.304 E12.86847
G1 X113.303 Y120.000 E12.93638
G1 X113.219 Y121.696 E13.00430
G1 X112.970 Y123.376 E13.07222
G1 X112.558 Y125.023 E13.14014
G1 X111.985 Y126.621 E13.20806
G1 X111.260 Y128.156 E13.27598
G1 X110.387 Y129.613 E13.34390
G1 X109.375 Y130.977 E13.41182
G1 X108.235 Y132.235 E13.47974
G1 X106.977 Y133.375 E13.54766
G1 X105.613 Y134.387 E13.61558
G1 X104.156 Y135.260 E13.68350
G1 X102.675 Y135.960 E13.74906
G1 X102.206 Y135.085 F10800.000
G1 X97.338 Y130.216 F0.000 E14.02444
G1 X97.876 Y130.216 F10800.000
G1 X102.579 Y134.919 F0.000 E14.29047
G1 X102.944 Y134.746 F10800.000
G1 X98.414 Y130.216 F0.000 E14.54672
G1 X98.952 Y130.216 F10800.000
G1 X103.309 Y134.574 F0.000 E14.79321
G1 X103.675 Y134.401 F10800.000
G1 X99.490 Y130.216 F0.000 E15.02991
G1 X100.028 Y130.216 F10800.000
G1 X104.016 Y134.204 F0.000 E15.25548
G1 X104.352 Y134.002 F10800.000
G1 X100.567 Y130.216 F0.000 E15.46964
G1 X101.105 Y130.216 F10800.000
G1 X104.689 Y133.801 F0.000 E15.67239
G1 X105.025 Y133.599 F10800.000
G1 X101.643 Y130.216 F0.000 E15.86374
G1 X102.181 Y130.216 F10800.000
G1 X105.340 Y133.375 F0.000 E16.04245
G1 X105.649 Y133.146 F10800.000
G1 X102.719 Y130.216 F0.000 E16.20820
G1 X103.257 Y130.216 F10800.000
G1 X105.958 Y132.917 F0.000 E16.36098
G1 X106.267 Y132.688 F10800.000
G1 X103.795 Y130.216 F0.000 E16.50080
G1 X104.333 Y130.216 F10800.000
G1 X106.558 Y132.441 F0.000 E16.62665
G1 X106.840 Y132.185 F10800.000
G1 X104.871 Y130.216 F0.000 E16.73804
G1 X105.409 Y130.216 F10800.000
G1 X107.122 Y131.930 F0.000 E16.83495
G1 X107.405 Y131.674 F10800.000
G1 X105.947 Y130.216 F0.000 E16.91739
G1 X106.216 Y129.947 F10800.000
G1 X107.674 Y131.405 F0.000 E16.99983
G1 X107.930 Y131.122 F10800.000
G1 X106.216 Y129.409 F0.000 E17.09674
G1 X106.216 Y128.871 F10800.000
G1 X108.185 Y130.840 F0.000 E17.20813
G1 X108.441 Y130.558 F10800.000
G1 X106.216 Y128.333 F0.000 E17.33398
G1 X106.216 Y127.795 F10800.000
G1 X108.688 Y130.267 F0.000 E17.47381
G1 X108.917 Y129.958 F10800.000
G1 X106.216 Y127.257 F0.000 E17.62659
G1 X106.216 Y126.719 F10800.000
G1 X109.146 Y129.649 F0.000 E17.79234
G1 X109.375 Y129.340 F10800.000
G1 X106.216 Y126.181 F0.000 E17.97104
G1 X106.216 Y125.643 F10800.000
G1 X109.599 Y129.025 F0.000 E18.16239
G1 X109.801 Y128.689 F10800.000
G1 X106.216 Y125.105 F0.000 E18.36515
G1 X106.216 Y124.566 F10800.000
G1 X110.002 Y128.352 F0.000 E18.57931
G1 X110.204 Y128.016 F10800.000
G1 X106.216 Y124.028 F0.000 E18.80488
G1 X106.216 Y123.490 F10800.000
G1 X110.401 Y127.675 F0.000 E19.04158
G1 X110.574 Y127.309 F10800.000
G1 X106.216 Y122.952 F0.000 E19.28806
G1 X106.216 Y122.414 F10800.000
G1 X110.746 Y126.944 F0.000 E19.54432
G1 X110.919 Y126.579 F10800.000
G1 X106.216 Y121.876 F0.000 E19.81035
G1 X106.216 Y121.338 F10800.000
G1 X111.085 Y126.206 F0.000 E20.08574
G1 X111.226 Y125.810 F10800.000
G1 X106.216 Y120.800 F0.000 E20.36915
G1 X106.216 Y120.262 F10800.000
G1 X111.368 Y125.414 F0.000 E20.66058
G1 X111.510 Y125.017 F10800.000
G1 X106.216 Y119.724 F0.000 E20.96003
G1 X106.216 Y119.186 F10800.000
G1 X111.636 Y124.605 F0.000 E21.26661
G1 X111.744 Y124.175 F10800.000
G1 X106.216 Y118.648 F0.000 E21.57929
G1 X106.216 Y118.110 F10800.000
G1 X111.851 Y123.745 F0.000 E21.89806
G1 X111.959 Y123.314 F10800.000
G1 X106.216 Y117.571 F0.000 E22.22293
G1 X106.216 Y117.033 F10800.000
G1 X112.033 Y122.850 F0.000 E22.55197
G1 X112.103 Y122.381 F10800.000
G1 X106.216 Y116.495 F0.000 E22.88495
G1 X106.216 Y115.957 F10800.000
G1 X112.172 Y121.913 F0.000 E23.22186
G1 X112.218 Y121.420 F10800.000
G1 X106.216 Y115.419 F0.000 E23.56134
G1 X106.216 Y114.881 F10800.000
G1 X112.243 Y120.908 F0.000 E23.90226
G1 X112.268 Y120.395 F10800.000
G1 X106.216 Y114.343 F0.000 E24.24460
G1 X106.216 Y113.805 F10800.000
G1 X112.270 Y119.858 F0.000 E24.58702
G1 X112.242 Y119.292 F10800.000
G1 X106.216 Y113.267 F0.000 E24.92787
G1 X106.216 Y112.729 F10800.000
G1 X112.214 Y118.726 F0.000 E25.26715
G1 X112.144 Y118.118 F10800.000
G1 X106.216 Y112.191 F0.000 E25.60244
G1 X106.216 Y111.653 F10800.000
G1 X112.050 Y117.486 F0.000 E25.93243
G1 X111.942 Y116.840 F10800.000
G1 X106.216 Y111.114 F0.000 E26.25633
G1 X106.216 Y110.576 F10800.000
G1 X111.762 Y116.122 F0.000 E26.57006
G1 X111.580 Y115.402 F10800.000
G1 X106.216 Y110.038 F0.000 E26.87349
G1 X105.962 Y109.784 F10800.000
G1 X100.598 Y104.420 F0.000 E27.17692
G1 X99.878 Y104.238 F10800.000
G1 X105.424 Y109.784 F0.000 E27.49065
G1 X104.886 Y109.784 F10800.000
G1 X99.160 Y104.058 F0.000 E27.81455
G1 X98.514 Y103.950 F10800.000
G1 X104.347 Y109.784 F0.000 E28.14454
G1 X103.809 Y109.784 F10800.000
G1 X97.882 Y103.856 F0.000 E28.47983
G1 X97.274 Y103.786 F10800.000
G1 X103.271 Y109.784 F0.000 E28.81911
G1 X102.733 Y109.784 F10800.000
G1 X96.708 Y103.758 F0.000 E29.15996
