; generated by Slic3r 0.8.3 on 2012-06-16 at 10:11:45

; layer_height = 0.25
; perimeters = 3
; solid_layers = 3
; fill_density = .2
; nozzle_diameter = .35
; filament_diameter = 1.75
; extrusion_multiplier = 1
; perimeter_speed = 100
; infill_speed = 120
; travel_speed = 180
; scale = 1
; single wall width = 0.39mm

M190 S110 ; wait for bed temperature to be reached
M104 S220 ; set temperature
M104 S220 ;start extruder
G28 ; home all axes
M109 S220 ; wait for temperature to be reached
G90 ; use absolute coordinates
G21 ; set units to millimeters
G92 E0 ; reset extrusion distance
M82 ; use absolute distances for extrusion
G1 Z0.250 F10800.000
G1 X59.890 Y78.250
G1 F1800.000 E1.00000
G1 X60.640 Y77.530 F0.000 E1.04159
G1 X61.130 Y77.120 E1.06714
G1 X61.520 Y76.830 E1.08658
G1 X62.450 Y76.240 E1.13064
G1 X63.470 Y75.730 E1.17625
G1 X64.420 Y75.360 E1.21703
G1 X65.450 Y75.060 E1.25995
G1 X66.240 Y74.910 E1.29211
G1 X68.000 Y74.760 E1.36277
G1 X124.390 Y74.780 E3.61837
G1 X125.750 Y74.910 E3.67301
G1 X126.540 Y75.060 E3.70518
G1 X127.570 Y75.360 E3.74809
G1 X128.520 Y75.730 E3.78887
G1 X129.540 Y76.240 E3.83449
G1 X129.940 Y76.480 E3.85315
G1 X130.820 Y77.100 E3.89620
G1 X131.350 Y77.530 E3.92350
G1 X132.110 Y78.260 E3.96566
G1 X132.420 Y78.600 E3.98406
G1 X133.120 Y79.500 E4.02967
G1 X133.460 Y80.000 E4.05385
G1 X133.700 Y80.400 E4.07251
G1 X134.210 Y81.420 E4.11813
G1 X134.580 Y82.370 E4.15891
G1 X134.880 Y83.400 E4.20182
G1 X135.030 Y84.190 E4.23399
G1 X135.180 Y85.950 E4.30464
G1 X135.160 Y159.380 E7.24184
G1 X135.090 Y159.900 E7.26283
G1 X134.980 Y160.420 E7.28409
G1 X134.830 Y160.920 E7.30497
G1 X134.640 Y161.410 E7.32599
G1 X134.410 Y161.890 E7.34728
G1 X134.140 Y162.340 E7.36827
G1 X133.990 Y162.560 E7.37892
G1 X133.670 Y162.970 E7.39973
G1 X133.310 Y163.360 E7.42096
G1 X132.920 Y163.720 E7.44219
G1 X132.510 Y164.040 E7.46299
G1 X131.840 Y164.460 E7.49462
G1 X131.120 Y164.790 E7.52630
G1 X130.620 Y164.960 E7.54743
G1 X130.110 Y165.090 E7.56848
G1 X129.590 Y165.180 E7.58959
G1 X129.330 Y165.210 E7.60006
G1 X128.800 Y165.230 E7.62127
G1 X62.660 Y165.210 E10.26687
G1 X62.140 Y165.140 E10.28786
G1 X61.620 Y165.030 E10.30912
G1 X61.120 Y164.880 E10.33000
G1 X60.630 Y164.690 E10.35102
G1 X60.150 Y164.460 E10.37231
G1 X59.700 Y164.190 E10.39331
G1 X59.480 Y164.040 E10.40396
G1 X59.070 Y163.720 E10.42476
G1 X58.680 Y163.360 E10.44599
G1 X58.320 Y162.970 E10.46722
G1 X58.000 Y162.560 E10.48802
G1 X57.580 Y161.890 E10.51965
G1 X57.250 Y161.170 E10.55134
G1 X57.080 Y160.670 E10.57246
G1 X56.950 Y160.160 E10.59351
G1 X56.860 Y159.640 E10.61462
G1 X56.830 Y159.380 E10.62509
G1 X56.830 Y85.550 E13.57829
G1 X56.960 Y84.190 E13.63294
G1 X57.110 Y83.400 E13.66510
G1 X57.410 Y82.370 E13.70802
G1 X57.780 Y81.420 E13.74880
G1 X58.290 Y80.400 E13.79441
G1 X58.530 Y80.000 E13.81307
G1 X59.150 Y79.120 E13.85613
G1 X59.570 Y78.600 E13.88287
G1 X59.850 Y78.293 E13.89947
G1 X60.170 Y78.500 F10800.000
G1 X60.900 Y77.810 F0.000 E13.93965
G1 X61.750 Y77.140 E13.98294
G1 X62.640 Y76.570 E14.02522
G1 X63.200 Y76.270 E14.05063
G1 X64.110 Y75.870 E14.09039
G1 X65.090 Y75.540 E14.13175
G1 X65.550 Y75.420 E14.15077
G1 X66.280 Y75.280 E14.18050
G1 X67.630 Y75.150 E14.23475
G1 X68.000 Y75.140 E14.24956
G1 X124.360 Y75.150 E16.50396
G1 X125.710 Y75.280 E16.55821
G1 X126.440 Y75.420 E16.58794
G1 X127.440 Y75.710 E16.62959
G1 X128.360 Y76.070 E16.66910
G1 X128.790 Y76.270 E16.68807
G1 X129.750 Y76.810 E16.73213
G1 X130.600 Y77.400 E16.77352
G1 X131.450 Y78.140 E16.81860
G1 X132.140 Y78.860 E16.85849
G1 X132.540 Y79.340 E16.88348
G1 X133.130 Y80.190 E16.92487
G1 X133.670 Y81.150 E16.96893
G1 X134.070 Y82.060 E17.00869
G1 X134.400 Y83.040 E17.05005
G1 X134.520 Y83.500 E17.06907
G1 X134.660 Y84.230 E17.09880
G1 X134.790 Y85.580 E17.15305
G1 X134.780 Y159.360 E20.10425
G1 X134.670 Y160.110 E20.13457
G1 X134.540 Y160.610 E20.15523
G1 X134.370 Y161.090 E20.17560
G1 X134.160 Y161.550 E20.19583
G1 X134.040 Y161.780 E20.20621
G1 X133.910 Y162.000 E20.21643
G1 X133.470 Y162.620 E20.24684
G1 X133.130 Y163.000 E20.26724
G1 X132.950 Y163.180 E20.27742
G1 X132.570 Y163.520 E20.29781
G1 X131.950 Y163.960 E20.32822
G1 X131.730 Y164.090 E20.33845
G1 X131.270 Y164.320 E20.35902
G1 X130.800 Y164.510 E20.37930
G1 X130.310 Y164.660 E20.39979
G1 X130.060 Y164.720 E20.41008
G1 X129.310 Y164.830 E20.44040
G1 X128.800 Y164.850 E20.46081
G1 X62.680 Y164.830 E23.10561
G1 X61.930 Y164.720 E23.13593
G1 X61.430 Y164.590 E23.15660
G1 X60.950 Y164.420 E23.17697
G1 X60.490 Y164.210 E23.19720
G1 X60.260 Y164.090 E23.20757
G1 X60.040 Y163.960 E23.21779
G1 X59.420 Y163.520 E23.24820
G1 X59.040 Y163.180 E23.26860
G1 X58.860 Y163.000 E23.27878
G1 X58.520 Y162.620 E23.29918
G1 X58.080 Y162.000 E23.32959
G1 X57.950 Y161.780 E23.33981
G1 X57.720 Y161.320 E23.36038
G1 X57.530 Y160.850 E23.38066
G1 X57.380 Y160.360 E23.40116
G1 X57.320 Y160.110 E23.41144
G1 X57.210 Y159.360 E23.44176
G1 X57.200 Y85.580 E26.39296
G1 X57.330 Y84.230 E26.44721
G1 X57.470 Y83.500 E26.47695
G1 X57.760 Y82.500 E26.51859
G1 X58.120 Y81.580 E26.55811
G1 X58.320 Y81.150 E26.57708
G1 X58.860 Y80.190 E26.62114
G1 X59.450 Y79.340 E26.66253
G1 X59.850 Y78.850 E26.68783
G1 X60.130 Y78.543 E26.70443
G1 F1800.000 E25.70443
G92 E0
G1 X85.284 Y128.908 F10800.000
G1 F1800.000 E1.00000
G1 X85.725 Y128.614 F0.000 E1.02122
G1 X86.215 Y128.411 E1.04243
G1 X86.735 Y128.307 E1.06365
G1 X87.265 Y128.307 E1.08487
G1 X87.765 Y128.407 E1.10525
G1 X88.069 Y128.518 E1.11819
G1 X88.504 Y128.751 E1.13793
G1 X88.913 Y129.087 E1.15911
G1 X89.250 Y129.497 E1.18033
G1 X89.500 Y129.965 E1.20154
G1 X89.654 Y130.472 E1.22276
G1 X89.706 Y131.000 E1.24398
G1 X89.654 Y131.528 E1.26519
G1 X89.500 Y132.035 E1.28641
G1 X89.250 Y132.503 E1.30763
G1 X88.913 Y132.913 E1.32884
G1 X88.503 Y133.250 E1.35006
G1 X88.035 Y133.500 E1.37127
G1 X87.528 Y133.654 E1.39249
G1 X87.023 Y133.703 E1.41277
G1 X86.495 Y133.656 E1.43399
G1 X86.193 Y133.580 E1.44645
G1 X85.725 Y133.386 E1.46672
G1 X85.284 Y133.092 E1.48794
G1 X84.908 Y132.716 E1.50915
G1 X84.614 Y132.275 E1.53037
G1 X84.411 Y131.785 E1.55159
G1 X84.307 Y131.265 E1.57280
G1 X84.307 Y130.735 E1.59402
G1 X84.411 Y130.215 E1.61523
G1 X84.614 Y129.725 E1.63645
G1 X84.908 Y129.284 E1.65767
G1 X85.242 Y128.950 E1.67652
G1 X85.524 Y129.201 F10800.000
G1 X85.903 Y128.948 F0.000 E1.69476
G1 X86.325 Y128.773 E1.71301
G1 X86.772 Y128.684 E1.73126
G1 X87.228 Y128.684 E1.74950
G1 X87.663 Y128.771 E1.76725
G1 X87.915 Y128.862 E1.77795
G1 X88.293 Y129.066 E1.79513
G1 X88.645 Y129.355 E1.81336
G1 X88.935 Y129.707 E1.83161
G1 X89.150 Y130.110 E1.84985
G1 X89.282 Y130.546 E1.86810
G1 X89.327 Y131.000 E1.88634
G1 X89.282 Y131.454 E1.90459
G1 X89.150 Y131.890 E1.92284
G1 X88.935 Y132.293 E1.94108
G1 X88.645 Y132.645 E1.95933
G1 X88.293 Y132.935 E1.97758
G1 X87.890 Y133.150 E1.99582
G1 X87.454 Y133.282 E2.01407
G1 X87.014 Y133.326 E2.03175
G1 X86.560 Y133.283 E2.05000
G1 X86.311 Y133.221 E2.06024
G1 X85.903 Y133.052 E2.07792
G1 X85.524 Y132.799 E2.09616
G1 X85.201 Y132.476 E2.11441
G1 X84.948 Y132.097 E2.13266
G1 X84.773 Y131.675 E2.15090
G1 X84.684 Y131.228 E2.16915
G1 X84.684 Y130.772 E2.18739
G1 X84.773 Y130.325 E2.20564
G1 X84.948 Y129.903 E2.22389
G1 X85.201 Y129.524 E2.24213
G1 X85.482 Y129.243 E2.25801
G1 X85.764 Y129.494 F10800.000
G1 X86.082 Y129.282 F0.000 E2.27329
G1 X86.434 Y129.136 E2.28856
G1 X86.809 Y129.061 E2.30384
G1 X87.191 Y129.061 E2.31912
G1 X87.561 Y129.135 E2.33422
G1 X87.760 Y129.207 E2.34269
G1 X88.082 Y129.380 E2.35732
G1 X88.378 Y129.622 E2.37259
G1 X88.620 Y129.918 E2.38786
G1 X88.800 Y130.254 E2.40314
G1 X88.911 Y130.620 E2.41841
G1 X88.948 Y131.000 E2.43369
G1 X88.911 Y131.380 E2.44897
G1 X88.800 Y131.746 E2.46424
G1 X88.620 Y132.082 E2.47952
G1 X88.378 Y132.378 E2.49479
G1 X88.082 Y132.620 E2.51007
G1 X87.746 Y132.800 E2.52535
G1 X87.380 Y132.911 E2.54062
G1 X87.005 Y132.948 E2.55570
G1 X86.625 Y132.911 E2.57098
G1 X86.430 Y132.862 E2.57901
G1 X86.082 Y132.718 E2.59409
G1 X85.764 Y132.506 E2.60937
G1 X85.494 Y132.236 E2.62464
G1 X85.282 Y131.918 E2.63992
G1 X85.136 Y131.566 E2.65519
G1 X85.061 Y131.191 E2.67047
G1 X85.061 Y130.809 E2.68575
G1 X85.136 Y130.434 E2.70102
G1 X85.282 Y130.082 E2.71630
G1 X85.494 Y129.764 E2.73158
G1 X85.722 Y129.536 E2.74448
G1 F1800.000 E1.74448
G92 E0
G1 X84.796 Y141.117 F10800.000
G1 F1800.000 E1.00000
G1 X89.304 Y141.175 F0.000 E1.18035
G1 X90.493 Y143.297 E1.27767
G1 X90.493 Y143.297 E1.27767
G1 X91.508 Y145.108 E1.36069
G1 X89.204 Y148.983 E1.54104
G1 X84.696 Y148.926 E1.72138
G1 X82.492 Y144.993 E1.90173
G1 X84.765 Y141.168 E2.07971
G1 X85.008 Y141.497 F10800.000
G1 X89.081 Y141.549 F0.000 E2.24264
G1 X89.850 Y142.920 E2.30553
G1 X89.850 Y142.920 E2.30553
G1 X91.073 Y145.102 E2.40558
G1 X88.992 Y148.603 E2.56851
G1 X84.919 Y148.552 E2.73145
G1 X82.927 Y144.998 E2.89438
G1 X84.978 Y141.548 E3.05495
G1 X85.221 Y141.877 F10800.000
G1 X88.859 Y141.923 F0.000 E3.20048
G1 X89.207 Y142.543 E3.22892
G1 X89.207 Y142.543 E3.22892
G1 X90.638 Y145.096 E3.34600
G1 X88.779 Y148.224 E3.49153
G1 X85.141 Y148.177 E3.63705
G1 X83.362 Y145.004 E3.78258
G1 X85.191 Y141.927 E3.92574
G1 F1800.000 E2.92574
G92 E0
G1 X85.185 Y151.897 F10800.000
G1 F1800.000 E1.00000
G1 X88.823 Y151.902 F0.000 E1.14553
G1 X90.638 Y155.055 E1.29105
G1 X88.815 Y158.203 E1.43658
G1 X85.177 Y158.199 E1.58210
G1 X83.362 Y155.046 E1.72763
G1 X85.155 Y151.948 E1.87078
G1 F1800.000 E0.87078
G92 E0
G1 X92.049 Y158.099 F10800.000
G1 F1800.000 E1.00000
G1 X89.856 Y158.099 F0.000 E1.08773
G1 X89.801 Y158.005 E1.09209
G1 X91.509 Y155.056 E1.22839
G1 X89.259 Y151.148 E1.40874
G1 X84.751 Y151.143 E1.58908
G1 X82.491 Y155.045 E1.76943
G1 X84.250 Y158.099 E1.91041
G1 X81.951 Y158.099 E2.00236
G1 X81.972 Y127.603 E3.22220
G1 X82.030 Y127.210 E3.23809
G1 X82.127 Y126.825 E3.25398
G1 X82.260 Y126.451 E3.26986
G1 X82.430 Y126.092 E3.28575
G1 X82.634 Y125.751 E3.30164
G1 X82.871 Y125.432 E3.31753
G1 X83.138 Y125.138 E3.33342
G1 X83.426 Y124.877 E3.34897
G1 X83.752 Y124.634 E3.36523
G1 X84.092 Y124.430 E3.38109
G1 X84.451 Y124.260 E3.39698
G1 X84.825 Y124.127 E3.41287
G1 X85.210 Y124.030 E3.42875
G1 X85.603 Y123.972 E3.44464
G1 X86.023 Y123.951 E3.46147
G1 X88.397 Y123.972 E3.55641
G1 X88.790 Y124.030 E3.57230
G1 X89.175 Y124.127 E3.58819
G1 X89.549 Y124.260 E3.60408
G1 X89.908 Y124.430 E3.61997
G1 X90.249 Y124.634 E3.63585
G1 X90.567 Y124.870 E3.65171
G1 X90.868 Y125.144 E3.66797
G1 X91.129 Y125.432 E3.68352
G1 X91.366 Y125.751 E3.69941
G1 X91.570 Y126.092 E3.71530
G1 X91.740 Y126.451 E3.73119
G1 X91.873 Y126.825 E3.74708
G1 X91.970 Y127.210 E3.76297
G1 X92.028 Y127.603 E3.77886
G1 X92.049 Y158.040 E4.99632
G1 X92.426 Y158.476 F10800.000
G1 X89.202 Y158.476 F0.000 E5.12529
G1 X89.147 Y158.382 E5.12965
G1 X91.073 Y155.055 E5.28339
G1 X89.041 Y151.525 E5.44633
G1 X84.968 Y151.520 E5.60927
G1 X82.927 Y155.045 E5.77220
G1 X84.902 Y158.476 E5.93056
G1 X81.574 Y158.476 E6.06366
G1 X81.596 Y127.566 E7.30005
G1 X81.660 Y127.137 E7.31742
G1 X81.765 Y126.715 E7.33480
G1 X81.912 Y126.307 E7.35217
G1 X82.097 Y125.914 E7.36954
G1 X82.321 Y125.542 E7.38691
G1 X82.579 Y125.193 E7.40428
G1 X82.871 Y124.871 E7.42165
G1 X83.186 Y124.585 E7.43866
G1 X83.542 Y124.320 E7.45641
G1 X83.914 Y124.097 E7.47376
G1 X84.307 Y123.912 E7.49113
G1 X84.715 Y123.765 E7.50850
G1 X85.137 Y123.660 E7.52587
G1 X85.566 Y123.596 E7.54324
G1 X86.014 Y123.574 E7.56118
G1 X88.434 Y123.596 E7.65797
G1 X88.863 Y123.660 E7.67534
G1 X89.285 Y123.765 E7.69271
G1 X89.693 Y123.912 E7.71008
G1 X90.086 Y124.097 E7.72745
G1 X90.459 Y124.321 E7.74482
G1 X90.807 Y124.579 E7.76217
G1 X91.135 Y124.878 E7.77992
G1 X91.421 Y125.193 E7.79693
G1 X91.679 Y125.541 E7.81430
G1 X91.903 Y125.914 E7.83167
G1 X92.088 Y126.307 E7.84904
G1 X92.235 Y126.715 E7.86641
G1 X92.340 Y127.137 E7.88378
G1 X92.404 Y127.566 E7.90115
G1 X92.426 Y158.417 E9.13518
G1 X92.803 Y158.853 F10800.000
G1 X81.197 Y158.853 F0.000 E9.59940
G1 X81.221 Y127.529 E10.85235
G1 X81.290 Y127.063 E10.87121
G1 X81.404 Y126.606 E10.89006
G1 X81.563 Y126.162 E10.90891
G1 X81.765 Y125.736 E10.92776
G1 X82.007 Y125.332 E10.94661
G1 X82.288 Y124.953 E10.96547
G1 X82.604 Y124.604 E10.98432
G1 X82.946 Y124.294 E11.00280
G1 X83.332 Y124.007 E11.02203
G1 X83.736 Y123.765 E11.04087
G1 X84.162 Y123.563 E11.05973
G1 X84.606 Y123.404 E11.07858
G1 X85.063 Y123.290 E11.09743
G1 X85.529 Y123.221 E11.11628
G1 X86.005 Y123.197 E11.13533
G1 X88.471 Y123.221 E11.23397
G1 X88.937 Y123.290 E11.25282
G1 X89.394 Y123.404 E11.27167
G1 X89.838 Y123.563 E11.29052
G1 X90.264 Y123.765 E11.30938
G1 X90.668 Y124.007 E11.32823
G1 X91.047 Y124.287 E11.34707
G1 X91.402 Y124.611 E11.36630
G1 X91.712 Y124.953 E11.38478
G1 X91.993 Y125.332 E11.40363
G1 X92.235 Y125.736 E11.42249
G1 X92.437 Y126.162 E11.44134
G1 X92.596 Y126.606 E11.46019
G1 X92.710 Y127.063 E11.47904
G1 X92.779 Y127.529 E11.49790
G1 X92.803 Y158.794 E12.74848
G1 F1800.000 E11.74848
G92 E0
G1 X83.576 Y157.601 F10800.000
G1 F1800.000 E1.00000
G1 X82.216 Y156.242 F0.000 E1.07690
G1 X82.647 Y155.989 F10800.000
G1 X82.424 Y155.765 F0.000 E1.08954
G1 X82.216 Y156.926 F10800.000
G1 X83.124 Y157.834 F0.000 E1.14088
G1 X82.439 Y157.834 F10800.000
G1 X82.216 Y157.611 F0.000 E1.15351
G1 F1800.000 E0.15351
G92 E0
G1 X90.398 Y157.610 F10800.000
G1 F1800.000 E1.00000
G1 X90.621 Y157.834 F0.000 E1.01264
G1 X91.210 Y157.834 F10800.000
G1 X90.545 Y157.168 F0.000 E1.05029
G1 X90.761 Y156.795 F10800.000
G1 X91.784 Y157.818 F0.000 E1.10815
G1 X91.784 Y157.228 F10800.000
G1 X90.977 Y156.422 F0.000 E1.15378
G1 X91.193 Y156.049 F10800.000
G1 X91.783 Y156.640 F0.000 E1.18719
G1 X91.784 Y156.050 F10800.000
G1 X91.560 Y155.827 F0.000 E1.19983
G1 X91.767 Y154.284 F10800.000
G1 X91.024 Y153.541 F0.000 E1.24186
G1 X91.783 Y153.753 F10800.000
G1 X90.280 Y152.250 F0.000 E1.32688
G1 X89.537 Y150.958 F10800.000
G1 X91.784 Y153.205 F0.000 E1.45397
G1 X91.784 Y152.656 F10800.000
G1 X88.367 Y149.239 F0.000 E1.64728
G1 X88.921 Y149.246 F10800.000
G1 X91.784 Y152.109 F0.000 E1.80919
G1 X91.784 Y151.560 F10800.000
G1 X89.369 Y149.145 F0.000 E1.94581
G1 X89.573 Y148.802 F10800.000
G1 X91.784 Y151.012 F0.000 E2.07087
G1 X91.784 Y150.464 F10800.000
G1 X89.777 Y148.458 F0.000 E2.18438
G1 X89.981 Y148.114 F10800.000
G1 X91.784 Y149.916 F0.000 E2.28632
G1 X91.784 Y149.368 F10800.000
G1 X90.186 Y147.770 F0.000 E2.37671
G1 X90.390 Y147.427 F10800.000
G1 X91.783 Y148.820 F0.000 E2.45554
G1 X91.784 Y148.272 F10800.000
G1 X90.595 Y147.083 F0.000 E2.52280
G1 X90.799 Y146.739 F10800.000
G1 X91.783 Y147.724 F0.000 E2.57851
G1 X91.784 Y147.176 F10800.000
G1 X91.003 Y146.395 F0.000 E2.62267
G1 X91.207 Y146.052 F10800.000
G1 X91.783 Y146.628 F0.000 E2.65526
G1 X91.784 Y146.080 F10800.000
G1 X91.560 Y145.857 F0.000 E2.66789
G1 F1800.000 E1.66789
G92 E0
G1 X87.811 Y149.232 F10800.000
G1 F1800.000 E1.00000
G1 X89.462 Y150.883 F0.000 E1.09340
G1 X88.913 Y150.883 F10800.000
G1 X87.256 Y149.225 F0.000 E1.18716
G1 X86.701 Y149.218 F10800.000
G1 X88.365 Y150.882 F0.000 E1.28128
G1 X87.816 Y150.881 F10800.000
G1 X86.146 Y149.211 F0.000 E1.37576
G1 X85.591 Y149.204 F10800.000
G1 X87.267 Y150.880 F0.000 E1.47060
G1 X86.718 Y150.880 F10800.000
G1 X85.035 Y149.197 F0.000 E1.56581
G1 X84.481 Y149.190 F10800.000
G1 X86.170 Y150.879 F0.000 E1.66137
G1 X85.621 Y150.879 F10800.000
G1 X82.216 Y147.474 F0.000 E1.85398
G1 X82.217 Y148.022 F10800.000
G1 X85.073 Y150.878 F0.000 E2.01554
G1 X84.600 Y150.954 F10800.000
G1 X82.216 Y148.570 F0.000 E2.15041
G1 X82.217 Y149.118 F10800.000
G1 X84.400 Y151.301 F0.000 E2.27392
G1 X84.198 Y151.648 F10800.000
G1 X82.216 Y149.666 F0.000 E2.38605
G1 X82.217 Y150.214 F10800.000
G1 X83.998 Y151.995 F0.000 E2.48682
G1 X83.797 Y152.342 F10800.000
G1 X82.216 Y150.762 F0.000 E2.57622
G1 X82.217 Y151.310 F10800.000
G1 X83.596 Y152.689 F0.000 E2.65425
G1 X83.395 Y153.036 F10800.000
G1 X82.216 Y151.858 F0.000 E2.72091
G1 X82.217 Y152.406 F10800.000
G1 X83.194 Y153.383 F0.000 E2.77620
G1 X82.993 Y153.731 F10800.000
G1 X82.216 Y152.954 F0.000 E2.82013
G1 X82.216 Y153.502 F10800.000
G1 X82.792 Y154.078 F0.000 E2.85269
