; generated by Slic3r 0.8.3 on 2012-06-16 at 17:22:38

; layer_height = 0.25
; perimeters = 3
; solid_layers = 3
; fill_density = .2
; nozzle_diameter = .35
; filament_diameter = 1.75
; extrusion_multiplier = 1
; perimeter_speed = 100
; infill_speed = 120
; travel_speed = 180
; scale = 1
; single wall width = 0.39mm

M190 S110 ; wait for bed temperature to be reached
M104 S220 ; set temperature
M104 S220 ;start extruder
G28 ; home all axes
M109 S220 ; wait for temperature to be reached
G90 ; use absolute coordinates
G21 ; set units to millimeters
G92 E0 ; reset extrusion distance
M82 ; use absolute distances for extrusion
G1 Z0.250 F10800.000
G1 X41.890 Y78.250
G1 F1800.000 E1.00000
G1 X42.640 Y77.530 F100.000 E1.04159
G1 X43.130 Y77.120 E1.06714
G1 X43.520 Y76.830 E1.08658
G1 X44.450 Y76.240 E1.13064
G1 X45.470 Y75.730 E1.17625
G1 X46.420 Y75.360 E1.21703
G1 X47.450 Y75.060 E1.25995
G1 X48.240 Y74.910 E1.29211
G1 X50.000 Y74.760 E1.36277
G1 X142.390 Y74.780 E5.05837
G1 X143.750 Y74.910 E5.11301
G1 X144.540 Y75.060 E5.14518
G1 X145.570 Y75.360 E5.18809
G1 X146.520 Y75.730 E5.22887
G1 X147.540 Y76.240 E5.27449
G1 X147.940 Y76.480 E5.29315
G1 X148.820 Y77.100 E5.33620
G1 X149.350 Y77.530 E5.36350
G1 X150.110 Y78.260 E5.40566
G1 X150.420 Y78.600 E5.42406
G1 X151.120 Y79.500 E5.46967
G1 X151.460 Y80.000 E5.49385
G1 X151.700 Y80.400 E5.51251
G1 X152.210 Y81.420 E5.55813
G1 X152.580 Y82.370 E5.59891
G1 X152.880 Y83.400 E5.64182
G1 X153.030 Y84.190 E5.67399
G1 X153.180 Y85.950 E5.74464
G1 X153.160 Y159.380 E8.68184
G1 X153.090 Y159.900 E8.70283
G1 X152.980 Y160.420 E8.72409
G1 X152.830 Y160.920 E8.74497
G1 X152.640 Y161.410 E8.76599
G1 X152.410 Y161.890 E8.78728
G1 X152.140 Y162.340 E8.80827
G1 X151.990 Y162.560 E8.81892
G1 X151.670 Y162.970 E8.83973
G1 X151.310 Y163.360 E8.86096
G1 X150.920 Y163.720 E8.88219
G1 X150.510 Y164.040 E8.90299
G1 X149.840 Y164.460 E8.93462
G1 X149.120 Y164.790 E8.96630
G1 X148.620 Y164.960 E8.98743
G1 X148.110 Y165.090 E9.00848
G1 X147.590 Y165.180 E9.02959
G1 X147.330 Y165.210 E9.04006
G1 X146.800 Y165.230 E9.06127
G1 X44.660 Y165.210 E13.14687
G1 X44.140 Y165.140 E13.16786
G1 X43.620 Y165.030 E13.18912
G1 X43.120 Y164.880 E13.21000
G1 X42.630 Y164.690 E13.23102
G1 X42.150 Y164.460 E13.25231
G1 X41.700 Y164.190 E13.27331
G1 X41.480 Y164.040 E13.28396
G1 X41.070 Y163.720 E13.30476
G1 X40.680 Y163.360 E13.32599
G1 X40.320 Y162.970 E13.34722
G1 X40.000 Y162.560 E13.36802
G1 X39.580 Y161.890 E13.39965
G1 X39.250 Y161.170 E13.43134
G1 X39.080 Y160.670 E13.45246
G1 X38.950 Y160.160 E13.47351
G1 X38.860 Y159.640 E13.49462
G1 X38.830 Y159.380 E13.50509
G1 X38.830 Y85.550 E16.45829
G1 X38.960 Y84.190 E16.51294
G1 X39.110 Y83.400 E16.54510
G1 X39.410 Y82.370 E16.58801
G1 X39.780 Y81.420 E16.62880
G1 X40.290 Y80.400 E16.67441
G1 X40.530 Y80.000 E16.69307
G1 X41.150 Y79.120 E16.73613
G1 X41.570 Y78.600 E16.76287
G1 X41.850 Y78.293 E16.77947
G1 X42.170 Y78.500 F10800.000
G1 X42.900 Y77.810 F100.000 E16.81965
G1 X43.750 Y77.140 E16.86294
G1 X44.640 Y76.570 E16.90522
G1 X45.200 Y76.270 E16.93063
G1 X46.110 Y75.870 E16.97039
G1 X47.090 Y75.540 E17.01175
G1 X47.550 Y75.420 E17.03077
G1 X48.280 Y75.280 E17.06050
G1 X49.630 Y75.150 E17.11475
G1 X50.000 Y75.140 E17.12956
G1 X142.360 Y75.150 E20.82396
G1 X143.710 Y75.280 E20.87821
G1 X144.440 Y75.420 E20.90794
G1 X145.440 Y75.710 E20.94959
G1 X146.360 Y76.070 E20.98910
G1 X146.790 Y76.270 E21.00807
G1 X147.750 Y76.810 E21.05213
G1 X148.600 Y77.400 E21.09352
G1 X149.450 Y78.140 E21.13860
G1 X150.140 Y78.860 E21.17849
G1 X150.540 Y79.340 E21.20348
G1 X151.130 Y80.190 E21.24487
G1 X151.670 Y81.150 E21.28893
G1 X152.070 Y82.060 E21.32869
G1 X152.400 Y83.040 E21.37005
G1 X152.520 Y83.500 E21.38907
G1 X152.660 Y84.230 E21.41880
G1 X152.790 Y85.580 E21.47305
G1 X152.780 Y159.360 E24.42425
G1 X152.670 Y160.110 E24.45457
G1 X152.540 Y160.610 E24.47523
G1 X152.370 Y161.090 E24.49560
G1 X152.160 Y161.550 E24.51583
G1 X152.040 Y161.780 E24.52621
G1 X151.910 Y162.000 E24.53643
G1 X151.470 Y162.620 E24.56684
G1 X151.130 Y163.000 E24.58723
G1 X150.950 Y163.180 E24.59742
G1 X150.570 Y163.520 E24.61781
G1 X149.950 Y163.960 E24.64822
G1 X149.730 Y164.090 E24.65845
G1 X149.270 Y164.320 E24.67902
G1 X148.800 Y164.510 E24.69930
G1 X148.310 Y164.660 E24.71979
G1 X148.060 Y164.720 E24.73008
G1 X147.310 Y164.830 E24.76040
G1 X146.800 Y164.850 E24.78081
G1 X44.680 Y164.830 E28.86561
G1 X43.930 Y164.720 E28.89593
G1 X43.430 Y164.590 E28.91660
G1 X42.950 Y164.420 E28.93697
G1 X42.490 Y164.210 E28.95719
G1 X42.260 Y164.090 E28.96757
G1 X42.040 Y163.960 E28.97779
G1 X41.420 Y163.520 E29.00820
G1 X41.040 Y163.180 E29.02860
G1 X40.860 Y163.000 E29.03878
G1 X40.520 Y162.620 E29.05918
G1 X40.080 Y162.000 E29.08959
G1 X39.950 Y161.780 E29.09981
G1 X39.720 Y161.320 E29.12038
G1 X39.530 Y160.850 E29.14066
G1 X39.380 Y160.360 E29.16116
G1 X39.320 Y160.110 E29.17144
G1 X39.210 Y159.360 E29.20176
G1 X39.200 Y85.580 E32.15296
G1 X39.330 Y84.230 E32.20721
G1 X39.470 Y83.500 E32.23695
G1 X39.760 Y82.500 E32.27859
G1 X40.120 Y81.580 E32.31811
G1 X40.320 Y81.150 E32.33708
G1 X40.860 Y80.190 E32.38114
G1 X41.450 Y79.340 E32.42253
G1 X41.850 Y78.850 E32.44783
G1 X42.130 Y78.543 E32.46443
G1 F1800.000 E31.46443
G92 E0
G1 X85.087 Y129.087 F10800.000
G1 F1800.000 E1.00000
G1 X85.497 Y128.750 F100.000 E1.02122
G1 X85.965 Y128.500 E1.04243
G1 X86.472 Y128.346 E1.06365
G1 X87.000 Y128.294 E1.08486
G1 X87.528 Y128.346 E1.10608
G1 X88.035 Y128.500 E1.12730
G1 X88.503 Y128.750 E1.14851
G1 X88.913 Y129.087 E1.16973
G1 X89.250 Y129.497 E1.19095
G1 X89.500 Y129.965 E1.21216
G1 X89.654 Y130.472 E1.23338
G1 X89.706 Y131.000 E1.25459
G1 X89.654 Y131.528 E1.27581
G1 X89.500 Y132.035 E1.29703
G1 X89.250 Y132.503 E1.31824
G1 X88.913 Y132.913 E1.33946
G1 X88.503 Y133.250 E1.36068
G1 X88.035 Y133.500 E1.38189
G1 X87.528 Y133.654 E1.40311
G1 X87.023 Y133.703 E1.42338
G1 X86.899 Y133.697 E1.42835
G1 X86.470 Y133.653 E1.44561
G1 X85.965 Y133.500 E1.46674
G1 X85.497 Y133.250 E1.48796
G1 X85.087 Y132.913 E1.50917
G1 X84.750 Y132.503 E1.53039
G1 X84.500 Y132.035 E1.55161
G1 X84.346 Y131.528 E1.57282
G1 X84.294 Y131.000 E1.59404
G1 X84.346 Y130.472 E1.61526
G1 X84.500 Y129.965 E1.63647
G1 X84.750 Y129.497 E1.65769
G1 X85.049 Y129.133 E1.67654
G1 X85.355 Y129.355 F10800.000
G1 X85.707 Y129.065 F100.000 E1.69478
G1 X86.110 Y128.850 E1.71303
G1 X86.546 Y128.718 E1.73128
G1 X87.000 Y128.673 E1.74952
G1 X87.454 Y128.718 E1.76777
G1 X87.890 Y128.850 E1.78601
G1 X88.293 Y129.065 E1.80426
G1 X88.645 Y129.355 E1.82251
G1 X88.935 Y129.707 E1.84075
G1 X89.150 Y130.110 E1.85900
G1 X89.282 Y130.546 E1.87725
G1 X89.327 Y131.000 E1.89549
G1 X89.282 Y131.454 E1.91374
G1 X89.150 Y131.890 E1.93198
G1 X88.935 Y132.293 E1.95023
G1 X88.645 Y132.645 E1.96848
G1 X88.293 Y132.935 E1.98672
G1 X87.890 Y133.150 E2.00497
G1 X87.454 Y133.282 E2.02321
G1 X87.014 Y133.326 E2.04089
G1 X86.928 Y133.321 E2.04435
G1 X86.545 Y133.282 E2.05975
G1 X86.110 Y133.150 E2.07794
G1 X85.707 Y132.935 E2.09619
G1 X85.355 Y132.645 E2.11444
G1 X85.065 Y132.293 E2.13268
G1 X84.850 Y131.890 E2.15093
G1 X84.718 Y131.454 E2.16918
G1 X84.673 Y131.000 E2.18742
G1 X84.718 Y130.546 E2.20567
G1 X84.850 Y130.110 E2.22391
G1 X85.065 Y129.707 E2.24216
G1 X85.317 Y129.400 E2.25804
G1 X85.622 Y129.622 F10800.000
G1 X85.918 Y129.380 F100.000 E2.27332
G1 X86.254 Y129.200 E2.28859
G1 X86.620 Y129.089 E2.30387
G1 X87.000 Y129.052 E2.31914
G1 X87.380 Y129.089 E2.33442
G1 X87.746 Y129.200 E2.34970
G1 X88.082 Y129.380 E2.36497
G1 X88.378 Y129.622 E2.38025
G1 X88.620 Y129.918 E2.39552
G1 X88.800 Y130.254 E2.41080
G1 X88.911 Y130.620 E2.42608
G1 X88.948 Y131.000 E2.44135
G1 X88.911 Y131.380 E2.45663
G1 X88.800 Y131.746 E2.47190
G1 X88.620 Y132.082 E2.48718
G1 X88.378 Y132.378 E2.50246
G1 X88.082 Y132.620 E2.51773
G1 X87.746 Y132.800 E2.53301
G1 X87.380 Y132.911 E2.54829
G1 X87.005 Y132.948 E2.56337
G1 X86.956 Y132.945 E2.56530
G1 X86.620 Y132.911 E2.57885
G1 X86.254 Y132.800 E2.59411
G1 X85.918 Y132.620 E2.60939
G1 X85.622 Y132.378 E2.62466
G1 X85.380 Y132.082 E2.63994
G1 X85.200 Y131.746 E2.65522
G1 X85.089 Y131.380 E2.67049
G1 X85.052 Y131.000 E2.68577
G1 X85.089 Y130.620 E2.70104
G1 X85.200 Y130.254 E2.71632
G1 X85.380 Y129.918 E2.73160
G1 X85.585 Y129.668 E2.74451
G1 F1800.000 E1.74451
G92 E0
G1 X84.796 Y141.117 F10800.000
G1 F1800.000 E1.00000
G1 X89.304 Y141.175 F100.000 E1.18035
G1 X91.508 Y145.108 E1.36069
G1 X89.204 Y148.983 E1.54104
G1 X84.696 Y148.926 E1.72138
G1 X82.492 Y144.993 E1.90173
G1 X84.765 Y141.168 E2.07971
G1 X85.008 Y141.497 F10800.000
G1 X89.081 Y141.549 F100.000 E2.24264
G1 X91.073 Y145.102 E2.40558
G1 X88.992 Y148.603 E2.56851
G1 X84.919 Y148.552 E2.73145
G1 X82.927 Y144.998 E2.89438
G1 X84.978 Y141.548 E3.05495
G1 X85.221 Y141.877 F10800.000
G1 X88.859 Y141.923 F100.000 E3.20048
G1 X90.638 Y145.096 E3.34600
G1 X88.779 Y148.224 E3.49153
G1 X85.141 Y148.177 E3.63705
G1 X83.362 Y145.004 E3.78258
G1 X85.191 Y141.927 E3.92574
G1 F1800.000 E2.92574
G92 E0
G1 X85.185 Y151.897 F10800.000
G1 F1800.000 E1.00000
G1 X88.823 Y151.902 F100.000 E1.14553
G1 X90.638 Y155.055 E1.29105
G1 X88.815 Y158.203 E1.43658
G1 X85.177 Y158.199 E1.58210
G1 X83.362 Y155.046 E1.72763
G1 X85.155 Y151.948 E1.87078
G1 F1800.000 E0.87078
G92 E0
G1 X92.049 Y158.099 F10800.000
G1 F1800.000 E1.00000
G1 X89.856 Y158.099 F100.000 E1.08773
G1 X89.801 Y158.005 E1.09209
G1 X91.509 Y155.056 E1.22839
G1 X89.259 Y151.148 E1.40874
G1 X84.751 Y151.143 E1.58908
G1 X82.491 Y155.045 E1.76943
G1 X84.250 Y158.099 E1.91041
G1 X81.951 Y158.099 E2.00236
G1 X81.972 Y127.603 E3.22220
G1 X82.030 Y127.210 E3.23809
G1 X82.127 Y126.825 E3.25398
G1 X82.260 Y126.451 E3.26986
G1 X82.430 Y126.092 E3.28575
G1 X82.634 Y125.751 E3.30164
G1 X82.871 Y125.432 E3.31753
G1 X83.138 Y125.138 E3.33342
G1 X83.426 Y124.877 E3.34897
G1 X83.752 Y124.634 E3.36523
G1 X84.092 Y124.430 E3.38109
G1 X84.451 Y124.260 E3.39698
G1 X84.825 Y124.127 E3.41287
G1 X85.210 Y124.030 E3.42875
G1 X85.603 Y123.972 E3.44464
G1 X86.023 Y123.951 E3.46147
G1 X88.397 Y123.972 E3.55641
G1 X88.790 Y124.030 E3.57230
G1 X89.175 Y124.127 E3.58819
G1 X89.549 Y124.260 E3.60408
G1 X89.908 Y124.430 E3.61997
G1 X90.249 Y124.634 E3.63585
G1 X90.567 Y124.870 E3.65171
G1 X90.868 Y125.144 E3.66797
G1 X91.129 Y125.432 E3.68352
G1 X91.366 Y125.751 E3.69941
G1 X91.570 Y126.092 E3.71530
G1 X91.740 Y126.451 E3.73119
G1 X91.873 Y126.825 E3.74708
G1 X91.970 Y127.210 E3.76297
G1 X92.028 Y127.603 E3.77886
G1 X92.049 Y158.040 E4.99632
G1 X92.426 Y158.476 F10800.000
G1 X89.202 Y158.476 F100.000 E5.12529
G1 X89.147 Y158.382 E5.12965
G1 X91.073 Y155.055 E5.28339
G1 X89.041 Y151.525 E5.44633
G1 X84.968 Y151.520 E5.60927
G1 X82.927 Y155.045 E5.77220
G1 X84.902 Y158.476 E5.93056
G1 X81.574 Y158.476 E6.06366
G1 X81.596 Y127.566 E7.30005
G1 X81.660 Y127.137 E7.31742
G1 X81.765 Y126.715 E7.33480
G1 X81.912 Y126.307 E7.35217
G1 X82.097 Y125.914 E7.36954
G1 X82.321 Y125.542 E7.38691
G1 X82.579 Y125.193 E7.40428
G1 X82.871 Y124.871 E7.42165
G1 X83.186 Y124.585 E7.43866
G1 X83.542 Y124.320 E7.45641
G1 X83.914 Y124.097 E7.47376
G1 X84.307 Y123.912 E7.49113
G1 X84.715 Y123.765 E7.50850
G1 X85.137 Y123.660 E7.52587
G1 X85.566 Y123.596 E7.54324
G1 X86.014 Y123.574 E7.56118
G1 X88.434 Y123.596 E7.65797
G1 X88.863 Y123.660 E7.67534
G1 X89.285 Y123.765 E7.69271
G1 X89.693 Y123.912 E7.71008
G1 X90.086 Y124.097 E7.72745
G1 X90.459 Y124.321 E7.74482
G1 X90.807 Y124.579 E7.76217
G1 X91.135 Y124.878 E7.77992
G1 X91.421 Y125.193 E7.79693
G1 X91.679 Y125.541 E7.81430
G1 X91.903 Y125.914 E7.83167
G1 X92.088 Y126.307 E7.84904
G1 X92.235 Y126.715 E7.86641
G1 X92.340 Y127.137 E7.88378
G1 X92.404 Y127.566 E7.90115
G1 X92.426 Y158.417 E9.13518
G1 X92.803 Y158.853 F10800.000
G1 X81.197 Y158.853 F100.000 E9.59940
G1 X81.221 Y127.529 E10.85235
G1 X81.290 Y127.063 E10.87121
G1 X81.404 Y126.606 E10.89006
G1 X81.563 Y126.162 E10.90891
G1 X81.765 Y125.736 E10.92776
G1 X82.007 Y125.332 E10.94661
G1 X82.288 Y124.953 E10.96547
G1 X82.604 Y124.604 E10.98432
G1 X82.946 Y124.294 E11.00280
G1 X83.332 Y124.007 E11.02203
G1 X83.736 Y123.765 E11.04087
G1 X84.162 Y123.563 E11.05973
G1 X84.606 Y123.404 E11.07858
G1 X85.063 Y123.290 E11.09743
G1 X85.529 Y123.221 E11.11628
G1 X86.005 Y123.197 E11.13533
G1 X88.471 Y123.221 E11.23397
G1 X88.937 Y123.290 E11.25282
G1 X89.394 Y123.404 E11.27167
G1 X89.838 Y123.563 E11.29052
G1 X90.264 Y123.765 E11.30938
G1 X90.668 Y124.007 E11.32823
G1 X91.047 Y124.287 E11.34707
G1 X91.402 Y124.611 E11.36630
G1 X91.712 Y124.953 E11.38478
G1 X91.993 Y125.332 E11.40363
G1 X92.235 Y125.736 E11.42249
G1 X92.437 Y126.162 E11.44134
G1 X92.596 Y126.606 E11.46019
G1 X92.710 Y127.063 E11.47904
G1 X92.779 Y127.529 E11.49790
G1 X92.803 Y158.794 E12.74848
G1 F1800.000 E11.74848
G92 E0
G1 X83.576 Y157.601 F10800.000
G1 F1800.000 E1.00000
G1 X82.217 Y156.242 F100.000 E1.07690
G1 X82.647 Y155.989 F10800.000
G1 X82.424 Y155.765 F100.000 E1.08954
G1 X82.217 Y156.926 F10800.000
G1 X83.124 Y157.834 F100.000 E1.14088
G1 X82.440 Y157.834 F10800.000
G1 X82.217 Y157.610 F100.000 E1.15351
G1 F1800.000 E0.15351
G92 E0
G1 X90.398 Y157.610 F10800.000
G1 F1800.000 E1.00000
G1 X90.621 Y157.834 F100.000 E1.01264
G1 X91.211 Y157.834 F10800.000
G1 X90.545 Y157.168 F100.000 E1.05029
G1 X90.761 Y156.795 F10800.000
G1 X91.783 Y157.818 F100.000 E1.10814
G1 X91.784 Y157.229 F10800.000
G1 X90.977 Y156.422 F100.000 E1.15378
G1 X91.193 Y156.048 F10800.000
G1 X91.784 Y156.639 F100.000 E1.18719
G1 X91.783 Y156.050 F10800.000
G1 X91.560 Y155.827 F100.000 E1.19982
G1 X91.767 Y154.284 F10800.000
G1 X91.024 Y153.541 F100.000 E1.24185
G1 X91.784 Y153.753 F10800.000
G1 X90.281 Y152.249 F100.000 E1.32688
G1 X89.537 Y150.958 F10800.000
G1 X91.783 Y153.205 F100.000 E1.45396
G1 X91.784 Y152.656 F10800.000
G1 X88.366 Y149.239 F100.000 E1.64728
G1 X88.921 Y149.247 F10800.000
G1 X91.783 Y152.109 F100.000 E1.80919
G1 X91.784 Y151.560 F10800.000
G1 X89.369 Y149.145 F100.000 E1.94581
G1 X89.573 Y148.802 F10800.000
G1 X91.783 Y151.013 F100.000 E2.07087
G1 X91.784 Y150.464 F10800.000
G1 X89.777 Y148.458 F100.000 E2.18437
G1 X89.981 Y148.115 F10800.000
G1 X91.783 Y149.917 F100.000 E2.28632
G1 X91.784 Y149.368 F10800.000
G1 X90.186 Y147.770 F100.000 E2.37670
G1 X90.390 Y147.426 F10800.000
G1 X91.784 Y148.820 F100.000 E2.45553
G1 X91.784 Y148.272 F10800.000
G1 X90.594 Y147.083 F100.000 E2.52279
G1 X90.799 Y146.739 F10800.000
G1 X91.784 Y147.724 F100.000 E2.57851
G1 X91.784 Y147.176 F10800.000
G1 X91.003 Y146.396 F100.000 E2.62266
G1 X91.208 Y146.052 F10800.000
G1 X91.784 Y146.628 F100.000 E2.65525
G1 X91.784 Y146.080 F10800.000
G1 X91.560 Y145.857 F100.000 E2.66789
G1 F1800.000 E1.66789
G92 E0
G1 X87.811 Y149.232 F10800.000
G1 F1800.000 E1.00000
G1 X89.462 Y150.883 F100.000 E1.09340
G1 X88.914 Y150.882 F10800.000
G1 X87.256 Y149.225 F100.000 E1.18716
G1 X86.701 Y149.218 F10800.000
G1 X88.365 Y150.882 F100.000 E1.28128
G1 X87.816 Y150.881 F10800.000
G1 X86.146 Y149.211 F100.000 E1.37576
G1 X85.591 Y149.204 F10800.000
G1 X87.267 Y150.881 F100.000 E1.47060
G1 X86.719 Y150.880 F10800.000
G1 X85.036 Y149.197 F100.000 E1.56581
G1 X84.480 Y149.190 F10800.000
G1 X86.170 Y150.879 F100.000 E1.66137
G1 X85.621 Y150.878 F10800.000
G1 X82.217 Y147.473 F100.000 E1.85398
G1 X82.216 Y146.926 F10800.000
G1 X84.436 Y149.146 F100.000 E1.97957
G1 X83.738 Y147.899 F10800.000
G1 X82.217 Y146.377 F100.000 E2.06562
G1 X82.216 Y145.830 F10800.000
G1 X83.038 Y146.652 F100.000 E2.11214
G1 X82.216 Y148.022 F10800.000
G1 X85.072 Y150.878 F100.000 E2.27370
G1 X84.601 Y150.954 F10800.000
G1 X82.217 Y148.569 F100.000 E2.40858
G1 X82.216 Y149.118 F10800.000
G1 X84.400 Y151.301 F100.000 E2.53208
G1 X84.199 Y151.648 F10800.000
G1 X82.217 Y149.665 F100.000 E2.64422
G1 X82.216 Y150.214 F10800.000
G1 X83.998 Y151.995 F100.000 E2.74498
G1 X83.796 Y152.343 F10800.000
G1 X82.216 Y150.762 F100.000 E2.83438
G1 X82.216 Y151.310 F10800.000
G1 X83.596 Y152.689 F100.000 E2.91241
G1 X83.394 Y153.037 F10800.000
G1 X82.216 Y151.858 F100.000 E2.97907
G1 X82.216 Y152.406 F10800.000
