; generated by Slic3r 0.8.3 on 2012-06-15 at 13:38:10

; layer_height = 0.25
; perimeters = 3
; solid_layers = 3
; fill_density = .2
; nozzle_diameter = .35
; filament_diameter = 1.75
; extrusion_multiplier = 1
; perimeter_speed = 100
; infill_speed = 120
; travel_speed = 180
; scale = 1
; single wall width = 0.39mm

M190 S100 ; wait for bed temperature to be reached
M104 S220 ; set temperature
M104 S220 ;start extruder
G28 ; home all axes
M109 S220 ; wait for temperature to be reached
G90 ; use absolute coordinates
G21 ; set units to millimeters
G92 E0 ; reset extrusion distance
M82 ; use absolute distances for extrusion
G1 Z0.250 F10800.000
G1 X70.190 Y94.650
G1 F1800.000 E1.00000
G1 X73.300 Y91.830 F0.000 E1.16793
G1 X75.650 Y90.090 E1.28489
G1 X78.660 Y88.250 E1.42600
G1 X82.450 Y86.450 E1.59383
G1 X85.790 Y85.290 E1.73526
G1 X89.240 Y84.460 E1.87720
G1 X92.740 Y83.970 E2.01856
G1 X95.660 Y83.820 E2.13552
G1 X99.250 Y83.970 E2.27924
G1 X102.750 Y84.460 E2.42061
G1 X106.200 Y85.290 E2.56254
G1 X109.540 Y86.450 E2.70397
G1 X112.770 Y87.950 E2.84642
G1 X116.340 Y90.090 E3.01292
G1 X118.690 Y91.830 E3.12988
G1 X121.340 Y94.190 E3.27182
G1 X124.160 Y97.300 E3.43975
G1 X125.900 Y99.650 E3.55671
G1 X127.740 Y102.660 E3.69782
G1 X129.540 Y106.450 E3.86565
G1 X130.700 Y109.790 E4.00708
G1 X131.530 Y113.240 E4.14902
G1 X132.020 Y116.740 E4.29038
G1 X132.170 Y120.320 E4.43371
G1 X131.960 Y123.860 E4.57556
G1 X131.410 Y127.360 E4.71727
G1 X130.520 Y130.790 E4.85902
G1 X129.540 Y133.540 E4.97579
G1 X128.040 Y136.770 E5.11825
G1 X125.900 Y140.340 E5.28474
G1 X124.160 Y142.690 E5.40170
G1 X121.800 Y145.340 E5.54364
G1 X118.690 Y148.160 E5.71157
G1 X116.340 Y149.900 E5.82853
G1 X113.330 Y151.740 E5.96964
G1 X109.540 Y153.540 E6.13747
G1 X106.200 Y154.700 E6.27890
G1 X102.750 Y155.530 E6.42084
G1 X99.860 Y155.960 E6.53771
G1 X96.450 Y156.160 E6.67434
G1 X96.400 Y156.160 E6.67634
G1 X95.910 Y156.180 E6.69596
G1 X92.130 Y155.960 E6.84742
G1 X88.630 Y155.410 E6.98913
G1 X85.200 Y154.520 E7.13088
G1 X82.450 Y153.540 E7.24765
G1 X79.220 Y152.040 E7.39011
G1 X75.650 Y149.900 E7.55660
G1 X73.300 Y148.160 E7.67356
G1 X70.650 Y145.800 E7.81550
G1 X67.830 Y142.690 E7.98343
G1 X66.090 Y140.340 E8.10039
G1 X64.250 Y137.330 E8.24150
G1 X62.450 Y133.540 E8.40933
G1 X61.290 Y130.200 E8.55076
G1 X60.460 Y126.750 E8.69270
G1 X59.970 Y123.250 E8.83406
G1 X59.820 Y119.660 E8.97779
G1 X60.030 Y116.130 E9.11924
G1 X60.580 Y112.630 E9.26096
G1 X61.290 Y109.790 E9.37805
G1 X62.440 Y106.510 E9.51708
G1 X63.940 Y103.240 E9.66099
G1 X66.090 Y99.650 E9.82837
G1 X67.830 Y97.300 E9.94533
G1 X70.150 Y94.694 E10.08491
G1 X70.470 Y94.900 F10800.000
G1 X73.070 Y92.510 F0.000 E10.22617
G1 X75.870 Y90.400 E10.36641
G1 X78.860 Y88.570 E10.50663
G1 X82.020 Y87.040 E10.64707
G1 X85.880 Y85.660 E10.81104
G1 X88.720 Y84.950 E10.92814
G1 X92.760 Y84.350 E11.09151
G1 X95.680 Y84.200 E11.20846
G1 X99.230 Y84.350 E11.35059
G1 X103.270 Y84.950 E11.51396
G1 X106.110 Y85.660 E11.63106
G1 X109.410 Y86.810 E11.77084
G1 X109.970 Y87.040 E11.79506
G1 X113.130 Y88.570 E11.93550
G1 X116.120 Y90.400 E12.07572
G1 X118.920 Y92.510 E12.21596
G1 X121.520 Y94.900 E12.35722
G1 X123.850 Y97.520 E12.49747
G1 X125.910 Y100.350 E12.63748
G1 X127.700 Y103.380 E12.77825
G1 X128.950 Y106.020 E12.89509
G1 X130.330 Y109.880 E13.05906
G1 X131.040 Y112.720 E13.17616
G1 X131.640 Y116.760 E13.33953
G1 X131.790 Y120.300 E13.48126
G1 X131.640 Y123.230 E13.59861
G1 X131.040 Y127.270 E13.76199
G1 X130.330 Y130.110 E13.87908
G1 X129.180 Y133.410 E14.01887
G1 X128.950 Y133.970 E14.04308
G1 X127.420 Y137.130 E14.18352
G1 X125.590 Y140.120 E14.32374
G1 X123.480 Y142.920 E14.46398
G1 X121.090 Y145.520 E14.60525
G1 X118.470 Y147.850 E14.74549
G1 X115.640 Y149.910 E14.88551
G1 X112.610 Y151.700 E15.02628
G1 X109.970 Y152.950 E15.14312
G1 X106.110 Y154.330 E15.30709
G1 X103.270 Y155.040 E15.42418
G1 X99.800 Y155.580 E15.56465
G1 X96.640 Y155.770 E15.69128
G1 X96.610 Y155.770 E15.69248
G1 X96.150 Y155.800 E15.71092
G1 X92.760 Y155.640 E15.84667
G1 X88.720 Y155.040 E16.01004
G1 X85.880 Y154.330 E16.12714
G1 X82.580 Y153.180 E16.26693
G1 X82.020 Y152.950 E16.29114
G1 X78.860 Y151.420 E16.43158
G1 X75.870 Y149.590 E16.57180
G1 X73.070 Y147.480 E16.71204
G1 X70.470 Y145.090 E16.85330
G1 X68.140 Y142.470 E16.99355
G1 X66.080 Y139.640 E17.13357
G1 X64.290 Y136.610 E17.27433
G1 X63.040 Y133.970 E17.39117
G1 X61.660 Y130.110 E17.55514
G1 X60.950 Y127.270 E17.67224
G1 X60.350 Y123.230 E17.83561
G1 X60.200 Y119.680 E17.97774
G1 X60.350 Y116.760 E18.09469
G1 X60.950 Y112.720 E18.25807
G1 X61.830 Y109.320 E18.39855
G1 X63.010 Y106.110 E18.53535
G1 X64.280 Y103.400 E18.65506
G1 X66.080 Y100.350 E18.79672
G1 X68.140 Y97.520 E18.93674
G1 X70.430 Y94.944 E19.07462
G1 F1800.000 E18.07462
G92 E0
G1 X88.609 Y112.609 F10800.000
G1 F1800.000 E1.00000
G1 X89.369 Y111.920 F0.000 E1.04103
G1 X90.193 Y111.309 E1.08206
G1 X91.073 Y110.782 E1.12309
G1 X92.000 Y110.343 E1.16412
G1 X92.966 Y109.998 E1.20515
G1 X93.961 Y109.749 E1.24618
G1 X94.975 Y109.598 E1.28720
G1 X96.000 Y109.548 E1.32823
G1 X97.025 Y109.598 E1.36926
G1 X98.039 Y109.749 E1.41029
G1 X99.034 Y109.998 E1.45132
G1 X100.000 Y110.343 E1.49235
G1 X100.927 Y110.782 E1.53338
G1 X101.807 Y111.309 E1.57441
G1 X102.631 Y111.920 E1.61544
G1 X103.391 Y112.609 E1.65647
G1 X104.080 Y113.369 E1.69750
G1 X104.691 Y114.193 E1.73853
G1 X105.218 Y115.073 E1.77956
G1 X105.657 Y116.000 E1.82058
G1 X106.002 Y116.966 E1.86162
G1 X106.251 Y117.961 E1.90264
G1 X106.402 Y118.976 E1.94367
G1 X106.452 Y120.000 E1.98470
G1 X106.402 Y121.025 E2.02573
G1 X106.251 Y122.039 E2.06676
G1 X106.002 Y123.034 E2.10779
G1 X105.657 Y124.000 E2.14882
G1 X105.218 Y124.927 E2.18985
G1 X104.691 Y125.807 E2.23088
G1 X104.080 Y126.631 E2.27191
G1 X103.389 Y127.393 E2.31306
G1 X102.631 Y128.080 E2.35397
G1 X101.807 Y128.691 E2.39500
G1 X100.927 Y129.218 E2.43602
G1 X100.000 Y129.657 E2.47705
G1 X99.034 Y130.002 E2.51808
G1 X98.039 Y130.251 E2.55911
G1 X97.025 Y130.402 E2.60014
G1 X96.000 Y130.452 E2.64117
G1 X94.976 Y130.402 E2.68220
G1 X93.964 Y130.252 E2.72311
G1 X92.966 Y130.002 E2.76425
G1 X92.000 Y129.657 E2.80529
G1 X91.073 Y129.218 E2.84632
G1 X90.193 Y128.691 E2.88735
G1 X89.369 Y128.080 E2.92837
G1 X88.609 Y127.391 E2.96940
G1 X87.920 Y126.631 E3.01043
G1 X87.309 Y125.807 E3.05146
G1 X86.782 Y124.927 E3.09249
G1 X86.343 Y124.000 E3.13352
G1 X85.998 Y123.034 E3.17455
G1 X85.749 Y122.039 E3.21558
G1 X85.598 Y121.025 E3.25661
G1 X85.548 Y120.000 E3.29764
G1 X85.598 Y118.976 E3.33867
G1 X85.749 Y117.961 E3.37970
G1 X85.998 Y116.966 E3.42073
G1 X86.343 Y116.000 E3.46176
G1 X86.782 Y115.073 E3.50278
G1 X87.309 Y114.193 E3.54381
G1 X87.920 Y113.369 E3.58484
G1 X88.569 Y112.653 E3.62351
G1 X88.876 Y112.876 F10800.000
G1 X89.609 Y112.212 F0.000 E3.66305
G1 X90.403 Y111.623 E3.70260
G1 X91.251 Y111.115 E3.74215
G1 X92.145 Y110.692 E3.78170
G1 X93.075 Y110.359 E3.82125
G1 X94.034 Y110.119 E3.86079
G1 X95.012 Y109.974 E3.90034
G1 X96.000 Y109.925 E3.93989
G1 X96.988 Y109.974 E3.97944
G1 X97.966 Y110.119 E4.01899
G1 X98.925 Y110.359 E4.05853
G1 X99.855 Y110.692 E4.09808
G1 X100.749 Y111.115 E4.13763
G1 X101.597 Y111.623 E4.17718
G1 X102.391 Y112.212 E4.21672
G1 X103.124 Y112.876 E4.25627
G1 X103.788 Y113.609 E4.29582
G1 X104.377 Y114.403 E4.33537
G1 X104.885 Y115.251 E4.37492
G1 X105.308 Y116.145 E4.41446
G1 X105.641 Y117.075 E4.45401
G1 X105.881 Y118.034 E4.49356
G1 X106.026 Y119.012 E4.53311
G1 X106.075 Y120.000 E4.57265
G1 X106.026 Y120.988 E4.61220
G1 X105.881 Y121.966 E4.65175
G1 X105.641 Y122.925 E4.69130
G1 X105.308 Y123.855 E4.73085
G1 X104.885 Y124.749 E4.77039
G1 X104.377 Y125.597 E4.80994
G1 X103.788 Y126.391 E4.84949
G1 X103.122 Y127.126 E4.88916
G1 X102.391 Y127.788 E4.92858
G1 X101.597 Y128.377 E4.96813
G1 X100.749 Y128.885 E5.00768
G1 X99.855 Y129.308 E5.04723
G1 X98.925 Y129.641 E5.08678
G1 X97.966 Y129.881 E5.12632
G1 X96.988 Y130.026 E5.16587
G1 X96.000 Y130.075 E5.20542
G1 X95.012 Y130.026 E5.24497
G1 X94.037 Y129.882 E5.28440
G1 X93.076 Y129.641 E5.32406
G1 X92.145 Y129.308 E5.36361
G1 X91.251 Y128.885 E5.40316
G1 X90.403 Y128.377 E5.44271
G1 X89.609 Y127.788 E5.48225
G1 X88.876 Y127.124 E5.52180
G1 X88.212 Y126.391 E5.56135
G1 X87.623 Y125.597 E5.60090
G1 X87.115 Y124.749 E5.64044
G1 X86.692 Y123.855 E5.67999
G1 X86.359 Y122.925 E5.71954
G1 X86.119 Y121.966 E5.75909
G1 X85.974 Y120.988 E5.79864
G1 X85.925 Y120.000 E5.83818
G1 X85.974 Y119.012 E5.87773
G1 X86.119 Y118.034 E5.91728
G1 X86.359 Y117.075 E5.95683
G1 X86.692 Y116.145 E5.99638
G1 X87.115 Y115.251 E6.03592
G1 X87.623 Y114.403 E6.07547
G1 X88.212 Y113.609 E6.11502
G1 X88.836 Y112.920 E6.15220
G1 X89.143 Y113.143 F10800.000
G1 X89.848 Y112.504 F0.000 E6.19027
G1 X90.612 Y111.937 E6.22833
G1 X91.429 Y111.448 E6.26640
G1 X92.289 Y111.041 E6.30447
G1 X93.185 Y110.720 E6.34253
G1 X94.108 Y110.489 E6.38060
G1 X95.049 Y110.349 E6.41867
G1 X96.000 Y110.303 E6.45673
G1 X96.951 Y110.349 E6.49480
G1 X97.892 Y110.489 E6.53286
G1 X98.815 Y110.720 E6.57093
G1 X99.711 Y111.041 E6.60900
G1 X100.571 Y111.448 E6.64706
G1 X101.388 Y111.937 E6.68513
G1 X102.152 Y112.504 E6.72320
G1 X102.857 Y113.143 E6.76126
G1 X103.496 Y113.848 E6.79933
G1 X104.063 Y114.612 E6.83740
G1 X104.552 Y115.429 E6.87546
G1 X104.959 Y116.289 E6.91353
G1 X105.280 Y117.185 E6.95159
G1 X105.511 Y118.108 E6.98966
G1 X105.651 Y119.049 E7.02773
G1 X105.697 Y120.000 E7.06579
G1 X105.651 Y120.951 E7.10386
G1 X105.511 Y121.892 E7.14193
G1 X105.280 Y122.815 E7.17999
G1 X104.959 Y123.711 E7.21806
G1 X104.552 Y124.571 E7.25613
G1 X104.063 Y125.388 E7.29419
G1 X103.496 Y126.152 E7.33226
G1 X102.855 Y126.859 E7.37044
G1 X102.152 Y127.496 E7.40839
G1 X101.388 Y128.063 E7.44646
G1 X100.571 Y128.552 E7.48452
G1 X99.711 Y128.959 E7.52259
G1 X98.815 Y129.280 E7.56066
G1 X97.892 Y129.511 E7.59872
G1 X96.951 Y129.651 E7.63679
G1 X96.000 Y129.697 E7.67486
G1 X95.049 Y129.651 E7.71292
G1 X94.111 Y129.512 E7.75087
G1 X93.185 Y129.280 E7.78905
G1 X92.289 Y128.959 E7.82712
G1 X91.429 Y128.552 E7.86519
G1 X90.612 Y128.063 E7.90325
G1 X89.848 Y127.496 E7.94132
G1 X89.143 Y126.857 E7.97939
G1 X88.504 Y126.152 E8.01745
G1 X87.937 Y125.388 E8.05552
G1 X87.448 Y124.571 E8.09359
G1 X87.041 Y123.711 E8.13165
G1 X86.720 Y122.815 E8.16972
G1 X86.489 Y121.892 E8.20778
G1 X86.349 Y120.951 E8.24585
G1 X86.303 Y120.000 E8.28392
G1 X86.349 Y119.049 E8.32198
G1 X86.489 Y118.108 E8.36005
G1 X86.720 Y117.185 E8.39812
G1 X87.041 Y116.289 E8.43618
G1 X87.448 Y115.429 E8.47425
G1 X87.937 Y114.612 E8.51232
G1 X88.504 Y113.848 E8.55038
G1 X89.103 Y113.187 E8.58608
G1 F1800.000 E7.58608
G92 E0
G1 X107.116 Y146.837 F10800.000
G1 F1800.000 E1.00000
G1 X104.432 Y147.797 F0.000 E1.11402
G1 X101.667 Y148.490 E1.22805
G1 X98.847 Y148.908 E1.34207
G1 X95.829 Y149.056 E1.46294
G1 X95.829 Y149.039 E1.46361
G1 X93.153 Y148.908 E1.57079
G1 X90.333 Y148.490 E1.68482
G1 X87.568 Y147.797 E1.79884
G1 X84.884 Y146.837 E1.91287
G1 X82.307 Y145.618 E2.02689
G1 X79.862 Y144.152 E2.14092
G1 X77.572 Y142.454 E2.25494
G1 X75.460 Y140.540 E2.36897
G1 X73.546 Y138.428 E2.48299
G1 X71.848 Y136.138 E2.59702
G1 X70.382 Y133.693 E2.71104
G1 X69.163 Y131.116 E2.82506
G1 X68.203 Y128.432 E2.93909
G1 X67.510 Y125.667 E3.05311
G1 X67.092 Y122.847 E3.16714
G1 X66.952 Y120.000 E3.28116
G1 X67.092 Y117.153 E3.39519
G1 X67.510 Y114.333 E3.50921
G1 X68.203 Y111.568 E3.62324
G1 X69.139 Y108.952 E3.73436
G1 X70.383 Y106.306 E3.85132
G1 X71.848 Y103.862 E3.96530
G1 X73.546 Y101.572 E4.07932
G1 X75.460 Y99.460 E4.19335
G1 X77.572 Y97.546 E4.30737
G1 X79.862 Y95.848 E4.42139
G1 X82.307 Y94.382 E4.53542
G1 X84.884 Y93.163 E4.64944
G1 X87.568 Y92.203 E4.76347
G1 X90.333 Y91.510 E4.87749
G1 X93.153 Y91.092 E4.99152
G1 X96.000 Y90.952 E5.10554
G1 X98.847 Y91.092 E5.21957
G1 X101.667 Y91.510 E5.33359
G1 X104.432 Y92.203 E5.44762
G1 X107.116 Y93.163 E5.56164
G1 X109.693 Y94.382 E5.67566
G1 X112.138 Y95.848 E5.78969
G1 X114.428 Y97.546 E5.90371
G1 X116.540 Y99.460 E6.01774
G1 X118.454 Y101.572 E6.13176
G1 X120.152 Y103.862 E6.24579
G1 X121.618 Y106.307 E6.35981
G1 X122.837 Y108.884 E6.47384
G1 X123.797 Y111.568 E6.58786
G1 X124.490 Y114.333 E6.70189
G1 X124.908 Y117.153 E6.81591
G1 X125.048 Y120.000 E6.92994
G1 X124.908 Y122.847 E7.04396
G1 X124.490 Y125.667 E7.15799
G1 X123.797 Y128.432 E7.27201
G1 X122.837 Y131.116 E7.38603
G1 X121.618 Y133.693 E7.50006
G1 X120.152 Y136.138 E7.61408
G1 X118.454 Y138.428 E7.72811
G1 X116.540 Y140.540 E7.84213
G1 X114.428 Y142.454 E7.95616
G1 X112.138 Y144.152 E8.07018
G1 X109.693 Y145.618 E8.18421
G1 X107.170 Y146.811 E8.29586
G1 X107.261 Y147.185 F10800.000
G1 X104.542 Y148.158 F0.000 E8.41137
G1 X101.741 Y148.860 E8.52688
G1 X98.884 Y149.283 E8.64238
G1 X96.000 Y149.425 E8.75789
G1 X93.116 Y149.283 E8.87339
G1 X90.259 Y148.860 E8.98890
G1 X87.458 Y148.158 E9.10441
G1 X84.739 Y147.185 E9.21991
G1 X82.129 Y145.951 E9.33542
G1 X79.652 Y144.466 E9.45092
G1 X77.333 Y142.746 E9.56643
G1 X75.193 Y140.807 E9.68194
G1 X73.254 Y138.667 E9.79744
G1 X71.534 Y136.348 E9.91295
G1 X70.049 Y133.871 E10.02845
G1 X68.815 Y131.261 E10.14396
G1 X67.842 Y128.542 E10.25947
G1 X67.140 Y125.741 E10.37497
G1 X66.717 Y122.884 E10.49048
G1 X66.575 Y120.000 E10.60598
G1 X66.717 Y117.116 E10.72149
G1 X67.140 Y114.259 E10.83700
G1 X67.842 Y111.458 E10.95250
G1 X68.790 Y108.808 E11.06509
G1 X70.050 Y106.128 E11.18353
G1 X71.534 Y103.652 E11.29901
G1 X73.254 Y101.333 E11.41451
G1 X75.193 Y99.193 E11.53002
G1 X77.333 Y97.254 E11.64552
G1 X79.652 Y95.534 E11.76103
G1 X82.129 Y94.049 E11.87654
G1 X84.739 Y92.815 E11.99204
G1 X87.458 Y91.842 E12.10755
G1 X90.259 Y91.140 E12.22305
G1 X93.116 Y90.717 E12.33856
G1 X96.000 Y90.575 E12.45407
G1 X98.884 Y90.717 E12.56957
G1 X101.741 Y91.140 E12.68508
G1 X104.542 Y91.842 E12.80058
G1 X107.261 Y92.815 E12.91609
G1 X109.871 Y94.049 E13.03160
G1 X112.348 Y95.534 E13.14710
G1 X114.667 Y97.254 E13.26261
G1 X116.807 Y99.193 E13.37811
G1 X118.746 Y101.333 E13.49362
G1 X120.466 Y103.652 E13.60913
G1 X121.951 Y106.129 E13.72463
G1 X123.185 Y108.739 E13.84014
G1 X124.158 Y111.458 E13.95564
G1 X124.860 Y114.259 E14.07115
G1 X125.283 Y117.116 E14.18666
G1 X125.425 Y120.000 E14.30216
G1 X125.283 Y122.884 E14.41767
G1 X124.860 Y125.741 E14.53318
G1 X124.158 Y128.542 E14.64868
G1 X123.185 Y131.261 E14.76419
G1 X121.951 Y133.871 E14.87969
G1 X120.466 Y136.348 E14.99520
G1 X118.746 Y138.667 E15.11070
G1 X116.807 Y140.807 E15.22621
G1 X114.667 Y142.746 E15.34172
G1 X112.348 Y144.466 E15.45722
G1 X109.871 Y145.951 E15.57273
G1 X107.314 Y147.160 E15.68587
G1 X107.405 Y147.534 F10800.000
G1 X104.651 Y148.519 F0.000 E15.80286
G1 X101.814 Y149.230 E15.91984
G1 X98.921 Y149.659 E16.03683
G1 X96.000 Y149.803 E16.15382
G1 X93.079 Y149.659 E16.27081
G1 X90.186 Y149.230 E16.38779
G1 X87.349 Y148.519 E16.50478
G1 X84.595 Y147.534 E16.62177
G1 X81.951 Y146.284 E16.73876
G1 X79.443 Y144.780 E16.85574
G1 X77.093 Y143.038 E16.97273
G1 X74.926 Y141.074 E17.08972
G1 X72.962 Y138.907 E17.20671
G1 X71.220 Y136.557 E17.32369
G1 X69.716 Y134.049 E17.44068
G1 X68.466 Y131.405 E17.55767
G1 X67.481 Y128.651 E17.67466
G1 X66.770 Y125.814 E17.79164
G1 X66.341 Y122.921 E17.90863
G1 X66.197 Y120.000 E18.02562
G1 X66.341 Y117.079 E18.14261
G1 X66.770 Y114.186 E18.25959
G1 X67.481 Y111.349 E18.37658
G1 X68.441 Y108.664 E18.49063
G1 X69.717 Y105.951 E18.61055
G1 X71.220 Y103.443 E18.72753
G1 X72.962 Y101.093 E18.84452
G1 X74.926 Y98.926 E18.96150
G1 X77.093 Y96.962 E19.07849
G1 X79.443 Y95.220 E19.19548
G1 X81.951 Y93.716 E19.31247
G1 X84.595 Y92.466 E19.42945
G1 X87.349 Y91.481 E19.54644
G1 X90.186 Y90.770 E19.66343
G1 X93.079 Y90.341 E19.78042
G1 X96.000 Y90.197 E19.89740
G1 X98.921 Y90.341 E20.01439
G1 X101.814 Y90.770 E20.13138
G1 X104.651 Y91.481 E20.24837
G1 X107.405 Y92.466 E20.36535
G1 X110.049 Y93.716 E20.48234
G1 X112.557 Y95.220 E20.59933
G1 X114.907 Y96.962 E20.71632
G1 X117.074 Y98.926 E20.83330
G1 X119.038 Y101.093 E20.95029
G1 X120.780 Y103.443 E21.06728
G1 X122.284 Y105.951 E21.18427
G1 X123.534 Y108.595 E21.30125
G1 X124.519 Y111.349 E21.41824
