(** This GCode was generated by ReplicatorG 0034 **)
(*  using Skeinforge (35)  *)
(*  for a Single headed Thing-O-Matic  *)
(*  on 2012/04/22 17:40:26 (-0400) *)
(**** beginning of start.gcode ****)
(This file is for a MakerBot Thing-O-Matic)
(**** begin initialization commands ****)
G21 (set units to mm)
G90 (set positioning to absolute)
M108 R5.0 (set extruder speed)
M103 (Make sure extruder is off)
M104 S225 T0 (set extruder temperature)
M109 S100 T0 (set heated-build-platform temperature)
(**** end initialization commands ****)
(**** begin homing ****)
G162 Z F1000 (home Z axis maximum)
G92 Z10 (set Z to 0)
G1 Z0 (move z down 10)
G162 Z F150 (home Z axis maximum)
G161 X Y F2500 (home XY axes minimum)
M132 X Y Z A B (Recall stored home offsets for XYZAB axis)
(**** end homing ****)
(**** begin pre-wipe commands ****)
( Some people have had problems with the nozzle hitting )
( bolts or wipers during this pre-extrusion warmup.     )
( If this happens to you, you can change the values for )
( the X and Y positions in the following code.          )
( The goal is to have the toolhead wipe its initial     )
( extrusion near the edge of the platform, [anchor it]  )
( so as not to have it interfere with the print.        )
( This file can be found in:                            )
( replicatorg/skein_engines/skeinforge-##/skeinforge_application/ )
( prefs/<profile name [e.g. Thingomatic-ABP-Mk7]>/alterations )
G1 X25 Y-60 Z10 F3300.0 (move to waiting position)
M6 T0 (wait for toolhead parts, nozzle, HBP, etc., to reach temperature)
G0 X25 Y-57 (Position Nozzle)
G0 Z0.6     (Position Height)
M108 R4.0   (Set Extruder Speed)
M101        (Start Extruder)
G4 P1500    (Create Anchor)
(**** end pre-wipe commands ****)
(**** end of start.gcode ****)
(<creation> skeinforge </creation>)
(<version> 10.11.05 </version>)
(<extruderInitialization>)
(<craftTypeName> extrusion </craftTypeName>)
M105
(<bridgeWidthMultiplier> 1.0 </bridgeWidthMultiplier>)
(<decimalPlacesCarried> 3 </decimalPlacesCarried>)
(<layerThickness> 0.3 </layerThickness>)
(<threadSequenceString> loops perimeter infill </threadSequenceString>)
(<operatingFeedRatePerSecond> 30.0 </operatingFeedRatePerSecond>)
(<operatingFlowRate> 3.07748004586 </operatingFlowRate>)
(<orbitalFeedRatePerSecond> 15.0 </orbitalFeedRatePerSecond>)
(<travelFeedRatePerSecond> 50.0 </travelFeedRatePerSecond>)
(<perimeterWidth> 0.419 </perimeterWidth>)
(<profileName> ABS </profileName>)
(<procedureDone> carve </procedureDone>)
(<procedureDone> preface </procedureDone>)
(<procedureDone> inset </procedureDone>)
(<procedureDone> fill </procedureDone>)
(<procedureDone> multiply </procedureDone>)
(<procedureDone> speed </procedureDone>)
(<procedureDone> raft </procedureDone>)
(<procedureDone> jitter </procedureDone>)
(<procedureDone> comb </procedureDone>)
(<procedureDone> cool </procedureDone>)
(<procedureDone> outline </procedureDone>)
(<procedureDone> reversal </procedureDone>)
(<procedureDone> export </procedureDone>)
(</extruderInitialization>)
(<extrusion>)
;M113 S1.0
M108 R3.077
(<layer> 0.15 )
(<surroundingLoop>)
(<boundaryPerimeter>)
(<boundaryPoint> X-24.932 Y-8.0 Z0.15 </boundaryPoint>)
(<boundaryPoint> X-17.432 Y-8.0 Z0.15 </boundaryPoint>)
(<boundaryPoint> X-17.432 Y8.0 Z0.15 </boundaryPoint>)
(<boundaryPoint> X-24.932 Y8.0 Z0.15 </boundaryPoint>)
(<loop> inner )
M108 R1.846
G1 X-26.72 Y-29.68 Z0.15 F1080.0
M101
G1 X-26.72 Y29.68 Z0.15 F1080.0
G1 X26.72 Y29.68 Z0.15 F1080.0
G1 X26.72 Y-29.68 Z0.15 F1080.0
G1 X-26.45 Y-29.68 Z0.15 F1080.0
M108 R30.0
M102
G1 X-26.72 Y-29.68 Z0.15 F1080.0
M108 R1.846
M103
G1 X-19.02 Y-0.87 Z0.15 F3000.0
M108 R30.0
M101
G1 X-18.81 Y-0.1 Z0.15 F3000.0
M108 R1.846
G1 X-18.81 Y-0.23 Z0.15 F1080.0
G1 X-18.9 Y-0.69 Z0.15 F1080.0
G1 X-19.08 Y-1.12 Z0.15 F1080.0
G1 X-19.34 Y-1.51 Z0.15 F1080.0
G1 X-19.67 Y-1.84 Z0.15 F1080.0
G1 X-20.06 Y-2.1 Z0.15 F1080.0
G1 X-20.49 Y-2.28 Z0.15 F1080.0
G1 X-20.95 Y-2.37 Z0.15 F1080.0
G1 X-21.42 Y-2.37 Z0.15 F1080.0
G1 X-21.87 Y-2.28 Z0.15 F1080.0
G1 X-22.3 Y-2.1 Z0.15 F1080.0
G1 X-22.69 Y-1.84 Z0.15 F1080.0
G1 X-23.02 Y-1.51 Z0.15 F1080.0
G1 X-23.28 Y-1.12 Z0.15 F1080.0
G1 X-23.46 Y-0.69 Z0.15 F1080.0
G1 X-23.55 Y-0.23 Z0.15 F1080.0
G1 X-23.55 Y0.23 Z0.15 F1080.0
G1 X-23.46 Y0.69 Z0.15 F1080.0
G1 X-23.28 Y1.12 Z0.15 F1080.0
G1 X-23.02 Y1.51 Z0.15 F1080.0
G1 X-22.69 Y1.84 Z0.15 F1080.0
G1 X-22.3 Y2.1 Z0.15 F1080.0
G1 X-21.87 Y2.28 Z0.15 F1080.0
G1 X-21.42 Y2.37 Z0.15 F1080.0
G1 X-20.95 Y2.37 Z0.15 F1080.0
G1 X-20.49 Y2.28 Z0.15 F1080.0
G1 X-20.06 Y2.1 Z0.15 F1080.0
G1 X-19.67 Y1.84 Z0.15 F1080.0
G1 X-19.34 Y1.51 Z0.15 F1080.0
G1 X-19.08 Y1.12 Z0.15 F1080.0
G1 X-18.9 Y0.69 Z0.15 F1080.0
G1 X-18.81 Y0.23 Z0.15 F1080.0
G1 X-18.81 Y0.0 Z0.15 F1080.0
G1 X-18.81 Y-0.1 Z0.15 F1080.0
M103
(</loop>)
(<loop> outer )
G1 X-18.06 Y0.0 Z0.15 F3000.0
M101
G1 X-18.06 Y7.37 Z0.15 F1080.0
G1 X-24.3 Y7.37 Z0.15 F1080.0
G1 X-24.3 Y-7.37 Z0.15 F1080.0
G1 X-18.06 Y-7.37 Z0.15 F1080.0
G1 X-18.06 Y0.0 Z0.15 F1080.0
M103
(</loop>)
(<perimeter> outer )
G1 X-17.64 Y0.0 Z0.15 F3000.0
M101
G1 X-17.64 Y7.79 Z0.15 F1080.0
G1 X-24.72 Y7.79 Z0.15 F1080.0
G1 X-24.72 Y-7.79 Z0.15 F1080.0
G1 X-17.64 Y-7.79 Z0.15 F1080.0
G1 X-17.64 Y-0.27 Z0.15 F1080.0
M108 R30.0
M102
G1 X-17.64 Y0.0 Z0.15 F1080.0
M108 R1.846
M103
(</perimeter>)
(</boundaryPerimeter>)
(<surroundingLoop>)
(<boundaryPerimeter>)
(<boundaryPoint> X-19.441 Y-0.172 Z0.15 </boundaryPoint>)
(<boundaryPoint> X-19.508 Y-0.508 Z0.15 </boundaryPoint>)
(<boundaryPoint> X-19.639 Y-0.825 Z0.15 </boundaryPoint>)
(<boundaryPoint> X-19.829 Y-1.11 Z0.15 </boundaryPoint>)
(<boundaryPoint> X-20.072 Y-1.353 Z0.15 </boundaryPoint>)
(<boundaryPoint> X-20.357 Y-1.543 Z0.15 </boundaryPoint>)
(<boundaryPoint> X-20.674 Y-1.675 Z0.15 </boundaryPoint>)
(<boundaryPoint> X-21.011 Y-1.742 Z0.15 </boundaryPoint>)
(<boundaryPoint> X-21.354 Y-1.742 Z0.15 </boundaryPoint>)
(<boundaryPoint> X-21.691 Y-1.675 Z0.15 </boundaryPoint>)
(<boundaryPoint> X-22.008 Y-1.543 Z0.15 </boundaryPoint>)
(<boundaryPoint> X-22.292 Y-1.353 Z0.15 </boundaryPoint>)
(<boundaryPoint> X-22.535 Y-1.11 Z0.15 </boundaryPoint>)
(<boundaryPoint> X-22.725 Y-0.825 Z0.15 </boundaryPoint>)
(<boundaryPoint> X-22.858 Y-0.508 Z0.15 </boundaryPoint>)
(<boundaryPoint> X-22.925 Y-0.172 Z0.15 </boundaryPoint>)
(<boundaryPoint> X-22.925 Y0.172 Z0.15 </boundaryPoint>)
(<boundaryPoint> X-22.858 Y0.508 Z0.15 </boundaryPoint>)
(<boundaryPoint> X-22.725 Y0.825 Z0.15 </boundaryPoint>)
(<boundaryPoint> X-22.535 Y1.11 Z0.15 </boundaryPoint>)
(<boundaryPoint> X-22.292 Y1.353 Z0.15 </boundaryPoint>)
(<boundaryPoint> X-22.008 Y1.543 Z0.15 </boundaryPoint>)
(<boundaryPoint> X-21.691 Y1.675 Z0.15 </boundaryPoint>)
(<boundaryPoint> X-21.354 Y1.742 Z0.15 </boundaryPoint>)
(<boundaryPoint> X-21.011 Y1.742 Z0.15 </boundaryPoint>)
(<boundaryPoint> X-20.674 Y1.675 Z0.15 </boundaryPoint>)
(<boundaryPoint> X-20.357 Y1.543 Z0.15 </boundaryPoint>)
(<boundaryPoint> X-20.072 Y1.353 Z0.15 </boundaryPoint>)
(<boundaryPoint> X-19.829 Y1.11 Z0.15 </boundaryPoint>)
(<boundaryPoint> X-19.639 Y0.825 Z0.15 </boundaryPoint>)
(<boundaryPoint> X-19.508 Y0.508 Z0.15 </boundaryPoint>)
(<boundaryPoint> X-19.441 Y0.172 Z0.15 </boundaryPoint>)
(<perimeter> inner )
G1 X-18.44 Y0.1 Z0.15 F3000.0
M108 R30.0
M101
G1 X-19.23 Y0.19 Z0.15 F3000.0
M108 R1.846
G1 X-19.23 Y-0.19 Z0.15 F1080.0
G1 X-19.31 Y-0.57 Z0.15 F1080.0
G1 X-19.45 Y-0.92 Z0.15 F1080.0
G1 X-19.67 Y-1.24 Z0.15 F1080.0
G1 X-19.94 Y-1.52 Z0.15 F1080.0
G1 X-20.26 Y-1.73 Z0.15 F1080.0
G1 X-20.61 Y-1.88 Z0.15 F1080.0
G1 X-20.99 Y-1.95 Z0.15 F1080.0
G1 X-21.38 Y-1.95 Z0.15 F1080.0
G1 X-21.75 Y-1.88 Z0.15 F1080.0
G1 X-22.11 Y-1.73 Z0.15 F1080.0
G1 X-22.43 Y-1.52 Z0.15 F1080.0
G1 X-22.7 Y-1.24 Z0.15 F1080.0
G1 X-22.91 Y-0.92 Z0.15 F1080.0
G1 X-23.06 Y-0.57 Z0.15 F1080.0
G1 X-23.13 Y-0.19 Z0.15 F1080.0
G1 X-23.13 Y0.19 Z0.15 F1080.0
G1 X-23.06 Y0.57 Z0.15 F1080.0
G1 X-22.91 Y0.92 Z0.15 F1080.0
G1 X-22.7 Y1.24 Z0.15 F1080.0
G1 X-22.43 Y1.52 Z0.15 F1080.0
G1 X-22.11 Y1.73 Z0.15 F1080.0
G1 X-21.75 Y1.88 Z0.15 F1080.0
G1 X-21.38 Y1.95 Z0.15 F1080.0
G1 X-20.99 Y1.95 Z0.15 F1080.0
G1 X-20.61 Y1.88 Z0.15 F1080.0
G1 X-20.26 Y1.73 Z0.15 F1080.0
G1 X-19.94 Y1.52 Z0.15 F1080.0
G1 X-19.67 Y1.24 Z0.15 F1080.0
G1 X-19.45 Y0.92 Z0.15 F1080.0
G1 X-19.31 Y0.57 Z0.15 F1080.0
G1 X-19.28 Y0.46 Z0.15 F1080.0
M108 R30.0
M102
G1 X-19.23 Y0.19 Z0.15 F1080.0
M108 R1.846
M103
(</perimeter>)
(</boundaryPerimeter>)
(</surroundingLoop>)
G1 X-19.67 Y1.79 Z0.15 F1800.0
M108 R30.0
M101
G1 X-19.8 Y2.25 Z0.15 F1800.0
M108 R1.846
G1 X-19.8 Y7.1 Z0.15 F1080.0
G1 X-19.38 Y7.1 Z0.15 F1080.0
G1 X-19.38 Y1.93 Z0.15 F1080.0
G1 X-18.96 Y1.43 Z0.15 F1080.0
G1 X-18.96 Y7.1 Z0.15 F1080.0
G1 X-18.54 Y7.1 Z0.15 F1080.0
G1 X-18.54 Y0.53 Z0.15 F1080.0
M108 R30.0
M102
G1 X-18.54 Y0.26 Z0.15 F1080.0
M108 R1.846
M103
G1 X-19.58 Y-1.82 Z0.15 F1800.0
M108 R30.0
M101
G1 X-19.8 Y-2.25 Z0.15 F1800.0
M108 R1.846
G1 X-19.8 Y-7.1 Z0.15 F1080.0
G1 X-19.38 Y-7.1 Z0.15 F1080.0
G1 X-19.38 Y-1.93 Z0.15 F1080.0
G1 X-18.96 Y-1.43 Z0.15 F1080.0
G1 X-18.96 Y-7.1 Z0.15 F1080.0
G1 X-18.54 Y-7.1 Z0.15 F1080.0
G1 X-18.54 Y-0.53 Z0.15 F1080.0
M108 R30.0
M102
G1 X-18.54 Y-0.26 Z0.15 F1080.0
M108 R1.846
M103
G1 X-19.92 Y-2.08 Z0.15 F1800.0
M108 R30.0
M101
G1 X-20.21 Y-2.46 Z0.15 F1800.0
M108 R1.846
G1 X-20.21 Y-7.1 Z0.15 F1080.0
G1 X-20.63 Y-7.1 Z0.15 F1080.0
G1 X-20.63 Y-2.58 Z0.15 F1080.0
M103
G1 X-21.05 Y-2.64 Z0.15 F1800.0
M101
G1 X-21.05 Y-7.1 Z0.15 F1080.0
G1 X-21.47 Y-7.1 Z0.15 F1080.0
G1 X-21.47 Y-2.64 Z0.15 F1080.0
M103
G1 X-21.89 Y-2.55 Z0.15 F1800.0
M101
G1 X-21.89 Y-7.1 Z0.15 F1080.0
G1 X-22.31 Y-7.1 Z0.15 F1080.0
G1 X-22.31 Y-2.39 Z0.15 F1080.0
G1 X-22.73 Y-2.15 Z0.15 F1080.0
G1 X-22.73 Y-7.1 Z0.15 F1080.0
G1 X-23.15 Y-7.1 Z0.15 F1080.0
G1 X-23.15 Y-1.77 Z0.15 F1080.0
M103
G1 X-23.57 Y-1.15 Z0.15 F1800.0
M101
G1 X-23.57 Y-7.1 Z0.15 F1080.0
G1 X-23.99 Y-7.1 Z0.15 F1080.0
G1 X-23.99 Y7.1 Z0.15 F1080.0
G1 X-23.57 Y7.1 Z0.15 F1080.0
G1 X-23.57 Y1.15 Z0.15 F1080.0
M103
G1 X-23.15 Y1.77 Z0.15 F1800.0
M101
G1 X-23.15 Y7.1 Z0.15 F1080.0
G1 X-22.73 Y7.1 Z0.15 F1080.0
G1 X-22.73 Y2.15 Z0.15 F1080.0
G1 X-22.31 Y2.39 Z0.15 F1080.0
G1 X-22.31 Y7.1 Z0.15 F1080.0
G1 X-21.89 Y7.1 Z0.15 F1080.0
G1 X-21.89 Y2.55 Z0.15 F1080.0
M103
G1 X-21.47 Y2.64 Z0.15 F1800.0
M101
G1 X-21.47 Y7.1 Z0.15 F1080.0
G1 X-21.05 Y7.1 Z0.15 F1080.0
G1 X-21.05 Y2.64 Z0.15 F1080.0
M103
G1 X-20.63 Y2.58 Z0.15 F1800.0
M101
G1 X-20.63 Y7.1 Z0.15 F1080.0
G1 X-20.21 Y7.1 Z0.15 F1080.0
G1 X-20.21 Y2.73 Z0.15 F1080.0
M108 R30.0
M102
G1 X-20.21 Y2.46 Z0.15 F1080.0
M108 R1.846
M103
(</surroundingLoop>)
(<surroundingLoop>)
(<boundaryPerimeter>)
(<boundaryPoint> X-2.932 Y11.891 Z0.15 </boundaryPoint>)
(<boundaryPoint> X-2.932 Y27.891 Z0.15 </boundaryPoint>)
(<boundaryPoint> X-24.932 Y27.891 Z0.15 </boundaryPoint>)
(<boundaryPoint> X-24.932 Y11.891 Z0.15 </boundaryPoint>)
(<loop> inner )
G1 X-21.0 Y16.72 Z0.15 F3000.0
M108 R30.0
M101
G1 X-21.05 Y17.52 Z0.15 F3000.0
M108 R1.846
G1 X-21.42 Y17.52 Z0.15 F1080.0
G1 X-21.87 Y17.61 Z0.15 F1080.0
G1 X-22.3 Y17.79 Z0.15 F1080.0
G1 X-22.69 Y18.05 Z0.15 F1080.0
G1 X-23.02 Y18.38 Z0.15 F1080.0
G1 X-23.28 Y18.77 Z0.15 F1080.0
G1 X-23.46 Y19.2 Z0.15 F1080.0
G1 X-23.55 Y19.66 Z0.15 F1080.0
G1 X-23.55 Y20.13 Z0.15 F1080.0
G1 X-23.46 Y20.58 Z0.15 F1080.0
G1 X-23.28 Y21.01 Z0.15 F1080.0
G1 X-23.02 Y21.4 Z0.15 F1080.0
G1 X-22.69 Y21.73 Z0.15 F1080.0
G1 X-22.3 Y21.99 Z0.15 F1080.0
G1 X-21.87 Y22.17 Z0.15 F1080.0
G1 X-21.42 Y22.26 Z0.15 F1080.0
G1 X-20.95 Y22.26 Z0.15 F1080.0
G1 X-20.49 Y22.17 Z0.15 F1080.0
G1 X-20.06 Y21.99 Z0.15 F1080.0
G1 X-19.67 Y21.73 Z0.15 F1080.0
G1 X-19.34 Y21.4 Z0.15 F1080.0
G1 X-19.08 Y21.01 Z0.15 F1080.0
G1 X-18.9 Y20.58 Z0.15 F1080.0
G1 X-18.81 Y20.13 Z0.15 F1080.0
G1 X-18.81 Y19.66 Z0.15 F1080.0
G1 X-18.9 Y19.2 Z0.15 F1080.0
G1 X-19.08 Y18.77 Z0.15 F1080.0
G1 X-19.34 Y18.38 Z0.15 F1080.0
G1 X-19.67 Y18.05 Z0.15 F1080.0
G1 X-20.06 Y17.79 Z0.15 F1080.0
G1 X-20.49 Y17.61 Z0.15 F1080.0
G1 X-20.78 Y17.55 Z0.15 F1080.0
M108 R30.0
M102
G1 X-20.95 Y17.52 Z0.15 F1080.0
G1 X-21.05 Y17.52 Z0.15 F1080.0
M108 R1.846
M103
(</loop>)
(<loop> inner )
G1 X-9.84 Y19.52 Z0.15 F3000.0
M108 R30.0
M101
G1 X-9.05 Y19.66 Z0.15 F3000.0
M108 R1.846
G1 X-9.05 Y20.13 Z0.15 F1080.0
G1 X-8.96 Y20.58 Z0.15 F1080.0
G1 X-8.78 Y21.01 Z0.15 F1080.0
G1 X-8.52 Y21.4 Z0.15 F1080.0
G1 X-8.19 Y21.73 Z0.15 F1080.0
G1 X-7.8 Y21.99 Z0.15 F1080.0
G1 X-7.37 Y22.17 Z0.15 F1080.0
G1 X-6.92 Y22.26 Z0.15 F1080.0
G1 X-6.45 Y22.26 Z0.15 F1080.0
G1 X-5.99 Y22.17 Z0.15 F1080.0
G1 X-5.56 Y21.99 Z0.15 F1080.0
G1 X-5.17 Y21.73 Z0.15 F1080.0
G1 X-4.84 Y21.4 Z0.15 F1080.0
G1 X-4.58 Y21.01 Z0.15 F1080.0
G1 X-4.4 Y20.58 Z0.15 F1080.0
G1 X-4.31 Y20.13 Z0.15 F1080.0
G1 X-4.31 Y19.66 Z0.15 F1080.0
G1 X-4.4 Y19.2 Z0.15 F1080.0
G1 X-4.58 Y18.77 Z0.15 F1080.0
G1 X-4.84 Y18.38 Z0.15 F1080.0
G1 X-5.17 Y18.05 Z0.15 F1080.0
G1 X-5.56 Y17.79 Z0.15 F1080.0
G1 X-5.99 Y17.61 Z0.15 F1080.0
G1 X-6.45 Y17.52 Z0.15 F1080.0
G1 X-6.92 Y17.52 Z0.15 F1080.0
G1 X-7.37 Y17.61 Z0.15 F1080.0
G1 X-7.8 Y17.79 Z0.15 F1080.0
G1 X-8.19 Y18.05 Z0.15 F1080.0
G1 X-8.52 Y18.38 Z0.15 F1080.0
G1 X-8.78 Y18.77 Z0.15 F1080.0
G1 X-8.96 Y19.2 Z0.15 F1080.0
G1 X-9.0 Y19.39 Z0.15 F1080.0
M108 R30.0
M102
G1 X-9.05 Y19.66 Z0.15 F1080.0
M108 R1.846
M103
(</loop>)
(<loop> outer )
G1 X-7.64 Y18.09 Z0.15 F3000.0
G1 X-7.28 Y17.94 Z0.15 F3000.0
G1 X-6.88 Y17.86 Z0.15 F3000.0
G1 X-6.48 Y17.86 Z0.15 F3000.0
G1 X-6.09 Y17.94 Z0.15 F3000.0
G1 X-4.22 Y19.21 Z0.15 F3000.0
M108 R30.0
M101
G1 X-3.56 Y19.66 Z0.15 F3000.0
M108 R1.846
G1 X-3.56 Y27.26 Z0.15 F1080.0
G1 X-24.3 Y27.26 Z0.15 F1080.0
G1 X-24.3 Y12.52 Z0.15 F1080.0
G1 X-3.56 Y12.52 Z0.15 F1080.0
G1 X-3.56 Y19.66 Z0.15 F1080.0
M103
(</loop>)
(<perimeter> outer )
G1 X-3.14 Y19.66 Z0.15 F3000.0
M101
G1 X-3.14 Y27.68 Z0.15 F1080.0
G1 X-24.72 Y27.68 Z0.15 F1080.0
G1 X-24.72 Y12.1 Z0.15 F1080.0
G1 X-3.14 Y12.1 Z0.15 F1080.0
G1 X-3.14 Y19.39 Z0.15 F1080.0
M108 R30.0
M102
G1 X-3.14 Y19.66 Z0.15 F1080.0
M108 R1.846
M103
(</perimeter>)
(</boundaryPerimeter>)
(<surroundingLoop>)
(<boundaryPerimeter>)
(<boundaryPoint> X-8.226 Y20.716 Z0.15 </boundaryPoint>)
(<boundaryPoint> X-8.035 Y21.001 Z0.15 </boundaryPoint>)
(<boundaryPoint> X-7.792 Y21.244 Z0.15 </boundaryPoint>)
(<boundaryPoint> X-7.507 Y21.435 Z0.15 </boundaryPoint>)
(<boundaryPoint> X-7.19 Y21.566 Z0.15 </boundaryPoint>)
(<boundaryPoint> X-6.854 Y21.633 Z0.15 </boundaryPoint>)
(<boundaryPoint> X-6.51 Y21.633 Z0.15 </boundaryPoint>)
(<boundaryPoint> X-6.174 Y21.566 Z0.15 </boundaryPoint>)
(<boundaryPoint> X-5.857 Y21.435 Z0.15 </boundaryPoint>)
(<boundaryPoint> X-5.572 Y21.244 Z0.15 </boundaryPoint>)
(<boundaryPoint> X-5.329 Y21.001 Z0.15 </boundaryPoint>)
(<boundaryPoint> X-5.139 Y20.716 Z0.15 </boundaryPoint>)
(<boundaryPoint> X-5.007 Y20.399 Z0.15 </boundaryPoint>)
(<boundaryPoint> X-4.94 Y20.063 Z0.15 </boundaryPoint>)
(<boundaryPoint> X-4.94 Y19.72 Z0.15 </boundaryPoint>)
(<boundaryPoint> X-5.007 Y19.383 Z0.15 </boundaryPoint>)
(<boundaryPoint> X-5.139 Y19.066 Z0.15 </boundaryPoint>)
(<boundaryPoint> X-5.329 Y18.781 Z0.15 </boundaryPoint>)
(<boundaryPoint> X-5.572 Y18.538 Z0.15 </boundaryPoint>)
(<boundaryPoint> X-5.857 Y18.348 Z0.15 </boundaryPoint>)
(<boundaryPoint> X-6.174 Y18.217 Z0.15 </boundaryPoint>)
(<boundaryPoint> X-6.51 Y18.15 Z0.15 </boundaryPoint>)
(<boundaryPoint> X-6.854 Y18.15 Z0.15 </boundaryPoint>)
(<boundaryPoint> X-7.19 Y18.217 Z0.15 </boundaryPoint>)
(<boundaryPoint> X-7.507 Y18.348 Z0.15 </boundaryPoint>)
(<boundaryPoint> X-7.792 Y18.538 Z0.15 </boundaryPoint>)
(<boundaryPoint> X-8.035 Y18.781 Z0.15 </boundaryPoint>)
(<boundaryPoint> X-8.226 Y19.066 Z0.15 </boundaryPoint>)
(<boundaryPoint> X-8.357 Y19.383 Z0.15 </boundaryPoint>)
(<boundaryPoint> X-8.424 Y19.72 Z0.15 </boundaryPoint>)
(<boundaryPoint> X-8.424 Y20.063 Z0.15 </boundaryPoint>)
(<boundaryPoint> X-8.357 Y20.399 Z0.15 </boundaryPoint>)
(<perimeter> inner )
G1 X-3.93 Y19.68 Z0.15 F3000.0
M108 R30.0
M101
G1 X-4.73 Y19.7 Z0.15 F3000.0
M108 R1.846
G1 X-4.81 Y19.32 Z0.15 F1080.0
G1 X-4.95 Y18.97 Z0.15 F1080.0
G1 X-5.17 Y18.65 Z0.15 F1080.0
G1 X-5.44 Y18.38 Z0.15 F1080.0
G1 X-5.76 Y18.16 Z0.15 F1080.0
G1 X-6.11 Y18.02 Z0.15 F1080.0
G1 X-6.49 Y17.94 Z0.15 F1080.0
G1 X-6.88 Y17.94 Z0.15 F1080.0
G1 X-7.25 Y18.02 Z0.15 F1080.0
G1 X-7.61 Y18.16 Z0.15 F1080.0
G1 X-7.92 Y18.38 Z0.15 F1080.0
G1 X-8.2 Y18.65 Z0.15 F1080.0
G1 X-8.41 Y18.97 Z0.15 F1080.0
G1 X-8.56 Y19.32 Z0.15 F1080.0
G1 X-8.63 Y19.7 Z0.15 F1080.0
G1 X-8.63 Y20.08 Z0.15 F1080.0
G1 X-8.56 Y20.46 Z0.15 F1080.0
G1 X-8.41 Y20.82 Z0.15 F1080.0
G1 X-8.2 Y21.13 Z0.15 F1080.0
G1 X-7.93 Y21.41 Z0.15 F1080.0
G1 X-7.61 Y21.62 Z0.15 F1080.0
G1 X-7.25 Y21.77 Z0.15 F1080.0
G1 X-6.88 Y21.84 Z0.15 F1080.0
G1 X-6.49 Y21.84 Z0.15 F1080.0
G1 X-6.11 Y21.77 Z0.15 F1080.0
G1 X-5.76 Y21.62 Z0.15 F1080.0
G1 X-5.44 Y21.41 Z0.15 F1080.0
G1 X-5.17 Y21.13 Z0.15 F1080.0
G1 X-4.95 Y20.82 Z0.15 F1080.0
G1 X-4.81 Y20.46 Z0.15 F1080.0
G1 X-4.73 Y20.08 Z0.15 F1080.0
G1 X-4.73 Y19.97 Z0.15 F1080.0
M108 R30.0
M102
G1 X-4.73 Y19.7 Z0.15 F1080.0
M108 R1.846
M103
(</perimeter>)
(</boundaryPerimeter>)
(</surroundingLoop>)
(<surroundingLoop>)
(<boundaryPerimeter>)
(<boundaryPoint> X-22.725 Y20.716 Z0.15 </boundaryPoint>)
(<boundaryPoint> X-22.535 Y21.001 Z0.15 </boundaryPoint>)
(<boundaryPoint> X-22.292 Y21.244 Z0.15 </boundaryPoint>)
(<boundaryPoint> X-22.008 Y21.435 Z0.15 </boundaryPoint>)
(<boundaryPoint> X-21.691 Y21.566 Z0.15 </boundaryPoint>)
(<boundaryPoint> X-21.354 Y21.633 Z0.15 </boundaryPoint>)
(<boundaryPoint> X-21.011 Y21.633 Z0.15 </boundaryPoint>)
(<boundaryPoint> X-20.674 Y21.566 Z0.15 </boundaryPoint>)
(<boundaryPoint> X-20.357 Y21.435 Z0.15 </boundaryPoint>)
(<boundaryPoint> X-20.072 Y21.244 Z0.15 </boundaryPoint>)
(<boundaryPoint> X-19.829 Y21.001 Z0.15 </boundaryPoint>)
(<boundaryPoint> X-19.639 Y20.716 Z0.15 </boundaryPoint>)
(<boundaryPoint> X-19.508 Y20.399 Z0.15 </boundaryPoint>)
(<boundaryPoint> X-19.441 Y20.063 Z0.15 </boundaryPoint>)
(<boundaryPoint> X-19.441 Y19.72 Z0.15 </boundaryPoint>)
(<boundaryPoint> X-19.508 Y19.383 Z0.15 </boundaryPoint>)
(<boundaryPoint> X-19.639 Y19.066 Z0.15 </boundaryPoint>)
(<boundaryPoint> X-19.829 Y18.781 Z0.15 </boundaryPoint>)
(<boundaryPoint> X-20.072 Y18.538 Z0.15 </boundaryPoint>)
(<boundaryPoint> X-20.357 Y18.348 Z0.15 </boundaryPoint>)
(<boundaryPoint> X-20.674 Y18.217 Z0.15 </boundaryPoint>)
(<boundaryPoint> X-21.011 Y18.15 Z0.15 </boundaryPoint>)
(<boundaryPoint> X-21.354 Y18.15 Z0.15 </boundaryPoint>)
(<boundaryPoint> X-21.691 Y18.217 Z0.15 </boundaryPoint>)
(<boundaryPoint> X-22.008 Y18.348 Z0.15 </boundaryPoint>)
(<boundaryPoint> X-22.292 Y18.538 Z0.15 </boundaryPoint>)
(<boundaryPoint> X-22.535 Y18.781 Z0.15 </boundaryPoint>)
(<boundaryPoint> X-22.725 Y19.066 Z0.15 </boundaryPoint>)
(<boundaryPoint> X-22.858 Y19.383 Z0.15 </boundaryPoint>)
(<boundaryPoint> X-22.925 Y19.72 Z0.15 </boundaryPoint>)
(<boundaryPoint> X-22.925 Y20.063 Z0.15 </boundaryPoint>)
(<boundaryPoint> X-22.858 Y20.399 Z0.15 </boundaryPoint>)
(<perimeter> inner )
G1 X-4.88 Y18.93 Z0.15 F3000.0
G1 X-5.1 Y18.6 Z0.15 F3000.0
G1 X-5.39 Y18.31 Z0.15 F3000.0
G1 X-5.72 Y18.09 Z0.15 F3000.0
G1 X-6.09 Y17.94 Z0.15 F3000.0
G1 X-6.48 Y17.86 Z0.15 F3000.0
G1 X-18.44 Y19.59 Z0.15 F3000.0
M108 R30.0
M101
G1 X-19.23 Y19.7 Z0.15 F3000.0
M108 R1.846
G1 X-19.31 Y19.32 Z0.15 F1080.0
G1 X-19.45 Y18.97 Z0.15 F1080.0
G1 X-19.67 Y18.65 Z0.15 F1080.0
G1 X-19.94 Y18.38 Z0.15 F1080.0
G1 X-20.26 Y18.16 Z0.15 F1080.0
G1 X-20.61 Y18.02 Z0.15 F1080.0
G1 X-20.99 Y17.94 Z0.15 F1080.0
G1 X-21.38 Y17.94 Z0.15 F1080.0
G1 X-21.75 Y18.02 Z0.15 F1080.0
G1 X-22.11 Y18.16 Z0.15 F1080.0
G1 X-22.43 Y18.38 Z0.15 F1080.0
G1 X-22.7 Y18.65 Z0.15 F1080.0
G1 X-22.91 Y18.97 Z0.15 F1080.0
G1 X-23.06 Y19.32 Z0.15 F1080.0
G1 X-23.13 Y19.7 Z0.15 F1080.0
G1 X-23.13 Y20.08 Z0.15 F1080.0
G1 X-23.06 Y20.46 Z0.15 F1080.0
G1 X-22.91 Y20.82 Z0.15 F1080.0
G1 X-22.7 Y21.13 Z0.15 F1080.0
G1 X-22.43 Y21.41 Z0.15 F1080.0
G1 X-22.11 Y21.62 Z0.15 F1080.0
G1 X-21.75 Y21.77 Z0.15 F1080.0
G1 X-21.38 Y21.84 Z0.15 F1080.0
G1 X-20.99 Y21.84 Z0.15 F1080.0
G1 X-20.61 Y21.77 Z0.15 F1080.0
G1 X-20.26 Y21.62 Z0.15 F1080.0
G1 X-19.94 Y21.41 Z0.15 F1080.0
G1 X-19.67 Y21.13 Z0.15 F1080.0
G1 X-19.45 Y20.82 Z0.15 F1080.0
G1 X-19.31 Y20.46 Z0.15 F1080.0
G1 X-19.23 Y20.08 Z0.15 F1080.0
G1 X-19.23 Y19.97 Z0.15 F1080.0
M108 R30.0
M102
G1 X-19.23 Y19.7 Z0.15 F1080.0
M108 R1.846
M103
(</perimeter>)
(</boundaryPerimeter>)
(</surroundingLoop>)
G1 X-7.7 Y17.4 Z0.15 F1800.0
M108 R30.0
M101
G1 X-7.23 Y17.31 Z0.15 F1800.0
M108 R1.846
G1 X-7.23 Y12.79 Z0.15 F1080.0
G1 X-7.65 Y12.79 Z0.15 F1080.0
G1 X-7.65 Y17.43 Z0.15 F1080.0
G1 X-8.07 Y17.64 Z0.15 F1080.0
G1 X-8.07 Y12.79 Z0.15 F1080.0
G1 X-8.49 Y12.79 Z0.15 F1080.0
G1 X-8.49 Y17.96 Z0.15 F1080.0
G1 X-8.9 Y18.46 Z0.15 F1080.0
G1 X-8.9 Y12.79 Z0.15 F1080.0
G1 X-9.32 Y12.79 Z0.15 F1080.0
G1 X-9.32 Y26.99 Z0.15 F1080.0
G1 X-9.74 Y26.99 Z0.15 F1080.0
G1 X-9.74 Y12.79 Z0.15 F1080.0
G1 X-10.16 Y12.79 Z0.15 F1080.0
G1 X-10.16 Y26.99 Z0.15 F1080.0
G1 X-10.58 Y26.99 Z0.15 F1080.0
G1 X-10.58 Y12.79 Z0.15 F1080.0
G1 X-11.0 Y12.79 Z0.15 F1080.0
G1 X-11.0 Y26.99 Z0.15 F1080.0
G1 X-11.42 Y26.99 Z0.15 F1080.0
G1 X-11.42 Y12.79 Z0.15 F1080.0
G1 X-11.84 Y12.79 Z0.15 F1080.0
G1 X-11.84 Y26.99 Z0.15 F1080.0
G1 X-12.26 Y26.99 Z0.15 F1080.0
G1 X-12.26 Y12.79 Z0.15 F1080.0
G1 X-12.68 Y12.79 Z0.15 F1080.0
G1 X-12.68 Y26.99 Z0.15 F1080.0
G1 X-13.1 Y26.99 Z0.15 F1080.0
G1 X-13.1 Y12.79 Z0.15 F1080.0
G1 X-13.51 Y12.79 Z0.15 F1080.0
G1 X-13.51 Y26.99 Z0.15 F1080.0
G1 X-13.93 Y26.99 Z0.15 F1080.0
G1 X-13.93 Y12.79 Z0.15 F1080.0
G1 X-14.35 Y12.79 Z0.15 F1080.0
G1 X-14.35 Y26.99 Z0.15 F1080.0
G1 X-14.77 Y26.99 Z0.15 F1080.0
G1 X-14.77 Y12.79 Z0.15 F1080.0
G1 X-15.19 Y12.79 Z0.15 F1080.0
G1 X-15.19 Y26.99 Z0.15 F1080.0
G1 X-15.61 Y26.99 Z0.15 F1080.0
G1 X-15.61 Y12.79 Z0.15 F1080.0
G1 X-16.03 Y12.79 Z0.15 F1080.0
G1 X-16.03 Y26.99 Z0.15 F1080.0
G1 X-16.45 Y26.99 Z0.15 F1080.0
G1 X-16.45 Y12.79 Z0.15 F1080.0
G1 X-16.86 Y12.79 Z0.15 F1080.0
G1 X-16.86 Y26.99 Z0.15 F1080.0
G1 X-17.28 Y26.99 Z0.15 F1080.0
G1 X-17.28 Y12.79 Z0.15 F1080.0
G1 X-17.7 Y12.79 Z0.15 F1080.0
G1 X-17.7 Y26.99 Z0.15 F1080.0
G1 X-18.12 Y26.99 Z0.15 F1080.0
G1 X-18.12 Y12.79 Z0.15 F1080.0
G1 X-18.54 Y12.79 Z0.15 F1080.0
G1 X-18.54 Y19.63 Z0.15 F1080.0
M103
G1 X-18.54 Y20.15 Z0.15 F1800.0
M101
G1 X-18.54 Y26.99 Z0.15 F1080.0
G1 X-18.96 Y26.99 Z0.15 F1080.0
G1 X-18.96 Y21.32 Z0.15 F1080.0
M103
G1 X-19.38 Y21.82 Z0.15 F1800.0
M101
G1 X-19.38 Y26.99 Z0.15 F1080.0
G1 X-19.8 Y26.99 Z0.15 F1080.0
G1 X-19.8 Y22.14 Z0.15 F1080.0
M103
G1 X-20.21 Y22.35 Z0.15 F1800.0
M101
G1 X-20.21 Y26.99 Z0.15 F1080.0
G1 X-20.63 Y26.99 Z0.15 F1080.0
G1 X-20.63 Y22.48 Z0.15 F1080.0
M103
G1 X-21.05 Y22.53 Z0.15 F1800.0
M101
G1 X-21.05 Y26.99 Z0.15 F1080.0
G1 X-21.47 Y26.99 Z0.15 F1080.0
G1 X-21.47 Y22.53 Z0.15 F1080.0
M103
G1 X-21.89 Y22.44 Z0.15 F1800.0
M101
G1 X-21.89 Y26.99 Z0.15 F1080.0
G1 X-22.31 Y26.99 Z0.15 F1080.0
G1 X-22.31 Y22.29 Z0.15 F1080.0
G1 X-22.73 Y22.04 Z0.15 F1080.0
G1 X-22.73 Y26.99 Z0.15 F1080.0
G1 X-23.15 Y26.99 Z0.15 F1080.0
G1 X-23.15 Y21.66 Z0.15 F1080.0
M103
G1 X-23.57 Y21.04 Z0.15 F1800.0
M101
G1 X-23.57 Y26.99 Z0.15 F1080.0
G1 X-23.99 Y26.99 Z0.15 F1080.0
G1 X-23.99 Y12.79 Z0.15 F1080.0
G1 X-23.57 Y12.79 Z0.15 F1080.0
G1 X-23.57 Y18.74 Z0.15 F1080.0
M103
G1 X-23.15 Y18.12 Z0.15 F1800.0
M101
G1 X-23.15 Y12.79 Z0.15 F1080.0
G1 X-22.73 Y12.79 Z0.15 F1080.0
G1 X-22.73 Y17.75 Z0.15 F1080.0
G1 X-22.31 Y17.5 Z0.15 F1080.0
G1 X-22.31 Y12.79 Z0.15 F1080.0
G1 X-21.89 Y12.79 Z0.15 F1080.0
G1 X-21.89 Y17.34 Z0.15 F1080.0
M103
G1 X-21.47 Y17.25 Z0.15 F1800.0
M101
G1 X-21.47 Y12.79 Z0.15 F1080.0
G1 X-21.05 Y12.79 Z0.15 F1080.0
G1 X-21.05 Y17.25 Z0.15 F1080.0
M103
G1 X-20.63 Y17.31 Z0.15 F1800.0
M101
G1 X-20.63 Y12.79 Z0.15 F1080.0
G1 X-20.21 Y12.79 Z0.15 F1080.0
G1 X-20.21 Y17.43 Z0.15 F1080.0
G1 X-19.8 Y17.64 Z0.15 F1080.0
G1 X-19.8 Y12.79 Z0.15 F1080.0
G1 X-19.38 Y12.79 Z0.15 F1080.0
G1 X-19.38 Y17.96 Z0.15 F1080.0
G1 X-18.96 Y18.46 Z0.15 F1080.0
G1 X-18.96 Y13.06 Z0.15 F1080.0
M108 R30.0
M102
G1 X-18.96 Y12.79 Z0.15 F1080.0
M108 R1.846
M103
G1 X-6.84 Y17.09 Z0.15 F1800.0
M108 R30.0
M101
G1 X-6.39 Y17.25 Z0.15 F1800.0
M108 R1.846
G1 X-6.39 Y12.79 Z0.15 F1080.0
G1 X-6.81 Y12.79 Z0.15 F1080.0
G1 X-6.81 Y16.98 Z0.15 F1080.0
M108 R30.0
M102
G1 X-6.81 Y17.25 Z0.15 F1080.0
M108 R1.846
M103
G1 X-5.16 Y17.94 Z0.15 F1800.0
M108 R30.0
M101
G1 X-4.72 Y18.12 Z0.15 F1800.0
M108 R1.846
G1 X-4.72 Y12.79 Z0.15 F1080.0
G1 X-5.14 Y12.79 Z0.15 F1080.0
G1 X-5.14 Y17.75 Z0.15 F1080.0
G1 X-5.55 Y17.5 Z0.15 F1080.0
G1 X-5.55 Y12.79 Z0.15 F1080.0
G1 X-5.97 Y12.79 Z0.15 F1080.0
G1 X-5.97 Y17.07 Z0.15 F1080.0
M108 R30.0
M102
G1 X-5.97 Y17.34 Z0.15 F1080.0
M108 R1.846
M103
G1 X-4.67 Y18.43 Z0.15 F1800.0
M108 R30.0
M101
G1 X-4.3 Y18.74 Z0.15 F1800.0
M108 R1.846
G1 X-4.3 Y12.79 Z0.15 F1080.0
G1 X-3.88 Y12.79 Z0.15 F1080.0
G1 X-3.88 Y26.72 Z0.15 F1080.0
M108 R30.0
M102
G1 X-3.88 Y26.99 Z0.15 F1080.0
M108 R1.846
M103
G1 X-5.39 Y22.74 Z0.15 F1800.0
M108 R30.0
M101
G1 X-5.55 Y22.29 Z0.15 F1800.0
M108 R1.846
G1 X-5.55 Y26.99 Z0.15 F1080.0
G1 X-5.14 Y26.99 Z0.15 F1080.0
G1 X-5.14 Y22.04 Z0.15 F1080.0
G1 X-4.72 Y21.66 Z0.15 F1080.0
G1 X-4.72 Y26.99 Z0.15 F1080.0
G1 X-4.3 Y26.99 Z0.15 F1080.0
G1 X-4.3 Y21.31 Z0.15 F1080.0
M108 R30.0
M102
G1 X-4.3 Y21.04 Z0.15 F1080.0
M108 R1.846
M103
G1 X-6.8 Y22.27 Z0.15 F1800.0
M108 R30.0
M101
G1 X-7.23 Y22.48 Z0.15 F1800.0
M108 R1.846
G1 X-7.23 Y26.99 Z0.15 F1080.0
G1 X-6.81 Y26.99 Z0.15 F1080.0
G1 X-6.81 Y22.53 Z0.15 F1080.0
G1 X-6.39 Y22.53 Z0.15 F1080.0
G1 X-6.39 Y26.99 Z0.15 F1080.0
G1 X-5.97 Y26.99 Z0.15 F1080.0
G1 X-5.97 Y22.71 Z0.15 F1080.0
M108 R30.0
M102
G1 X-5.97 Y22.44 Z0.15 F1080.0
M108 R1.846
M103
G1 X-8.46 Y21.49 Z0.15 F1800.0
M108 R30.0
M101
G1 X-8.9 Y21.32 Z0.15 F1800.0
M108 R1.846
G1 X-8.9 Y26.99 Z0.15 F1080.0
G1 X-8.49 Y26.99 Z0.15 F1080.0
G1 X-8.49 Y21.82 Z0.15 F1080.0
G1 X-8.07 Y22.14 Z0.15 F1080.0
G1 X-8.07 Y26.99 Z0.15 F1080.0
G1 X-7.65 Y26.99 Z0.15 F1080.0
G1 X-7.65 Y22.62 Z0.15 F1080.0
M108 R30.0
M102
G1 X-7.65 Y22.35 Z0.15 F1080.0
M108 R1.846
M103
(</surroundingLoop>)
(<surroundingLoop>)
(<boundaryPerimeter>)
(<boundaryPoint> X-10.432 Y-8.0 Z0.15 </boundaryPoint>)
(<boundaryPoint> X-2.932 Y-8.0 Z0.15 </boundaryPoint>)
(<boundaryPoint> X-2.932 Y8.0 Z0.15 </boundaryPoint>)
(<boundaryPoint> X-10.432 Y8.0 Z0.15 </boundaryPoint>)
(<loop> inner )
G1 X-8.71 Y20.09 Z0.15 F3000.0
G1 X-8.71 Y19.69 Z0.15 F3000.0
G1 X-8.64 Y19.3 Z0.15 F3000.0
G1 X-8.48 Y18.93 Z0.15 F3000.0
G1 X-8.26 Y18.6 Z0.15 F3000.0
G1 X-7.98 Y18.31 Z0.15 F3000.0
G1 X-7.64 Y18.09 Z0.15 F3000.0
G1 X-7.59 Y18.07 Z0.15 F3000.0
G1 X-6.86 Y3.17 Z0.15 F3000.0
M108 R30.0
M101
G1 X-6.82 Y2.37 Z0.15 F3000.0
M108 R1.846
G1 X-6.45 Y2.37 Z0.15 F1080.0
G1 X-5.99 Y2.28 Z0.15 F1080.0
G1 X-5.56 Y2.1 Z0.15 F1080.0
G1 X-5.17 Y1.84 Z0.15 F1080.0
G1 X-4.84 Y1.51 Z0.15 F1080.0
G1 X-4.58 Y1.12 Z0.15 F1080.0
G1 X-4.4 Y0.69 Z0.15 F1080.0
G1 X-4.31 Y0.23 Z0.15 F1080.0
G1 X-4.31 Y-0.23 Z0.15 F1080.0
G1 X-4.4 Y-0.69 Z0.15 F1080.0
G1 X-4.58 Y-1.12 Z0.15 F1080.0
G1 X-4.84 Y-1.51 Z0.15 F1080.0
G1 X-5.17 Y-1.84 Z0.15 F1080.0
G1 X-5.56 Y-2.1 Z0.15 F1080.0
G1 X-5.99 Y-2.28 Z0.15 F1080.0
G1 X-6.45 Y-2.37 Z0.15 F1080.0
G1 X-6.92 Y-2.37 Z0.15 F1080.0
G1 X-7.37 Y-2.28 Z0.15 F1080.0
G1 X-7.8 Y-2.1 Z0.15 F1080.0
G1 X-8.19 Y-1.84 Z0.15 F1080.0
G1 X-8.52 Y-1.51 Z0.15 F1080.0
G1 X-8.78 Y-1.12 Z0.15 F1080.0
G1 X-8.96 Y-0.69 Z0.15 F1080.0
G1 X-9.05 Y-0.23 Z0.15 F1080.0
G1 X-9.05 Y0.23 Z0.15 F1080.0
G1 X-8.96 Y0.69 Z0.15 F1080.0
G1 X-8.78 Y1.12 Z0.15 F1080.0
G1 X-8.52 Y1.51 Z0.15 F1080.0
G1 X-8.19 Y1.84 Z0.15 F1080.0
G1 X-7.8 Y2.1 Z0.15 F1080.0
G1 X-7.37 Y2.28 Z0.15 F1080.0
G1 X-7.08 Y2.34 Z0.15 F1080.0
M108 R30.0
M102
G1 X-6.92 Y2.37 Z0.15 F1080.0
G1 X-6.82 Y2.37 Z0.15 F1080.0
M108 R1.846
M103
(</loop>)
(<loop> outer )
G1 X-9.0 Y2.37 Z0.15 F3000.0
M108 R30.0
M101
G1 X-9.8 Y2.37 Z0.15 F3000.0
M108 R1.846
G1 X-9.8 Y-7.37 Z0.15 F1080.0
G1 X-3.56 Y-7.37 Z0.15 F1080.0
G1 X-3.56 Y7.37 Z0.15 F1080.0
G1 X-9.8 Y7.37 Z0.15 F1080.0
G1 X-9.8 Y2.37 Z0.15 F1080.0
M103
(</loop>)
(<perimeter> outer )
G1 X-10.22 Y2.37 Z0.15 F3000.0
M101
G1 X-10.22 Y-7.79 Z0.15 F1080.0
G1 X-3.14 Y-7.79 Z0.15 F1080.0
G1 X-3.14 Y7.79 Z0.15 F1080.0
G1 X-10.22 Y7.79 Z0.15 F1080.0
G1 X-10.22 Y2.64 Z0.15 F1080.0
M108 R30.0
M102
G1 X-10.22 Y2.37 Z0.15 F1080.0
M108 R1.846
M103
(</perimeter>)
(</boundaryPerimeter>)
(<surroundingLoop>)
(<boundaryPerimeter>)
(<boundaryPoint> X-4.94 Y-0.172 Z0.15 </boundaryPoint>)
(<boundaryPoint> X-5.007 Y-0.508 Z0.15 </boundaryPoint>)
(<boundaryPoint> X-5.139 Y-0.825 Z0.15 </boundaryPoint>)
(<boundaryPoint> X-5.329 Y-1.11 Z0.15 </boundaryPoint>)
(<boundaryPoint> X-5.572 Y-1.353 Z0.15 </boundaryPoint>)
(<boundaryPoint> X-5.857 Y-1.543 Z0.15 </boundaryPoint>)
(<boundaryPoint> X-6.174 Y-1.675 Z0.15 </boundaryPoint>)
(<boundaryPoint> X-6.51 Y-1.742 Z0.15 </boundaryPoint>)
(<boundaryPoint> X-6.854 Y-1.742 Z0.15 </boundaryPoint>)
(<boundaryPoint> X-7.19 Y-1.675 Z0.15 </boundaryPoint>)
(<boundaryPoint> X-7.507 Y-1.543 Z0.15 </boundaryPoint>)
(<boundaryPoint> X-7.792 Y-1.353 Z0.15 </boundaryPoint>)
(<boundaryPoint> X-8.035 Y-1.11 Z0.15 </boundaryPoint>)
(<boundaryPoint> X-8.226 Y-0.825 Z0.15 </boundaryPoint>)
(<boundaryPoint> X-8.357 Y-0.508 Z0.15 </boundaryPoint>)
(<boundaryPoint> X-8.424 Y-0.172 Z0.15 </boundaryPoint>)
(<boundaryPoint> X-8.424 Y0.172 Z0.15 </boundaryPoint>)
(<boundaryPoint> X-8.357 Y0.508 Z0.15 </boundaryPoint>)
(<boundaryPoint> X-8.226 Y0.825 Z0.15 </boundaryPoint>)
(<boundaryPoint> X-8.035 Y1.11 Z0.15 </boundaryPoint>)
(<boundaryPoint> X-7.792 Y1.353 Z0.15 </boundaryPoint>)
(<boundaryPoint> X-7.507 Y1.543 Z0.15 </boundaryPoint>)
(<boundaryPoint> X-7.19 Y1.675 Z0.15 </boundaryPoint>)
(<boundaryPoint> X-6.854 Y1.742 Z0.15 </boundaryPoint>)
(<boundaryPoint> X-6.51 Y1.742 Z0.15 </boundaryPoint>)
(<boundaryPoint> X-6.174 Y1.675 Z0.15 </boundaryPoint>)
(<boundaryPoint> X-5.857 Y1.543 Z0.15 </boundaryPoint>)
(<boundaryPoint> X-5.572 Y1.353 Z0.15 </boundaryPoint>)
(<boundaryPoint> X-5.329 Y1.11 Z0.15 </boundaryPoint>)
(<boundaryPoint> X-5.139 Y0.825 Z0.15 </boundaryPoint>)
(<boundaryPoint> X-5.007 Y0.508 Z0.15 </boundaryPoint>)
(<boundaryPoint> X-4.94 Y0.172 Z0.15 </boundaryPoint>)
(<perimeter> inner )
G1 X-9.04 Y1.42 Z0.15 F3000.0
M108 R30.0
M101
G1 X-8.41 Y0.92 Z0.15 F3000.0
M108 R1.846
G1 X-8.2 Y1.24 Z0.15 F1080.0
G1 X-7.92 Y1.52 Z0.15 F1080.0
G1 X-7.61 Y1.73 Z0.15 F1080.0
G1 X-7.25 Y1.88 Z0.15 F1080.0
G1 X-6.88 Y1.95 Z0.15 F1080.0
G1 X-6.49 Y1.95 Z0.15 F1080.0
G1 X-6.11 Y1.88 Z0.15 F1080.0
G1 X-5.76 Y1.73 Z0.15 F1080.0
G1 X-5.44 Y1.52 Z0.15 F1080.0
G1 X-5.17 Y1.24 Z0.15 F1080.0
G1 X-4.95 Y0.92 Z0.15 F1080.0
G1 X-4.81 Y0.57 Z0.15 F1080.0
G1 X-4.73 Y0.19 Z0.15 F1080.0
G1 X-4.73 Y-0.19 Z0.15 F1080.0
G1 X-4.81 Y-0.57 Z0.15 F1080.0
G1 X-4.95 Y-0.92 Z0.15 F1080.0
G1 X-5.17 Y-1.24 Z0.15 F1080.0
G1 X-5.44 Y-1.52 Z0.15 F1080.0
G1 X-5.76 Y-1.73 Z0.15 F1080.0
G1 X-6.11 Y-1.88 Z0.15 F1080.0
G1 X-6.49 Y-1.95 Z0.15 F1080.0
G1 X-6.88 Y-1.95 Z0.15 F1080.0
G1 X-7.25 Y-1.88 Z0.15 F1080.0
G1 X-7.61 Y-1.73 Z0.15 F1080.0
G1 X-7.92 Y-1.52 Z0.15 F1080.0
G1 X-8.2 Y-1.24 Z0.15 F1080.0
G1 X-8.41 Y-0.92 Z0.15 F1080.0
G1 X-8.56 Y-0.57 Z0.15 F1080.0
G1 X-8.63 Y-0.19 Z0.15 F1080.0
G1 X-8.63 Y0.19 Z0.15 F1080.0
G1 X-8.56 Y0.57 Z0.15 F1080.0
G1 X-8.52 Y0.67 Z0.15 F1080.0
M108 R30.0
M102
G1 X-8.41 Y0.92 Z0.15 F1080.0
M108 R1.846
M103
(</perimeter>)
(</boundaryPerimeter>)
(</surroundingLoop>)
G1 X-8.19 Y1.79 Z0.15 F1800.0
M108 R30.0
M101
G1 X-8.07 Y2.25 Z0.15 F1800.0
M108 R1.846
G1 X-8.07 Y7.1 Z0.15 F1080.0
G1 X-8.49 Y7.1 Z0.15 F1080.0
G1 X-8.49 Y1.93 Z0.15 F1080.0
G1 X-8.9 Y1.43 Z0.15 F1080.0
G1 X-8.9 Y7.1 Z0.15 F1080.0
G1 X-9.32 Y7.1 Z0.15 F1080.0
G1 X-9.32 Y-7.1 Z0.15 F1080.0
G1 X-8.9 Y-7.1 Z0.15 F1080.0
G1 X-8.9 Y-1.43 Z0.15 F1080.0
G1 X-8.49 Y-1.93 Z0.15 F1080.0
G1 X-8.49 Y-7.1 Z0.15 F1080.0
G1 X-8.07 Y-7.1 Z0.15 F1080.0
G1 X-8.07 Y-2.25 Z0.15 F1080.0
M103
G1 X-7.23 Y-2.58 Z0.15 F1800.0
M101
G1 X-7.23 Y-7.1 Z0.15 F1080.0
G1 X-7.65 Y-7.1 Z0.15 F1080.0
G1 X-7.65 Y-2.73 Z0.15 F1080.0
M108 R30.0
M102
G1 X-7.65 Y-2.46 Z0.15 F1080.0
M108 R1.846
M103
G1 X-6.87 Y-2.57 Z0.15 F1800.0
M108 R30.0
M101
G1 X-6.39 Y-2.64 Z0.15 F1800.0
M108 R1.846
G1 X-6.39 Y-7.1 Z0.15 F1080.0
G1 X-6.81 Y-7.1 Z0.15 F1080.0
G1 X-6.81 Y-2.91 Z0.15 F1080.0
M108 R30.0
M102
G1 X-6.81 Y-2.64 Z0.15 F1080.0
M108 R1.846
M103
G1 X-5.16 Y-1.96 Z0.15 F1800.0
M108 R30.0
M101
G1 X-4.72 Y-1.77 Z0.15 F1800.0
M108 R1.846
G1 X-4.72 Y-7.1 Z0.15 F1080.0
G1 X-5.14 Y-7.1 Z0.15 F1080.0
G1 X-5.14 Y-2.15 Z0.15 F1080.0
G1 X-5.55 Y-2.39 Z0.15 F1080.0
G1 X-5.55 Y-7.1 Z0.15 F1080.0
G1 X-5.97 Y-7.1 Z0.15 F1080.0
G1 X-5.97 Y-2.82 Z0.15 F1080.0
M108 R30.0
M102
G1 X-5.97 Y-2.55 Z0.15 F1080.0
M108 R1.846
M103
G1 X-4.69 Y-0.41 Z0.15 F3000.0
G1 X-4.42 Y0.68 Z0.15 F1800.0
M108 R30.0
M101
G1 X-4.3 Y1.15 Z0.15 F1800.0
M108 R1.846
G1 X-4.3 Y7.1 Z0.15 F1080.0
G1 X-3.88 Y7.1 Z0.15 F1080.0
G1 X-3.88 Y-7.1 Z0.15 F1080.0
G1 X-4.3 Y-7.1 Z0.15 F1080.0
G1 X-4.3 Y-1.42 Z0.15 F1080.0
M108 R30.0
M102
G1 X-4.3 Y-1.15 Z0.15 F1080.0
M108 R1.846
M103
G1 X-5.06 Y1.23 Z0.15 F3000.0
G1 X-5.7 Y2.16 Z0.15 F1800.0
M108 R30.0
M101
G1 X-5.97 Y2.55 Z0.15 F1800.0
M108 R1.846
G1 X-5.97 Y7.1 Z0.15 F1080.0
G1 X-5.55 Y7.1 Z0.15 F1080.0
G1 X-5.55 Y2.39 Z0.15 F1080.0
G1 X-5.14 Y2.15 Z0.15 F1080.0
G1 X-5.14 Y7.1 Z0.15 F1080.0
G1 X-4.72 Y7.1 Z0.15 F1080.0
G1 X-4.72 Y2.04 Z0.15 F1080.0
M108 R30.0
M102
G1 X-4.72 Y1.77 Z0.15 F1080.0
M108 R1.846
M103
G1 X-6.37 Y2.46 Z0.15 F1800.0
M108 R30.0
M101
G1 X-6.81 Y2.64 Z0.15 F1800.0
M108 R1.846
G1 X-6.81 Y7.1 Z0.15 F1080.0
G1 X-6.39 Y7.1 Z0.15 F1080.0
G1 X-6.39 Y2.91 Z0.15 F1080.0
M108 R30.0
M102
G1 X-6.39 Y2.64 Z0.15 F1080.0
M108 R1.846
M103
G1 X-7.17 Y2.53 Z0.15 F1800.0
M108 R30.0
M101
G1 X-7.65 Y2.46 Z0.15 F1800.0
M108 R1.846
G1 X-7.65 Y7.1 Z0.15 F1080.0
G1 X-7.23 Y7.1 Z0.15 F1080.0
G1 X-7.23 Y2.85 Z0.15 F1080.0
M108 R30.0
M102
G1 X-7.23 Y2.58 Z0.15 F1080.0
M108 R1.846
M103
(</surroundingLoop>)
(<surroundingLoop>)
(<boundaryPerimeter>)
(<boundaryPoint> X-2.932 Y-27.891 Z0.15 </boundaryPoint>)
(<boundaryPoint> X-2.932 Y-11.891 Z0.15 </boundaryPoint>)
(<boundaryPoint> X-24.932 Y-11.891 Z0.15 </boundaryPoint>)
(<boundaryPoint> X-24.932 Y-27.891 Z0.15 </boundaryPoint>)
(<loop> inner )
G1 X-19.55 Y-17.17 Z0.15 F3000.0
M108 R30.0
M101
G1 X-19.98 Y-17.85 Z0.15 F3000.0
M108 R1.846
G1 X-19.67 Y-18.05 Z0.15 F1080.0
G1 X-19.34 Y-18.38 Z0.15 F1080.0
G1 X-19.08 Y-18.77 Z0.15 F1080.0
G1 X-18.9 Y-19.2 Z0.15 F1080.0
G1 X-18.81 Y-19.66 Z0.15 F1080.0
G1 X-18.81 Y-20.13 Z0.15 F1080.0
G1 X-18.9 Y-20.58 Z0.15 F1080.0
G1 X-19.08 Y-21.01 Z0.15 F1080.0
G1 X-19.34 Y-21.4 Z0.15 F1080.0
G1 X-19.67 Y-21.73 Z0.15 F1080.0
G1 X-20.06 Y-21.99 Z0.15 F1080.0
G1 X-20.49 Y-22.17 Z0.15 F1080.0
G1 X-20.95 Y-22.26 Z0.15 F1080.0
G1 X-21.42 Y-22.26 Z0.15 F1080.0
G1 X-21.87 Y-22.17 Z0.15 F1080.0
G1 X-22.3 Y-21.99 Z0.15 F1080.0
G1 X-22.69 Y-21.73 Z0.15 F1080.0
G1 X-23.02 Y-21.4 Z0.15 F1080.0
G1 X-23.28 Y-21.01 Z0.15 F1080.0
G1 X-23.46 Y-20.58 Z0.15 F1080.0
G1 X-23.55 Y-20.13 Z0.15 F1080.0
G1 X-23.55 Y-19.66 Z0.15 F1080.0
G1 X-23.46 Y-19.2 Z0.15 F1080.0
G1 X-23.28 Y-18.77 Z0.15 F1080.0
G1 X-23.02 Y-18.38 Z0.15 F1080.0
G1 X-22.69 Y-18.05 Z0.15 F1080.0
G1 X-22.3 Y-17.79 Z0.15 F1080.0
G1 X-21.87 Y-17.61 Z0.15 F1080.0
G1 X-21.42 Y-17.52 Z0.15 F1080.0
G1 X-20.95 Y-17.52 Z0.15 F1080.0
G1 X-20.49 Y-17.61 Z0.15 F1080.0
G1 X-20.22 Y-17.73 Z0.15 F1080.0
M108 R30.0
M102
G1 X-20.06 Y-17.79 Z0.15 F1080.0
G1 X-19.98 Y-17.85 Z0.15 F1080.0
M108 R1.846
M103
(</loop>)
(<loop> inner )
G1 X-9.81 Y-19.31 Z0.15 F3000.0
M108 R30.0
M101
G1 X-9.02 Y-19.43 Z0.15 F3000.0
M108 R1.846
G1 X-8.88 Y-18.98 Z0.15 F1080.0
G1 X-8.66 Y-18.57 Z0.15 F1080.0
G1 X-8.37 Y-18.21 Z0.15 F1080.0
G1 X-8.01 Y-17.91 Z0.15 F1080.0
G1 X-7.59 Y-17.69 Z0.15 F1080.0
G1 X-7.15 Y-17.56 Z0.15 F1080.0
G1 X-6.68 Y-17.51 Z0.15 F1080.0
G1 X-6.22 Y-17.56 Z0.15 F1080.0
G1 X-5.77 Y-17.69 Z0.15 F1080.0
G1 X-5.36 Y-17.91 Z0.15 F1080.0
G1 X-5.0 Y-18.21 Z0.15 F1080.0
G1 X-4.7 Y-18.57 Z0.15 F1080.0
G1 X-4.48 Y-18.98 Z0.15 F1080.0
G1 X-4.35 Y-19.43 Z0.15 F1080.0
G1 X-4.3 Y-19.89 Z0.15 F1080.0
G1 X-4.35 Y-20.36 Z0.15 F1080.0
G1 X-4.48 Y-20.8 Z0.15 F1080.0
G1 X-4.7 Y-21.21 Z0.15 F1080.0
G1 X-5.0 Y-21.58 Z0.15 F1080.0
G1 X-5.36 Y-21.87 Z0.15 F1080.0
G1 X-5.77 Y-22.09 Z0.15 F1080.0
G1 X-6.22 Y-22.23 Z0.15 F1080.0
G1 X-6.68 Y-22.27 Z0.15 F1080.0
G1 X-7.15 Y-22.23 Z0.15 F1080.0
G1 X-7.59 Y-22.09 Z0.15 F1080.0
G1 X-8.01 Y-21.87 Z0.15 F1080.0
G1 X-8.37 Y-21.58 Z0.15 F1080.0
G1 X-8.66 Y-21.21 Z0.15 F1080.0
G1 X-8.88 Y-20.8 Z0.15 F1080.0
G1 X-9.02 Y-20.36 Z0.15 F1080.0
G1 X-9.06 Y-19.89 Z0.15 F1080.0
G1 X-9.04 Y-19.7 Z0.15 F1080.0
M108 R30.0
M102
G1 X-9.02 Y-19.43 Z0.15 F1080.0
M108 R1.846
M103
(</loop>)
(<loop> outer )
G1 X-7.46 Y-18.0 Z0.15 F3000.0
G1 X-7.08 Y-17.89 Z0.15 F3000.0
G1 X-6.68 Y-17.85 Z0.15 F3000.0
G1 X-6.28 Y-17.89 Z0.15 F3000.0
G1 X-4.26 Y-19.03 Z0.15 F3000.0
M108 R30.0
M101
G1 X-3.56 Y-19.43 Z0.15 F3000.0
M108 R1.846
G1 X-3.56 Y-12.52 Z0.15 F1080.0
G1 X-24.3 Y-12.52 Z0.15 F1080.0
G1 X-24.3 Y-27.26 Z0.15 F1080.0
G1 X-3.56 Y-27.26 Z0.15 F1080.0
G1 X-3.56 Y-19.43 Z0.15 F1080.0
M103
(</loop>)
(<perimeter> outer )
G1 X-3.14 Y-19.43 Z0.15 F3000.0
M101
G1 X-3.14 Y-12.1 Z0.15 F1080.0
G1 X-24.72 Y-12.1 Z0.15 F1080.0
G1 X-24.72 Y-27.68 Z0.15 F1080.0
G1 X-3.14 Y-27.68 Z0.15 F1080.0
G1 X-3.14 Y-19.7 Z0.15 F1080.0
M108 R30.0
M102
G1 X-3.14 Y-19.43 Z0.15 F1080.0
M108 R1.846
M103
(</perimeter>)
(</boundaryPerimeter>)
(<surroundingLoop>)
(<boundaryPerimeter>)
(<boundaryPoint> X-8.137 Y-18.919 Z0.15 </boundaryPoint>)
(<boundaryPoint> X-7.919 Y-18.654 Z0.15 </boundaryPoint>)
(<boundaryPoint> X-7.654 Y-18.436 Z0.15 </boundaryPoint>)
(<boundaryPoint> X-7.352 Y-18.274 Z0.15 </boundaryPoint>)
(<boundaryPoint> X-7.023 Y-18.175 Z0.15 </boundaryPoint>)
(<boundaryPoint> X-6.682 Y-18.141 Z0.15 </boundaryPoint>)
(<boundaryPoint> X-6.341 Y-18.175 Z0.15 </boundaryPoint>)
(<boundaryPoint> X-6.012 Y-18.274 Z0.15 </boundaryPoint>)
(<boundaryPoint> X-5.71 Y-18.436 Z0.15 </boundaryPoint>)
(<boundaryPoint> X-5.445 Y-18.654 Z0.15 </boundaryPoint>)
(<boundaryPoint> X-5.227 Y-18.919 Z0.15 </boundaryPoint>)
(<boundaryPoint> X-5.065 Y-19.222 Z0.15 </boundaryPoint>)
(<boundaryPoint> X-4.966 Y-19.55 Z0.15 </boundaryPoint>)
(<boundaryPoint> X-4.932 Y-19.891 Z0.15 </boundaryPoint>)
(<boundaryPoint> X-4.966 Y-20.233 Z0.15 </boundaryPoint>)
(<boundaryPoint> X-5.065 Y-20.561 Z0.15 </boundaryPoint>)
(<boundaryPoint> X-5.227 Y-20.863 Z0.15 </boundaryPoint>)
(<boundaryPoint> X-5.445 Y-21.129 Z0.15 </boundaryPoint>)
(<boundaryPoint> X-5.71 Y-21.346 Z0.15 </boundaryPoint>)
(<boundaryPoint> X-6.012 Y-21.508 Z0.15 </boundaryPoint>)
(<boundaryPoint> X-6.341 Y-21.608 Z0.15 </boundaryPoint>)
(<boundaryPoint> X-6.682 Y-21.641 Z0.15 </boundaryPoint>)
(<boundaryPoint> X-7.023 Y-21.608 Z0.15 </boundaryPoint>)
(<boundaryPoint> X-7.352 Y-21.508 Z0.15 </boundaryPoint>)
(<boundaryPoint> X-7.654 Y-21.346 Z0.15 </boundaryPoint>)
(<boundaryPoint> X-7.919 Y-21.129 Z0.15 </boundaryPoint>)
(<boundaryPoint> X-8.137 Y-20.863 Z0.15 </boundaryPoint>)
(<boundaryPoint> X-8.299 Y-20.561 Z0.15 </boundaryPoint>)
(<boundaryPoint> X-8.398 Y-20.233 Z0.15 </boundaryPoint>)
(<boundaryPoint> X-8.432 Y-19.891 Z0.15 </boundaryPoint>)
(<boundaryPoint> X-8.398 Y-19.55 Z0.15 </boundaryPoint>)
(<boundaryPoint> X-8.299 Y-19.222 Z0.15 </boundaryPoint>)
(<perimeter> inner )
G1 X-3.96 Y-19.47 Z0.15 F3000.0
M108 R30.0
M101
G1 X-4.76 Y-19.51 Z0.15 F3000.0
M108 R1.846
G1 X-4.72 Y-19.89 Z0.15 F1080.0
G1 X-4.76 Y-20.27 Z0.15 F1080.0
G1 X-4.87 Y-20.64 Z0.15 F1080.0
G1 X-5.05 Y-20.98 Z0.15 F1080.0
G1 X-5.3 Y-21.28 Z0.15 F1080.0
G1 X-5.59 Y-21.52 Z0.15 F1080.0
G1 X-5.93 Y-21.7 Z0.15 F1080.0
G1 X-6.3 Y-21.82 Z0.15 F1080.0
G1 X-6.68 Y-21.85 Z0.15 F1080.0
G1 X-7.06 Y-21.82 Z0.15 F1080.0
G1 X-7.43 Y-21.7 Z0.15 F1080.0
G1 X-7.77 Y-21.52 Z0.15 F1080.0
G1 X-8.07 Y-21.28 Z0.15 F1080.0
G1 X-8.31 Y-20.98 Z0.15 F1080.0
G1 X-8.49 Y-20.64 Z0.15 F1080.0
G1 X-8.6 Y-20.27 Z0.15 F1080.0
G1 X-8.64 Y-19.89 Z0.15 F1080.0
G1 X-8.6 Y-19.51 Z0.15 F1080.0
G1 X-8.49 Y-19.14 Z0.15 F1080.0
G1 X-8.31 Y-18.8 Z0.15 F1080.0
G1 X-8.07 Y-18.5 Z0.15 F1080.0
G1 X-7.77 Y-18.26 Z0.15 F1080.0
G1 X-7.43 Y-18.08 Z0.15 F1080.0
G1 X-7.06 Y-17.97 Z0.15 F1080.0
G1 X-6.68 Y-17.93 Z0.15 F1080.0
G1 X-6.3 Y-17.97 Z0.15 F1080.0
G1 X-5.93 Y-18.08 Z0.15 F1080.0
G1 X-5.59 Y-18.26 Z0.15 F1080.0
G1 X-5.3 Y-18.5 Z0.15 F1080.0
G1 X-5.05 Y-18.8 Z0.15 F1080.0
G1 X-4.87 Y-19.14 Z0.15 F1080.0
G1 X-4.84 Y-19.25 Z0.15 F1080.0
M108 R30.0
M102
G1 X-4.76 Y-19.51 Z0.15 F1080.0
M108 R1.846
M103
(</perimeter>)
(</boundaryPerimeter>)
(</surroundingLoop>)
(<surroundingLoop>)
(<boundaryPerimeter>)
(<boundaryPoint> X-22.725 Y-19.066 Z0.15 </boundaryPoint>)
(<boundaryPoint> X-22.535 Y-18.781 Z0.15 </boundaryPoint>)
(<boundaryPoint> X-22.292 Y-18.538 Z0.15 </boundaryPoint>)
(<boundaryPoint> X-22.008 Y-18.348 Z0.15 </boundaryPoint>)
(<boundaryPoint> X-21.691 Y-18.217 Z0.15 </boundaryPoint>)
(<boundaryPoint> X-21.354 Y-18.15 Z0.15 </boundaryPoint>)
(<boundaryPoint> X-21.011 Y-18.15 Z0.15 </boundaryPoint>)
(<boundaryPoint> X-20.674 Y-18.217 Z0.15 </boundaryPoint>)
(<boundaryPoint> X-20.357 Y-18.348 Z0.15 </boundaryPoint>)
(<boundaryPoint> X-20.072 Y-18.538 Z0.15 </boundaryPoint>)
(<boundaryPoint> X-19.829 Y-18.781 Z0.15 </boundaryPoint>)
(<boundaryPoint> X-19.639 Y-19.066 Z0.15 </boundaryPoint>)
(<boundaryPoint> X-19.508 Y-19.383 Z0.15 </boundaryPoint>)
(<boundaryPoint> X-19.441 Y-19.72 Z0.15 </boundaryPoint>)
(<boundaryPoint> X-19.441 Y-20.063 Z0.15 </boundaryPoint>)
(<boundaryPoint> X-19.508 Y-20.399 Z0.15 </boundaryPoint>)
(<boundaryPoint> X-19.639 Y-20.716 Z0.15 </boundaryPoint>)
(<boundaryPoint> X-19.829 Y-21.001 Z0.15 </boundaryPoint>)
(<boundaryPoint> X-20.072 Y-21.244 Z0.15 </boundaryPoint>)
(<boundaryPoint> X-20.357 Y-21.435 Z0.15 </boundaryPoint>)
(<boundaryPoint> X-20.674 Y-21.566 Z0.15 </boundaryPoint>)
(<boundaryPoint> X-21.011 Y-21.633 Z0.15 </boundaryPoint>)
(<boundaryPoint> X-21.354 Y-21.633 Z0.15 </boundaryPoint>)
(<boundaryPoint> X-21.691 Y-21.566 Z0.15 </boundaryPoint>)
(<boundaryPoint> X-22.008 Y-21.435 Z0.15 </boundaryPoint>)
(<boundaryPoint> X-22.292 Y-21.244 Z0.15 </boundaryPoint>)
(<boundaryPoint> X-22.535 Y-21.001 Z0.15 </boundaryPoint>)
(<boundaryPoint> X-22.725 Y-20.716 Z0.15 </boundaryPoint>)
(<boundaryPoint> X-22.858 Y-20.399 Z0.15 </boundaryPoint>)
(<boundaryPoint> X-22.925 Y-20.063 Z0.15 </boundaryPoint>)
(<boundaryPoint> X-22.925 Y-19.72 Z0.15 </boundaryPoint>)
(<boundaryPoint> X-22.858 Y-19.383 Z0.15 </boundaryPoint>)
(<perimeter> inner )
G1 X-4.98 Y-18.76 Z0.15 F3000.0
G1 X-5.24 Y-18.45 Z0.15 F3000.0
G1 X-5.55 Y-18.19 Z0.15 F3000.0
G1 X-5.9 Y-18.0 Z0.15 F3000.0
G1 X-6.28 Y-17.89 Z0.15 F3000.0
G1 X-18.44 Y-19.59 Z0.15 F3000.0
M108 R30.0
M101
G1 X-19.23 Y-19.7 Z0.15 F3000.0
M108 R1.846
G1 X-19.23 Y-20.08 Z0.15 F1080.0
G1 X-19.31 Y-20.46 Z0.15 F1080.0
G1 X-19.45 Y-20.82 Z0.15 F1080.0
G1 X-19.67 Y-21.13 Z0.15 F1080.0
G1 X-19.94 Y-21.41 Z0.15 F1080.0
G1 X-20.26 Y-21.62 Z0.15 F1080.0
G1 X-20.61 Y-21.77 Z0.15 F1080.0
G1 X-20.99 Y-21.84 Z0.15 F1080.0
G1 X-21.38 Y-21.84 Z0.15 F1080.0
G1 X-21.75 Y-21.77 Z0.15 F1080.0
G1 X-22.11 Y-21.62 Z0.15 F1080.0
G1 X-22.43 Y-21.41 Z0.15 F1080.0
G1 X-22.7 Y-21.13 Z0.15 F1080.0
G1 X-22.91 Y-20.82 Z0.15 F1080.0
G1 X-23.06 Y-20.46 Z0.15 F1080.0
G1 X-23.13 Y-20.08 Z0.15 F1080.0
G1 X-23.13 Y-19.7 Z0.15 F1080.0
G1 X-23.06 Y-19.32 Z0.15 F1080.0
G1 X-22.91 Y-18.97 Z0.15 F1080.0
G1 X-22.7 Y-18.65 Z0.15 F1080.0
G1 X-22.43 Y-18.38 Z0.15 F1080.0
G1 X-22.11 Y-18.16 Z0.15 F1080.0
G1 X-21.75 Y-18.02 Z0.15 F1080.0
G1 X-21.38 Y-17.94 Z0.15 F1080.0
G1 X-20.99 Y-17.94 Z0.15 F1080.0
G1 X-20.61 Y-18.02 Z0.15 F1080.0
G1 X-20.26 Y-18.16 Z0.15 F1080.0
G1 X-19.94 Y-18.38 Z0.15 F1080.0
G1 X-19.67 Y-18.65 Z0.15 F1080.0
G1 X-19.45 Y-18.97 Z0.15 F1080.0
G1 X-19.31 Y-19.32 Z0.15 F1080.0
G1 X-19.28 Y-19.43 Z0.15 F1080.0
M108 R30.0
M102
G1 X-19.23 Y-19.7 Z0.15 F1080.0
M108 R1.846
M103
(</perimeter>)
(</boundaryPerimeter>)
(</surroundingLoop>)
G1 X-6.86 Y-17.35 Z0.15 F1800.0
M108 R30.0
M101
G1 X-6.39 Y-17.27 Z0.15 F1800.0
M108 R1.846
G1 X-6.39 Y-12.79 Z0.15 F1080.0
G1 X-6.81 Y-12.79 Z0.15 F1080.0
G1 X-6.81 Y-17.25 Z0.15 F1080.0
G1 X-7.23 Y-17.3 Z0.15 F1080.0
G1 X-7.23 Y-12.79 Z0.15 F1080.0
G1 X-7.65 Y-12.79 Z0.15 F1080.0
G1 X-7.65 Y-17.42 Z0.15 F1080.0
G1 X-8.07 Y-17.64 Z0.15 F1080.0
G1 X-8.07 Y-12.79 Z0.15 F1080.0
G1 X-8.49 Y-12.79 Z0.15 F1080.0
G1 X-8.49 Y-17.95 Z0.15 F1080.0
G1 X-8.9 Y-18.45 Z0.15 F1080.0
G1 X-8.9 Y-12.79 Z0.15 F1080.0
G1 X-9.32 Y-12.79 Z0.15 F1080.0
G1 X-9.32 Y-26.99 Z0.15 F1080.0
G1 X-9.74 Y-26.99 Z0.15 F1080.0
G1 X-9.74 Y-12.79 Z0.15 F1080.0
G1 X-10.16 Y-12.79 Z0.15 F1080.0
G1 X-10.16 Y-26.99 Z0.15 F1080.0
G1 X-10.58 Y-26.99 Z0.15 F1080.0
G1 X-10.58 Y-12.79 Z0.15 F1080.0
G1 X-11.0 Y-12.79 Z0.15 F1080.0
G1 X-11.0 Y-26.99 Z0.15 F1080.0
G1 X-11.42 Y-26.99 Z0.15 F1080.0
G1 X-11.42 Y-12.79 Z0.15 F1080.0
G1 X-11.84 Y-12.79 Z0.15 F1080.0
G1 X-11.84 Y-26.99 Z0.15 F1080.0
G1 X-12.26 Y-26.99 Z0.15 F1080.0
G1 X-12.26 Y-12.79 Z0.15 F1080.0
G1 X-12.68 Y-12.79 Z0.15 F1080.0
G1 X-12.68 Y-26.99 Z0.15 F1080.0
G1 X-13.1 Y-26.99 Z0.15 F1080.0
G1 X-13.1 Y-12.79 Z0.15 F1080.0
G1 X-13.51 Y-12.79 Z0.15 F1080.0
G1 X-13.51 Y-26.99 Z0.15 F1080.0
G1 X-13.93 Y-26.99 Z0.15 F1080.0
G1 X-13.93 Y-12.79 Z0.15 F1080.0
G1 X-14.35 Y-12.79 Z0.15 F1080.0
G1 X-14.35 Y-26.99 Z0.15 F1080.0
G1 X-14.77 Y-26.99 Z0.15 F1080.0
G1 X-14.77 Y-12.79 Z0.15 F1080.0
G1 X-15.19 Y-12.79 Z0.15 F1080.0
G1 X-15.19 Y-26.99 Z0.15 F1080.0
G1 X-15.61 Y-26.99 Z0.15 F1080.0
G1 X-15.61 Y-12.79 Z0.15 F1080.0
G1 X-16.03 Y-12.79 Z0.15 F1080.0
G1 X-16.03 Y-26.99 Z0.15 F1080.0
G1 X-16.45 Y-26.99 Z0.15 F1080.0
G1 X-16.45 Y-12.79 Z0.15 F1080.0
G1 X-16.86 Y-12.79 Z0.15 F1080.0
G1 X-16.86 Y-26.99 Z0.15 F1080.0
G1 X-17.28 Y-26.99 Z0.15 F1080.0
G1 X-17.28 Y-12.79 Z0.15 F1080.0
G1 X-17.7 Y-12.79 Z0.15 F1080.0
G1 X-17.7 Y-26.99 Z0.15 F1080.0
G1 X-18.12 Y-26.99 Z0.15 F1080.0
G1 X-18.12 Y-12.79 Z0.15 F1080.0
G1 X-18.54 Y-12.79 Z0.15 F1080.0
G1 X-18.54 Y-19.63 Z0.15 F1080.0
M103
G1 X-18.54 Y-20.15 Z0.15 F1800.0
M101
G1 X-18.54 Y-26.99 Z0.15 F1080.0
G1 X-18.96 Y-26.99 Z0.15 F1080.0
G1 X-18.96 Y-21.32 Z0.15 F1080.0
M103
G1 X-19.38 Y-21.82 Z0.15 F1800.0
M101
G1 X-19.38 Y-26.99 Z0.15 F1080.0
G1 X-19.8 Y-26.99 Z0.15 F1080.0
G1 X-19.8 Y-22.14 Z0.15 F1080.0
M103
G1 X-20.21 Y-22.35 Z0.15 F1800.0
M101
G1 X-20.21 Y-26.99 Z0.15 F1080.0
G1 X-20.63 Y-26.99 Z0.15 F1080.0
G1 X-20.63 Y-22.48 Z0.15 F1080.0
M103
G1 X-21.05 Y-22.53 Z0.15 F1800.0
M101
G1 X-21.05 Y-26.99 Z0.15 F1080.0
G1 X-21.47 Y-26.99 Z0.15 F1080.0
G1 X-21.47 Y-22.53 Z0.15 F1080.0
M103
G1 X-21.89 Y-22.44 Z0.15 F1800.0
M101
G1 X-21.89 Y-26.99 Z0.15 F1080.0
G1 X-22.31 Y-26.99 Z0.15 F1080.0
G1 X-22.31 Y-22.29 Z0.15 F1080.0
G1 X-22.73 Y-22.04 Z0.15 F1080.0
G1 X-22.73 Y-26.99 Z0.15 F1080.0
G1 X-23.15 Y-26.99 Z0.15 F1080.0
G1 X-23.15 Y-21.66 Z0.15 F1080.0
M103
G1 X-23.57 Y-21.04 Z0.15 F1800.0
M101
G1 X-23.57 Y-26.99 Z0.15 F1080.0
G1 X-23.99 Y-26.99 Z0.15 F1080.0
G1 X-23.99 Y-12.79 Z0.15 F1080.0
G1 X-23.57 Y-12.79 Z0.15 F1080.0
G1 X-23.57 Y-18.74 Z0.15 F1080.0
M103
G1 X-23.15 Y-18.12 Z0.15 F1800.0
M101
G1 X-23.15 Y-12.79 Z0.15 F1080.0
G1 X-22.73 Y-12.79 Z0.15 F1080.0
G1 X-22.73 Y-17.75 Z0.15 F1080.0
G1 X-22.31 Y-17.5 Z0.15 F1080.0
G1 X-22.31 Y-12.79 Z0.15 F1080.0
G1 X-21.89 Y-12.79 Z0.15 F1080.0
G1 X-21.89 Y-17.34 Z0.15 F1080.0
M103
G1 X-21.47 Y-17.25 Z0.15 F1800.0
M101
G1 X-21.47 Y-12.79 Z0.15 F1080.0
G1 X-21.05 Y-12.79 Z0.15 F1080.0
G1 X-21.05 Y-17.25 Z0.15 F1080.0
M103
G1 X-20.63 Y-17.31 Z0.15 F1800.0
M101
G1 X-20.63 Y-12.79 Z0.15 F1080.0
G1 X-20.21 Y-12.79 Z0.15 F1080.0
G1 X-20.21 Y-17.43 Z0.15 F1080.0
G1 X-19.8 Y-17.64 Z0.15 F1080.0
G1 X-19.8 Y-12.79 Z0.15 F1080.0
G1 X-19.38 Y-12.79 Z0.15 F1080.0
G1 X-19.38 Y-17.96 Z0.15 F1080.0
G1 X-18.96 Y-18.46 Z0.15 F1080.0
G1 X-18.96 Y-13.06 Z0.15 F1080.0
M108 R30.0
M102
G1 X-18.96 Y-12.79 Z0.15 F1080.0
M108 R1.846
M103
G1 X-9.27 Y-21.02 Z0.15 F1800.0
M108 R30.0
M101
G1 X-8.9 Y-21.34 Z0.15 F1800.0
M108 R1.846
G1 X-8.9 Y-26.99 Z0.15 F1080.0
G1 X-8.49 Y-26.99 Z0.15 F1080.0
G1 X-8.49 Y-21.83 Z0.15 F1080.0
M103
G1 X-8.07 Y-22.15 Z0.15 F1800.0
M101
G1 X-8.07 Y-26.99 Z0.15 F1080.0
G1 X-7.65 Y-26.99 Z0.15 F1080.0
G1 X-7.65 Y-22.36 Z0.15 F1080.0
M103
G1 X-7.23 Y-22.49 Z0.15 F1800.0
M101
G1 X-7.23 Y-26.99 Z0.15 F1080.0
G1 X-6.81 Y-26.99 Z0.15 F1080.0
G1 X-6.81 Y-22.53 Z0.15 F1080.0
G1 X-6.39 Y-22.52 Z0.15 F1080.0
G1 X-6.39 Y-26.99 Z0.15 F1080.0
G1 X-5.97 Y-26.99 Z0.15 F1080.0
G1 X-5.97 Y-22.44 Z0.15 F1080.0
M103
G1 X-5.55 Y-22.29 Z0.15 F1800.0
M101
G1 X-5.55 Y-26.99 Z0.15 F1080.0
G1 X-5.14 Y-26.99 Z0.15 F1080.0
G1 X-5.14 Y-22.04 Z0.15 F1080.0
G1 X-4.72 Y-21.66 Z0.15 F1080.0
G1 X-4.72 Y-26.99 Z0.15 F1080.0
G1 X-4.3 Y-26.99 Z0.15 F1080.0
G1 X-4.3 Y-21.31 Z0.15 F1080.0
M108 R30.0
M102
G1 X-4.3 Y-21.04 Z0.15 F1080.0
M108 R1.846
M103
G1 X-3.91 Y-26.51 Z0.15 F1800.0
M108 R30.0
M101
G1 X-3.88 Y-26.99 Z0.15 F1800.0
M108 R1.846
G1 X-3.88 Y-12.79 Z0.15 F1080.0
G1 X-4.3 Y-12.79 Z0.15 F1080.0
G1 X-4.3 Y-18.75 Z0.15 F1080.0
M103
G1 X-4.72 Y-18.12 Z0.15 F1800.0
M101
G1 X-4.72 Y-12.79 Z0.15 F1080.0
G1 X-5.14 Y-12.79 Z0.15 F1080.0
G1 X-5.14 Y-17.74 Z0.15 F1080.0
G1 X-5.55 Y-17.5 Z0.15 F1080.0
G1 X-5.55 Y-12.79 Z0.15 F1080.0
G1 X-5.97 Y-12.79 Z0.15 F1080.0
G1 X-5.97 Y-17.07 Z0.15 F1080.0
M108 R30.0
M102
G1 X-5.97 Y-17.34 Z0.15 F1080.0
M108 R1.846
M103
(</surroundingLoop>)
(<surroundingLoop>)
(<boundaryPerimeter>)
(<boundaryPoint> X2.932 Y-8.0 Z0.15 </boundaryPoint>)
(<boundaryPoint> X10.432 Y-8.0 Z0.15 </boundaryPoint>)
(<boundaryPoint> X10.432 Y8.0 Z0.15 </boundaryPoint>)
(<boundaryPoint> X2.932 Y8.0 Z0.15 </boundaryPoint>)
(<loop> inner )
G1 X4.64 Y-2.42 Z0.15 F3000.0
M108 R30.0
M101
G1 X5.1 Y-1.77 Z0.15 F3000.0
M108 R1.846
G1 X4.84 Y-1.51 Z0.15 F1080.0
G1 X4.58 Y-1.12 Z0.15 F1080.0
G1 X4.4 Y-0.69 Z0.15 F1080.0
G1 X4.31 Y-0.23 Z0.15 F1080.0
G1 X4.31 Y0.23 Z0.15 F1080.0
G1 X4.4 Y0.69 Z0.15 F1080.0
G1 X4.58 Y1.12 Z0.15 F1080.0
G1 X4.84 Y1.51 Z0.15 F1080.0
G1 X5.17 Y1.84 Z0.15 F1080.0
G1 X5.56 Y2.1 Z0.15 F1080.0
G1 X5.99 Y2.28 Z0.15 F1080.0
G1 X6.45 Y2.37 Z0.15 F1080.0
G1 X6.92 Y2.37 Z0.15 F1080.0
G1 X7.37 Y2.28 Z0.15 F1080.0
G1 X7.8 Y2.1 Z0.15 F1080.0
G1 X8.19 Y1.84 Z0.15 F1080.0
G1 X8.52 Y1.51 Z0.15 F1080.0
G1 X8.78 Y1.12 Z0.15 F1080.0
G1 X8.96 Y0.69 Z0.15 F1080.0
G1 X9.05 Y0.23 Z0.15 F1080.0
G1 X9.05 Y0.0 Z0.15 F1080.0
G1 X9.05 Y-0.23 Z0.15 F1080.0
G1 X8.96 Y-0.69 Z0.15 F1080.0
G1 X8.78 Y-1.12 Z0.15 F1080.0
G1 X8.52 Y-1.51 Z0.15 F1080.0
G1 X8.19 Y-1.84 Z0.15 F1080.0
G1 X7.8 Y-2.1 Z0.15 F1080.0
G1 X7.37 Y-2.28 Z0.15 F1080.0
G1 X6.92 Y-2.37 Z0.15 F1080.0
G1 X6.45 Y-2.37 Z0.15 F1080.0
G1 X5.99 Y-2.28 Z0.15 F1080.0
G1 X5.56 Y-2.1 Z0.15 F1080.0
G1 X5.31 Y-1.94 Z0.15 F1080.0
M108 R30.0
M102
G1 X5.17 Y-1.84 Z0.15 F1080.0
G1 X5.1 Y-1.77 Z0.15 F1080.0
M108 R1.846
M103
(</loop>)
(<loop> outer )
G1 X4.36 Y-1.77 Z0.15 F3000.0
M108 R30.0
M101
G1 X3.56 Y-1.77 Z0.15 F3000.0
M108 R1.846
G1 X3.56 Y-7.37 Z0.15 F1080.0
G1 X9.8 Y-7.37 Z0.15 F1080.0
G1 X9.8 Y0.0 Z0.15 F1080.0
G1 X9.8 Y7.37 Z0.15 F1080.0
G1 X3.56 Y7.37 Z0.15 F1080.0
G1 X3.56 Y-1.77 Z0.15 F1080.0
M103
(</loop>)
(<perimeter> outer )
G1 X3.14 Y-1.77 Z0.15 F3000.0
M101
G1 X3.14 Y-7.79 Z0.15 F1080.0
G1 X10.22 Y-7.79 Z0.15 F1080.0
G1 X10.22 Y0.0 Z0.15 F1080.0
G1 X10.22 Y7.79 Z0.15 F1080.0
G1 X3.14 Y7.79 Z0.15 F1080.0
G1 X3.14 Y-1.5 Z0.15 F1080.0
M108 R30.0
M102
G1 X3.14 Y-1.77 Z0.15 F1080.0
M108 R1.846
M103
(</perimeter>)
(</boundaryPerimeter>)
(<surroundingLoop>)
(<boundaryPerimeter>)
(<boundaryPoint> X8.424 Y-0.172 Z0.15 </boundaryPoint>)
(<boundaryPoint> X8.357 Y-0.508 Z0.15 </boundaryPoint>)
(<boundaryPoint> X8.226 Y-0.825 Z0.15 </boundaryPoint>)
(<boundaryPoint> X8.035 Y-1.11 Z0.15 </boundaryPoint>)
(<boundaryPoint> X7.792 Y-1.353 Z0.15 </boundaryPoint>)
(<boundaryPoint> X7.507 Y-1.543 Z0.15 </boundaryPoint>)
(<boundaryPoint> X7.19 Y-1.675 Z0.15 </boundaryPoint>)
(<boundaryPoint> X6.854 Y-1.742 Z0.15 </boundaryPoint>)
(<boundaryPoint> X6.51 Y-1.742 Z0.15 </boundaryPoint>)
(<boundaryPoint> X6.174 Y-1.675 Z0.15 </boundaryPoint>)
(<boundaryPoint> X5.857 Y-1.543 Z0.15 </boundaryPoint>)
(<boundaryPoint> X5.572 Y-1.353 Z0.15 </boundaryPoint>)
(<boundaryPoint> X5.329 Y-1.11 Z0.15 </boundaryPoint>)
(<boundaryPoint> X5.139 Y-0.825 Z0.15 </boundaryPoint>)
(<boundaryPoint> X5.007 Y-0.508 Z0.15 </boundaryPoint>)
(<boundaryPoint> X4.94 Y-0.172 Z0.15 </boundaryPoint>)
(<boundaryPoint> X4.94 Y0.172 Z0.15 </boundaryPoint>)
(<boundaryPoint> X5.007 Y0.508 Z0.15 </boundaryPoint>)
(<boundaryPoint> X5.139 Y0.825 Z0.15 </boundaryPoint>)
(<boundaryPoint> X5.329 Y1.11 Z0.15 </boundaryPoint>)
(<boundaryPoint> X5.572 Y1.353 Z0.15 </boundaryPoint>)
(<boundaryPoint> X5.857 Y1.543 Z0.15 </boundaryPoint>)
(<boundaryPoint> X6.174 Y1.675 Z0.15 </boundaryPoint>)
(<boundaryPoint> X6.51 Y1.742 Z0.15 </boundaryPoint>)
(<boundaryPoint> X6.854 Y1.742 Z0.15 </boundaryPoint>)
(<boundaryPoint> X7.19 Y1.675 Z0.15 </boundaryPoint>)
(<boundaryPoint> X7.507 Y1.543 Z0.15 </boundaryPoint>)
(<boundaryPoint> X7.792 Y1.353 Z0.15 </boundaryPoint>)
(<boundaryPoint> X8.035 Y1.11 Z0.15 </boundaryPoint>)
(<boundaryPoint> X8.226 Y0.825 Z0.15 </boundaryPoint>)
(<boundaryPoint> X8.357 Y0.508 Z0.15 </boundaryPoint>)
(<boundaryPoint> X8.424 Y0.172 Z0.15 </boundaryPoint>)
(<perimeter> inner )
G1 X4.23 Y-1.26 Z0.15 F3000.0
M108 R30.0
M101
G1 X4.95 Y-0.92 Z0.15 F3000.0
M108 R1.846
G1 X4.81 Y-0.57 Z0.15 F1080.0
G1 X4.73 Y-0.19 Z0.15 F1080.0
G1 X4.73 Y0.19 Z0.15 F1080.0
G1 X4.81 Y0.57 Z0.15 F1080.0
G1 X4.95 Y0.92 Z0.15 F1080.0
G1 X5.17 Y1.24 Z0.15 F1080.0
G1 X5.44 Y1.52 Z0.15 F1080.0
G1 X5.76 Y1.73 Z0.15 F1080.0
G1 X6.11 Y1.88 Z0.15 F1080.0
G1 X6.49 Y1.95 Z0.15 F1080.0
G1 X6.88 Y1.95 Z0.15 F1080.0
G1 X7.25 Y1.88 Z0.15 F1080.0
G1 X7.61 Y1.73 Z0.15 F1080.0
G1 X7.92 Y1.52 Z0.15 F1080.0
G1 X8.2 Y1.24 Z0.15 F1080.0
G1 X8.41 Y0.92 Z0.15 F1080.0
G1 X8.56 Y0.57 Z0.15 F1080.0
G1 X8.63 Y0.19 Z0.15 F1080.0
G1 X8.63 Y-0.19 Z0.15 F1080.0
G1 X8.56 Y-0.57 Z0.15 F1080.0
G1 X8.41 Y-0.92 Z0.15 F1080.0
G1 X8.2 Y-1.24 Z0.15 F1080.0
G1 X7.92 Y-1.52 Z0.15 F1080.0
G1 X7.61 Y-1.73 Z0.15 F1080.0
G1 X7.25 Y-1.88 Z0.15 F1080.0
G1 X6.88 Y-1.95 Z0.15 F1080.0
G1 X6.49 Y-1.95 Z0.15 F1080.0
G1 X6.11 Y-1.88 Z0.15 F1080.0
G1 X5.76 Y-1.73 Z0.15 F1080.0
G1 X5.44 Y-1.52 Z0.15 F1080.0
G1 X5.17 Y-1.24 Z0.15 F1080.0
G1 X5.1 Y-1.15 Z0.15 F1080.0
M108 R30.0
M102
G1 X4.95 Y-0.92 Z0.15 F1080.0
M108 R1.846
M103
(</perimeter>)
(</boundaryPerimeter>)
(</surroundingLoop>)
G1 X4.65 Y-0.2 Z0.15 F3000.0
G1 X4.65 Y0.2 Z0.15 F3000.0
G1 X4.73 Y0.59 Z0.15 F3000.0
G1 X4.88 Y0.96 Z0.15 F3000.0
G1 X5.1 Y1.29 Z0.15 F3000.0
G1 X5.39 Y1.58 Z0.15 F3000.0
G1 X5.72 Y1.8 Z0.15 F3000.0
G1 X7.6 Y2.16 Z0.15 F1800.0
M108 R30.0
M101
G1 X8.07 Y2.25 Z0.15 F1800.0
M108 R1.846
G1 X8.07 Y7.1 Z0.15 F1080.0
G1 X8.49 Y7.1 Z0.15 F1080.0
G1 X8.49 Y1.93 Z0.15 F1080.0
G1 X8.9 Y1.43 Z0.15 F1080.0
G1 X8.9 Y7.1 Z0.15 F1080.0
G1 X9.32 Y7.1 Z0.15 F1080.0
G1 X9.32 Y0.53 Z0.15 F1080.0
M108 R30.0
M102
G1 X9.32 Y0.26 Z0.15 F1080.0
M108 R1.846
M103
G1 X8.28 Y-1.82 Z0.15 F1800.0
M108 R30.0
M101
G1 X8.07 Y-2.25 Z0.15 F1800.0
M108 R1.846
G1 X8.07 Y-7.1 Z0.15 F1080.0
G1 X8.49 Y-7.1 Z0.15 F1080.0
G1 X8.49 Y-1.93 Z0.15 F1080.0
G1 X8.9 Y-1.43 Z0.15 F1080.0
G1 X8.9 Y-7.1 Z0.15 F1080.0
G1 X9.32 Y-7.1 Z0.15 F1080.0
G1 X9.32 Y-0.53 Z0.15 F1080.0
M108 R30.0
M102
G1 X9.32 Y-0.26 Z0.15 F1080.0
M108 R1.846
M103
G1 X7.94 Y-2.08 Z0.15 F1800.0
M108 R30.0
M101
G1 X7.65 Y-2.46 Z0.15 F1800.0
M108 R1.846
G1 X7.65 Y-7.1 Z0.15 F1080.0
G1 X7.23 Y-7.1 Z0.15 F1080.0
G1 X7.23 Y-2.58 Z0.15 F1080.0
M103
G1 X6.81 Y-2.64 Z0.15 F1800.0
M101
G1 X6.81 Y-7.1 Z0.15 F1080.0
G1 X6.39 Y-7.1 Z0.15 F1080.0
G1 X6.39 Y-2.64 Z0.15 F1080.0
M103
G1 X5.97 Y-2.55 Z0.15 F1800.0
M101
G1 X5.97 Y-7.1 Z0.15 F1080.0
G1 X5.55 Y-7.1 Z0.15 F1080.0
G1 X5.55 Y-2.39 Z0.15 F1080.0
G1 X5.14 Y-2.15 Z0.15 F1080.0
G1 X5.14 Y-7.1 Z0.15 F1080.0
G1 X4.72 Y-7.1 Z0.15 F1080.0
G1 X4.72 Y-1.77 Z0.15 F1080.0
M103
G1 X4.3 Y-1.15 Z0.15 F1800.0
M101
G1 X4.3 Y-7.1 Z0.15 F1080.0
G1 X3.88 Y-7.1 Z0.15 F1080.0
G1 X3.88 Y7.1 Z0.15 F1080.0
G1 X4.3 Y7.1 Z0.15 F1080.0
G1 X4.3 Y1.15 Z0.15 F1080.0
M103
G1 X4.72 Y1.77 Z0.15 F1800.0
M101
G1 X4.72 Y7.1 Z0.15 F1080.0
G1 X5.14 Y7.1 Z0.15 F1080.0
G1 X5.14 Y2.15 Z0.15 F1080.0
G1 X5.55 Y2.39 Z0.15 F1080.0
G1 X5.55 Y7.1 Z0.15 F1080.0
G1 X5.97 Y7.1 Z0.15 F1080.0
G1 X5.97 Y2.55 Z0.15 F1080.0
M103
G1 X6.39 Y2.64 Z0.15 F1800.0
M101
G1 X6.39 Y7.1 Z0.15 F1080.0
G1 X6.81 Y7.1 Z0.15 F1080.0
G1 X6.81 Y2.64 Z0.15 F1080.0
M103
G1 X7.23 Y2.58 Z0.15 F1800.0
M101
G1 X7.23 Y7.1 Z0.15 F1080.0
G1 X7.65 Y7.1 Z0.15 F1080.0
G1 X7.65 Y2.73 Z0.15 F1080.0
M108 R30.0
M102
G1 X7.65 Y2.46 Z0.15 F1080.0
M108 R1.846
M103
(</surroundingLoop>)
(<surroundingLoop>)
(<boundaryPerimeter>)
(<boundaryPoint> X24.932 Y11.891 Z0.15 </boundaryPoint>)
(<boundaryPoint> X24.932 Y27.891 Z0.15 </boundaryPoint>)
(<boundaryPoint> X2.932 Y27.891 Z0.15 </boundaryPoint>)
(<boundaryPoint> X2.932 Y11.891 Z0.15 </boundaryPoint>)
(<loop> inner )
G1 X6.86 Y16.72 Z0.15 F3000.0
M108 R30.0
M101
G1 X6.82 Y17.52 Z0.15 F3000.0
M108 R1.846
G1 X6.45 Y17.52 Z0.15 F1080.0
G1 X5.99 Y17.61 Z0.15 F1080.0
G1 X5.56 Y17.79 Z0.15 F1080.0
G1 X5.17 Y18.05 Z0.15 F1080.0
G1 X4.84 Y18.38 Z0.15 F1080.0
G1 X4.58 Y18.77 Z0.15 F1080.0
G1 X4.4 Y19.2 Z0.15 F1080.0
G1 X4.31 Y19.66 Z0.15 F1080.0
G1 X4.31 Y20.13 Z0.15 F1080.0
G1 X4.4 Y20.58 Z0.15 F1080.0
G1 X4.58 Y21.01 Z0.15 F1080.0
G1 X4.84 Y21.4 Z0.15 F1080.0
G1 X5.17 Y21.73 Z0.15 F1080.0
G1 X5.56 Y21.99 Z0.15 F1080.0
G1 X5.99 Y22.17 Z0.15 F1080.0
G1 X6.45 Y22.26 Z0.15 F1080.0
G1 X6.92 Y22.26 Z0.15 F1080.0
G1 X7.37 Y22.17 Z0.15 F1080.0
G1 X7.8 Y21.99 Z0.15 F1080.0
G1 X8.19 Y21.73 Z0.15 F1080.0
G1 X8.52 Y21.4 Z0.15 F1080.0
G1 X8.78 Y21.01 Z0.15 F1080.0
G1 X8.96 Y20.58 Z0.15 F1080.0
G1 X9.05 Y20.13 Z0.15 F1080.0
G1 X9.05 Y19.66 Z0.15 F1080.0
G1 X8.96 Y19.2 Z0.15 F1080.0
G1 X8.78 Y18.77 Z0.15 F1080.0
G1 X8.52 Y18.38 Z0.15 F1080.0
G1 X8.19 Y18.05 Z0.15 F1080.0
G1 X7.8 Y17.79 Z0.15 F1080.0
G1 X7.37 Y17.61 Z0.15 F1080.0
G1 X7.08 Y17.55 Z0.15 F1080.0
M108 R30.0
M102
G1 X6.92 Y17.52 Z0.15 F1080.0
G1 X6.82 Y17.52 Z0.15 F1080.0
M108 R1.846
M103
(</loop>)
(<loop> inner )
G1 X18.02 Y19.52 Z0.15 F3000.0
M108 R30.0
M101
G1 X18.81 Y19.66 Z0.15 F3000.0
M108 R1.846
G1 X18.81 Y20.13 Z0.15 F1080.0
G1 X18.9 Y20.58 Z0.15 F1080.0
G1 X19.08 Y21.01 Z0.15 F1080.0
G1 X19.34 Y21.4 Z0.15 F1080.0
G1 X19.67 Y21.73 Z0.15 F1080.0
G1 X20.06 Y21.99 Z0.15 F1080.0
G1 X20.49 Y22.17 Z0.15 F1080.0
G1 X20.95 Y22.26 Z0.15 F1080.0
G1 X21.42 Y22.26 Z0.15 F1080.0
G1 X21.87 Y22.17 Z0.15 F1080.0
G1 X22.3 Y21.99 Z0.15 F1080.0
G1 X22.69 Y21.73 Z0.15 F1080.0
G1 X23.02 Y21.4 Z0.15 F1080.0
G1 X23.28 Y21.01 Z0.15 F1080.0
G1 X23.46 Y20.58 Z0.15 F1080.0
G1 X23.55 Y20.13 Z0.15 F1080.0
G1 X23.55 Y19.66 Z0.15 F1080.0
G1 X23.46 Y19.2 Z0.15 F1080.0
G1 X23.28 Y18.77 Z0.15 F1080.0
G1 X23.02 Y18.38 Z0.15 F1080.0
G1 X22.69 Y18.05 Z0.15 F1080.0
G1 X22.3 Y17.79 Z0.15 F1080.0
G1 X21.87 Y17.61 Z0.15 F1080.0
G1 X21.42 Y17.52 Z0.15 F1080.0
G1 X20.95 Y17.52 Z0.15 F1080.0
G1 X20.49 Y17.61 Z0.15 F1080.0
G1 X20.06 Y17.79 Z0.15 F1080.0
G1 X19.67 Y18.05 Z0.15 F1080.0
G1 X19.34 Y18.38 Z0.15 F1080.0
G1 X19.08 Y18.77 Z0.15 F1080.0
G1 X18.9 Y19.2 Z0.15 F1080.0
G1 X18.87 Y19.39 Z0.15 F1080.0
M108 R30.0
M102
G1 X18.81 Y19.66 Z0.15 F1080.0
M108 R1.846
M103
(</loop>)
(<loop> outer )
G1 X20.22 Y18.09 Z0.15 F3000.0
G1 X20.59 Y17.94 Z0.15 F3000.0
G1 X20.98 Y17.86 Z0.15 F3000.0
G1 X21.38 Y17.86 Z0.15 F3000.0
G1 X21.78 Y17.94 Z0.15 F3000.0
G1 X23.64 Y19.21 Z0.15 F3000.0
M108 R30.0
M101
G1 X24.3 Y19.66 Z0.15 F3000.0
M108 R1.846
G1 X24.3 Y27.26 Z0.15 F1080.0
G1 X3.56 Y27.26 Z0.15 F1080.0
G1 X3.56 Y12.52 Z0.15 F1080.0
G1 X24.3 Y12.52 Z0.15 F1080.0
G1 X24.3 Y19.66 Z0.15 F1080.0
M103
(</loop>)
(<perimeter> outer )
G1 X24.72 Y19.66 Z0.15 F3000.0
M101
G1 X24.72 Y27.68 Z0.15 F1080.0
G1 X3.14 Y27.68 Z0.15 F1080.0
G1 X3.14 Y12.1 Z0.15 F1080.0
G1 X24.72 Y12.1 Z0.15 F1080.0
G1 X24.72 Y19.39 Z0.15 F1080.0
M108 R30.0
M102
G1 X24.72 Y19.66 Z0.15 F1080.0
M108 R1.846
M103
(</perimeter>)
(</boundaryPerimeter>)
(<surroundingLoop>)
(<boundaryPerimeter>)
(<boundaryPoint> X19.639 Y20.716 Z0.15 </boundaryPoint>)
(<boundaryPoint> X19.829 Y21.001 Z0.15 </boundaryPoint>)
(<boundaryPoint> X20.072 Y21.244 Z0.15 </boundaryPoint>)
(<boundaryPoint> X20.357 Y21.435 Z0.15 </boundaryPoint>)
(<boundaryPoint> X20.674 Y21.566 Z0.15 </boundaryPoint>)
(<boundaryPoint> X21.011 Y21.633 Z0.15 </boundaryPoint>)
(<boundaryPoint> X21.354 Y21.633 Z0.15 </boundaryPoint>)
(<boundaryPoint> X21.691 Y21.566 Z0.15 </boundaryPoint>)
(<boundaryPoint> X22.008 Y21.435 Z0.15 </boundaryPoint>)
(<boundaryPoint> X22.292 Y21.244 Z0.15 </boundaryPoint>)
(<boundaryPoint> X22.535 Y21.001 Z0.15 </boundaryPoint>)
(<boundaryPoint> X22.725 Y20.716 Z0.15 </boundaryPoint>)
(<boundaryPoint> X22.858 Y20.399 Z0.15 </boundaryPoint>)
(<boundaryPoint> X22.925 Y20.063 Z0.15 </boundaryPoint>)
(<boundaryPoint> X22.925 Y19.72 Z0.15 </boundaryPoint>)
(<boundaryPoint> X22.858 Y19.383 Z0.15 </boundaryPoint>)
(<boundaryPoint> X22.725 Y19.066 Z0.15 </boundaryPoint>)
(<boundaryPoint> X22.535 Y18.781 Z0.15 </boundaryPoint>)
(<boundaryPoint> X22.292 Y18.538 Z0.15 </boundaryPoint>)
(<boundaryPoint> X22.008 Y18.348 Z0.15 </boundaryPoint>)
(<boundaryPoint> X21.691 Y18.217 Z0.15 </boundaryPoint>)
(<boundaryPoint> X21.354 Y18.15 Z0.15 </boundaryPoint>)
(<boundaryPoint> X21.011 Y18.15 Z0.15 </boundaryPoint>)
(<boundaryPoint> X20.674 Y18.217 Z0.15 </boundaryPoint>)
(<boundaryPoint> X20.357 Y18.348 Z0.15 </boundaryPoint>)
(<boundaryPoint> X20.072 Y18.538 Z0.15 </boundaryPoint>)
(<boundaryPoint> X19.829 Y18.781 Z0.15 </boundaryPoint>)
(<boundaryPoint> X19.639 Y19.066 Z0.15 </boundaryPoint>)
(<boundaryPoint> X19.508 Y19.383 Z0.15 </boundaryPoint>)
(<boundaryPoint> X19.441 Y19.72 Z0.15 </boundaryPoint>)
(<boundaryPoint> X19.441 Y20.063 Z0.15 </boundaryPoint>)
(<boundaryPoint> X19.508 Y20.399 Z0.15 </boundaryPoint>)
(<perimeter> inner )
G1 X23.93 Y19.68 Z0.15 F3000.0
M108 R30.0
M101
G1 X23.13 Y19.7 Z0.15 F3000.0
M108 R1.846
G1 X23.06 Y19.32 Z0.15 F1080.0
G1 X22.91 Y18.97 Z0.15 F1080.0
G1 X22.7 Y18.65 Z0.15 F1080.0
G1 X22.43 Y18.38 Z0.15 F1080.0
G1 X22.11 Y18.16 Z0.15 F1080.0
G1 X21.75 Y18.02 Z0.15 F1080.0
G1 X21.38 Y17.94 Z0.15 F1080.0
G1 X20.99 Y17.94 Z0.15 F1080.0
G1 X20.61 Y18.02 Z0.15 F1080.0
G1 X20.26 Y18.16 Z0.15 F1080.0
G1 X19.94 Y18.38 Z0.15 F1080.0
G1 X19.67 Y18.65 Z0.15 F1080.0
G1 X19.45 Y18.97 Z0.15 F1080.0
G1 X19.31 Y19.32 Z0.15 F1080.0
G1 X19.23 Y19.7 Z0.15 F1080.0
G1 X19.23 Y20.08 Z0.15 F1080.0
G1 X19.31 Y20.46 Z0.15 F1080.0
G1 X19.45 Y20.82 Z0.15 F1080.0
G1 X19.67 Y21.13 Z0.15 F1080.0
G1 X19.94 Y21.41 Z0.15 F1080.0
G1 X20.26 Y21.62 Z0.15 F1080.0
G1 X20.61 Y21.77 Z0.15 F1080.0
G1 X20.99 Y21.84 Z0.15 F1080.0
G1 X21.38 Y21.84 Z0.15 F1080.0
G1 X21.75 Y21.77 Z0.15 F1080.0
G1 X22.11 Y21.62 Z0.15 F1080.0
G1 X22.43 Y21.41 Z0.15 F1080.0
G1 X22.7 Y21.13 Z0.15 F1080.0
G1 X22.91 Y20.82 Z0.15 F1080.0
G1 X23.06 Y20.46 Z0.15 F1080.0
G1 X23.13 Y20.08 Z0.15 F1080.0
G1 X23.13 Y19.97 Z0.15 F1080.0
M108 R30.0
M102
G1 X23.13 Y19.7 Z0.15 F1080.0
M108 R1.846
M103
(</perimeter>)
(</boundaryPerimeter>)
(</surroundingLoop>)
(<surroundingLoop>)
(<boundaryPerimeter>)
(<boundaryPoint> X5.139 Y20.716 Z0.15 </boundaryPoint>)
(<boundaryPoint> X5.329 Y21.001 Z0.15 </boundaryPoint>)
(<boundaryPoint> X5.572 Y21.244 Z0.15 </boundaryPoint>)
(<boundaryPoint> X5.857 Y21.435 Z0.15 </boundaryPoint>)
(<boundaryPoint> X6.174 Y21.566 Z0.15 </boundaryPoint>)
(<boundaryPoint> X6.51 Y21.633 Z0.15 </boundaryPoint>)
(<boundaryPoint> X6.854 Y21.633 Z0.15 </boundaryPoint>)
(<boundaryPoint> X7.19 Y21.566 Z0.15 </boundaryPoint>)
(<boundaryPoint> X7.507 Y21.435 Z0.15 </boundaryPoint>)
(<boundaryPoint> X7.792 Y21.244 Z0.15 </boundaryPoint>)
(<boundaryPoint> X8.035 Y21.001 Z0.15 </boundaryPoint>)
(<boundaryPoint> X8.226 Y20.716 Z0.15 </boundaryPoint>)
(<boundaryPoint> X8.357 Y20.399 Z0.15 </boundaryPoint>)
(<boundaryPoint> X8.424 Y20.063 Z0.15 </boundaryPoint>)
(<boundaryPoint> X8.424 Y19.72 Z0.15 </boundaryPoint>)
(<boundaryPoint> X8.357 Y19.383 Z0.15 </boundaryPoint>)
(<boundaryPoint> X8.226 Y19.066 Z0.15 </boundaryPoint>)
(<boundaryPoint> X8.035 Y18.781 Z0.15 </boundaryPoint>)
(<boundaryPoint> X7.792 Y18.538 Z0.15 </boundaryPoint>)
(<boundaryPoint> X7.507 Y18.348 Z0.15 </boundaryPoint>)
(<boundaryPoint> X7.19 Y18.217 Z0.15 </boundaryPoint>)
(<boundaryPoint> X6.854 Y18.15 Z0.15 </boundaryPoint>)
(<boundaryPoint> X6.51 Y18.15 Z0.15 </boundaryPoint>)
(<boundaryPoint> X6.174 Y18.217 Z0.15 </boundaryPoint>)
(<boundaryPoint> X5.857 Y18.348 Z0.15 </boundaryPoint>)
(<boundaryPoint> X5.572 Y18.538 Z0.15 </boundaryPoint>)
(<boundaryPoint> X5.329 Y18.781 Z0.15 </boundaryPoint>)
(<boundaryPoint> X5.139 Y19.066 Z0.15 </boundaryPoint>)
(<boundaryPoint> X5.007 Y19.383 Z0.15 </boundaryPoint>)
(<boundaryPoint> X4.94 Y19.72 Z0.15 </boundaryPoint>)
(<boundaryPoint> X4.94 Y20.063 Z0.15 </boundaryPoint>)
(<boundaryPoint> X5.007 Y20.399 Z0.15 </boundaryPoint>)
(<perimeter> inner )
G1 X22.98 Y18.93 Z0.15 F3000.0
G1 X22.76 Y18.6 Z0.15 F3000.0
G1 X22.48 Y18.31 Z0.15 F3000.0
G1 X22.15 Y18.09 Z0.15 F3000.0
G1 X21.78 Y17.94 Z0.15 F3000.0
G1 X21.38 Y17.86 Z0.15 F3000.0
G1 X9.43 Y19.59 Z0.15 F3000.0
M108 R30.0
M101
G1 X8.63 Y19.7 Z0.15 F3000.0
M108 R1.846
G1 X8.56 Y19.32 Z0.15 F1080.0
G1 X8.41 Y18.97 Z0.15 F1080.0
G1 X8.2 Y18.65 Z0.15 F1080.0
G1 X7.92 Y18.38 Z0.15 F1080.0
G1 X7.61 Y18.16 Z0.15 F1080.0
G1 X7.25 Y18.02 Z0.15 F1080.0
G1 X6.88 Y17.94 Z0.15 F1080.0
G1 X6.49 Y17.94 Z0.15 F1080.0
G1 X6.11 Y18.02 Z0.15 F1080.0
G1 X5.76 Y18.16 Z0.15 F1080.0
G1 X5.44 Y18.38 Z0.15 F1080.0
G1 X5.17 Y18.65 Z0.15 F1080.0
G1 X4.95 Y18.97 Z0.15 F1080.0
G1 X4.81 Y19.32 Z0.15 F1080.0
G1 X4.73 Y19.7 Z0.15 F1080.0
G1 X4.73 Y20.08 Z0.15 F1080.0
G1 X4.81 Y20.46 Z0.15 F1080.0
G1 X4.95 Y20.82 Z0.15 F1080.0
G1 X5.17 Y21.13 Z0.15 F1080.0
G1 X5.44 Y21.41 Z0.15 F1080.0
G1 X5.76 Y21.62 Z0.15 F1080.0
G1 X6.11 Y21.77 Z0.15 F1080.0
G1 X6.49 Y21.84 Z0.15 F1080.0
G1 X6.88 Y21.84 Z0.15 F1080.0
G1 X7.25 Y21.77 Z0.15 F1080.0
G1 X7.61 Y21.62 Z0.15 F1080.0
G1 X7.93 Y21.41 Z0.15 F1080.0
G1 X8.2 Y21.13 Z0.15 F1080.0
G1 X8.41 Y20.82 Z0.15 F1080.0
G1 X8.56 Y20.46 Z0.15 F1080.0
G1 X8.63 Y20.08 Z0.15 F1080.0
G1 X8.63 Y19.97 Z0.15 F1080.0
M108 R30.0
M102
G1 X8.63 Y19.7 Z0.15 F1080.0
M108 R1.846
M103
(</perimeter>)
(</boundaryPerimeter>)
(</surroundingLoop>)
G1 X20.16 Y17.4 Z0.15 F1800.0
M108 R30.0
M101
G1 X20.63 Y17.31 Z0.15 F1800.0
M108 R1.846
G1 X20.63 Y12.79 Z0.15 F1080.0
G1 X20.21 Y12.79 Z0.15 F1080.0
G1 X20.21 Y17.43 Z0.15 F1080.0
G1 X19.8 Y17.64 Z0.15 F1080.0
G1 X19.8 Y12.79 Z0.15 F1080.0
G1 X19.38 Y12.79 Z0.15 F1080.0
G1 X19.38 Y17.96 Z0.15 F1080.0
G1 X18.96 Y18.46 Z0.15 F1080.0
G1 X18.96 Y12.79 Z0.15 F1080.0
G1 X18.54 Y12.79 Z0.15 F1080.0
G1 X18.54 Y26.99 Z0.15 F1080.0
G1 X18.12 Y26.99 Z0.15 F1080.0
G1 X18.12 Y12.79 Z0.15 F1080.0
G1 X17.7 Y12.79 Z0.15 F1080.0
G1 X17.7 Y26.99 Z0.15 F1080.0
G1 X17.28 Y26.99 Z0.15 F1080.0
G1 X17.28 Y12.79 Z0.15 F1080.0
G1 X16.86 Y12.79 Z0.15 F1080.0
G1 X16.86 Y26.99 Z0.15 F1080.0
G1 X16.45 Y26.99 Z0.15 F1080.0
G1 X16.45 Y12.79 Z0.15 F1080.0
G1 X16.03 Y12.79 Z0.15 F1080.0
G1 X16.03 Y26.99 Z0.15 F1080.0
G1 X15.61 Y26.99 Z0.15 F1080.0
G1 X15.61 Y12.79 Z0.15 F1080.0
G1 X15.19 Y12.79 Z0.15 F1080.0
G1 X15.19 Y26.99 Z0.15 F1080.0
G1 X14.77 Y26.99 Z0.15 F1080.0
G1 X14.77 Y12.79 Z0.15 F1080.0
G1 X14.35 Y12.79 Z0.15 F1080.0
G1 X14.35 Y26.99 Z0.15 F1080.0
G1 X13.93 Y26.99 Z0.15 F1080.0
G1 X13.93 Y12.79 Z0.15 F1080.0
G1 X13.51 Y12.79 Z0.15 F1080.0
G1 X13.51 Y26.99 Z0.15 F1080.0
G1 X13.1 Y26.99 Z0.15 F1080.0
G1 X13.1 Y12.79 Z0.15 F1080.0
G1 X12.68 Y12.79 Z0.15 F1080.0
G1 X12.68 Y26.99 Z0.15 F1080.0
G1 X12.26 Y26.99 Z0.15 F1080.0
G1 X12.26 Y12.79 Z0.15 F1080.0
G1 X11.84 Y12.79 Z0.15 F1080.0
G1 X11.84 Y26.99 Z0.15 F1080.0
G1 X11.42 Y26.99 Z0.15 F1080.0
G1 X11.42 Y12.79 Z0.15 F1080.0
G1 X11.0 Y12.79 Z0.15 F1080.0
G1 X11.0 Y26.99 Z0.15 F1080.0
G1 X10.58 Y26.99 Z0.15 F1080.0
G1 X10.58 Y12.79 Z0.15 F1080.0
G1 X10.16 Y12.79 Z0.15 F1080.0
G1 X10.16 Y26.99 Z0.15 F1080.0
G1 X9.74 Y26.99 Z0.15 F1080.0
G1 X9.74 Y12.79 Z0.15 F1080.0
G1 X9.32 Y12.79 Z0.15 F1080.0
G1 X9.32 Y19.63 Z0.15 F1080.0
M103
G1 X9.32 Y20.15 Z0.15 F1800.0
M101
G1 X9.32 Y26.99 Z0.15 F1080.0
G1 X8.9 Y26.99 Z0.15 F1080.0
G1 X8.9 Y21.32 Z0.15 F1080.0
M103
G1 X8.49 Y21.82 Z0.15 F1800.0
M101
G1 X8.49 Y26.99 Z0.15 F1080.0
G1 X8.07 Y26.99 Z0.15 F1080.0
G1 X8.07 Y22.14 Z0.15 F1080.0
M103
G1 X7.65 Y22.35 Z0.15 F1800.0
M101
G1 X7.65 Y26.99 Z0.15 F1080.0
G1 X7.23 Y26.99 Z0.15 F1080.0
G1 X7.23 Y22.48 Z0.15 F1080.0
M103
G1 X6.81 Y22.53 Z0.15 F1800.0
M101
G1 X6.81 Y26.99 Z0.15 F1080.0
G1 X6.39 Y26.99 Z0.15 F1080.0
G1 X6.39 Y22.53 Z0.15 F1080.0
M103
G1 X5.97 Y22.44 Z0.15 F1800.0
M101
G1 X5.97 Y26.99 Z0.15 F1080.0
G1 X5.55 Y26.99 Z0.15 F1080.0
G1 X5.55 Y22.29 Z0.15 F1080.0
G1 X5.14 Y22.04 Z0.15 F1080.0
G1 X5.14 Y26.99 Z0.15 F1080.0
G1 X4.72 Y26.99 Z0.15 F1080.0
G1 X4.72 Y21.66 Z0.15 F1080.0
M103
G1 X4.3 Y21.04 Z0.15 F1800.0
M101
G1 X4.3 Y26.99 Z0.15 F1080.0
G1 X3.88 Y26.99 Z0.15 F1080.0
G1 X3.88 Y12.79 Z0.15 F1080.0
G1 X4.3 Y12.79 Z0.15 F1080.0
G1 X4.3 Y18.74 Z0.15 F1080.0
M103
G1 X4.72 Y18.12 Z0.15 F1800.0
M101
G1 X4.72 Y12.79 Z0.15 F1080.0
G1 X5.14 Y12.79 Z0.15 F1080.0
G1 X5.14 Y17.75 Z0.15 F1080.0
G1 X5.55 Y17.5 Z0.15 F1080.0
G1 X5.55 Y12.79 Z0.15 F1080.0
G1 X5.97 Y12.79 Z0.15 F1080.0
G1 X5.97 Y17.34 Z0.15 F1080.0
M103
G1 X6.39 Y17.25 Z0.15 F1800.0
M101
G1 X6.39 Y12.79 Z0.15 F1080.0
G1 X6.81 Y12.79 Z0.15 F1080.0
G1 X6.81 Y17.25 Z0.15 F1080.0
M103
G1 X7.23 Y17.31 Z0.15 F1800.0
M101
G1 X7.23 Y12.79 Z0.15 F1080.0
G1 X7.65 Y12.79 Z0.15 F1080.0
G1 X7.65 Y17.43 Z0.15 F1080.0
G1 X8.07 Y17.64 Z0.15 F1080.0
G1 X8.07 Y12.79 Z0.15 F1080.0
G1 X8.49 Y12.79 Z0.15 F1080.0
G1 X8.49 Y17.96 Z0.15 F1080.0
G1 X8.9 Y18.46 Z0.15 F1080.0
G1 X8.9 Y13.06 Z0.15 F1080.0
M108 R30.0
M102
G1 X8.9 Y12.79 Z0.15 F1080.0
M108 R1.846
M103
G1 X21.02 Y17.09 Z0.15 F1800.0
M108 R30.0
M101
G1 X21.47 Y17.25 Z0.15 F1800.0
M108 R1.846
G1 X21.47 Y12.79 Z0.15 F1080.0
G1 X21.05 Y12.79 Z0.15 F1080.0
G1 X21.05 Y16.98 Z0.15 F1080.0
M108 R30.0
M102
G1 X21.05 Y17.25 Z0.15 F1080.0
M108 R1.846
M103
G1 X22.7 Y17.94 Z0.15 F1800.0
M108 R30.0
M101
G1 X23.15 Y18.12 Z0.15 F1800.0
M108 R1.846
G1 X23.15 Y12.79 Z0.15 F1080.0
G1 X22.73 Y12.79 Z0.15 F1080.0
G1 X22.73 Y17.75 Z0.15 F1080.0
G1 X22.31 Y17.5 Z0.15 F1080.0
G1 X22.31 Y12.79 Z0.15 F1080.0
G1 X21.89 Y12.79 Z0.15 F1080.0
G1 X21.89 Y17.07 Z0.15 F1080.0
M108 R30.0
M102
G1 X21.89 Y17.34 Z0.15 F1080.0
M108 R1.846
M103
G1 X23.2 Y18.43 Z0.15 F1800.0
M108 R30.0
M101
G1 X23.57 Y18.74 Z0.15 F1800.0
M108 R1.846
G1 X23.57 Y12.79 Z0.15 F1080.0
G1 X23.99 Y12.79 Z0.15 F1080.0
G1 X23.99 Y26.72 Z0.15 F1080.0
M108 R30.0
M102
G1 X23.99 Y26.99 Z0.15 F1080.0
M108 R1.846
M103
G1 X22.47 Y22.74 Z0.15 F1800.0
M108 R30.0
M101
G1 X22.31 Y22.29 Z0.15 F1800.0
M108 R1.846
G1 X22.31 Y26.99 Z0.15 F1080.0
G1 X22.73 Y26.99 Z0.15 F1080.0
G1 X22.73 Y22.04 Z0.15 F1080.0
G1 X23.15 Y21.66 Z0.15 F1080.0
G1 X23.15 Y26.99 Z0.15 F1080.0
G1 X23.57 Y26.99 Z0.15 F1080.0
G1 X23.57 Y21.31 Z0.15 F1080.0
M108 R30.0
M102
G1 X23.57 Y21.04 Z0.15 F1080.0
M108 R1.846
M103
G1 X21.07 Y22.27 Z0.15 F1800.0
M108 R30.0
M101
G1 X20.63 Y22.48 Z0.15 F1800.0
M108 R1.846
G1 X20.63 Y26.99 Z0.15 F1080.0
G1 X21.05 Y26.99 Z0.15 F1080.0
G1 X21.05 Y22.53 Z0.15 F1080.0
G1 X21.47 Y22.53 Z0.15 F1080.0
G1 X21.47 Y26.99 Z0.15 F1080.0
G1 X21.89 Y26.99 Z0.15 F1080.0
G1 X21.89 Y22.71 Z0.15 F1080.0
M108 R30.0
M102
G1 X21.89 Y22.44 Z0.15 F1080.0
M108 R1.846
M103
G1 X19.41 Y21.49 Z0.15 F1800.0
M108 R30.0
M101
G1 X18.96 Y21.32 Z0.15 F1800.0
M108 R1.846
G1 X18.96 Y26.99 Z0.15 F1080.0
G1 X19.38 Y26.99 Z0.15 F1080.0
G1 X19.38 Y21.82 Z0.15 F1080.0
G1 X19.8 Y22.14 Z0.15 F1080.0
G1 X19.8 Y26.99 Z0.15 F1080.0
G1 X20.21 Y26.99 Z0.15 F1080.0
G1 X20.21 Y22.62 Z0.15 F1080.0
M108 R30.0
M102
G1 X20.21 Y22.35 Z0.15 F1080.0
M108 R1.846
M103
(</surroundingLoop>)
(<surroundingLoop>)
(<boundaryPerimeter>)
(<boundaryPoint> X17.432 Y-8.0 Z0.15 </boundaryPoint>)
(<boundaryPoint> X24.932 Y-8.0 Z0.15 </boundaryPoint>)
(<boundaryPoint> X24.932 Y8.0 Z0.15 </boundaryPoint>)
(<boundaryPoint> X17.432 Y8.0 Z0.15 </boundaryPoint>)
(<loop> inner )
G1 X19.15 Y20.09 Z0.15 F3000.0
G1 X19.15 Y19.69 Z0.15 F3000.0
G1 X19.23 Y19.3 Z0.15 F3000.0
G1 X19.38 Y18.93 Z0.15 F3000.0
G1 X19.6 Y18.6 Z0.15 F3000.0
G1 X19.89 Y18.31 Z0.15 F3000.0
G1 X20.22 Y18.09 Z0.15 F3000.0
G1 X20.27 Y18.07 Z0.15 F3000.0
G1 X21.01 Y3.17 Z0.15 F3000.0
M108 R30.0
M101
G1 X21.05 Y2.37 Z0.15 F3000.0
M108 R1.846
G1 X21.42 Y2.37 Z0.15 F1080.0
G1 X21.87 Y2.28 Z0.15 F1080.0
G1 X22.3 Y2.1 Z0.15 F1080.0
G1 X22.69 Y1.84 Z0.15 F1080.0
G1 X23.02 Y1.51 Z0.15 F1080.0
G1 X23.28 Y1.12 Z0.15 F1080.0
G1 X23.46 Y0.69 Z0.15 F1080.0
G1 X23.55 Y0.23 Z0.15 F1080.0
G1 X23.55 Y-0.23 Z0.15 F1080.0
G1 X23.46 Y-0.69 Z0.15 F1080.0
G1 X23.28 Y-1.12 Z0.15 F1080.0
G1 X23.02 Y-1.51 Z0.15 F1080.0
G1 X22.69 Y-1.84 Z0.15 F1080.0
G1 X22.3 Y-2.1 Z0.15 F1080.0
G1 X21.87 Y-2.28 Z0.15 F1080.0
G1 X21.42 Y-2.37 Z0.15 F1080.0
G1 X20.95 Y-2.37 Z0.15 F1080.0
G1 X20.49 Y-2.28 Z0.15 F1080.0
G1 X20.06 Y-2.1 Z0.15 F1080.0
G1 X19.67 Y-1.84 Z0.15 F1080.0
G1 X19.34 Y-1.51 Z0.15 F1080.0
G1 X19.08 Y-1.12 Z0.15 F1080.0
G1 X18.9 Y-0.69 Z0.15 F1080.0
G1 X18.81 Y-0.23 Z0.15 F1080.0
G1 X18.81 Y0.23 Z0.15 F1080.0
G1 X18.9 Y0.69 Z0.15 F1080.0
G1 X19.08 Y1.12 Z0.15 F1080.0
G1 X19.34 Y1.51 Z0.15 F1080.0
G1 X19.67 Y1.84 Z0.15 F1080.0
G1 X20.06 Y2.1 Z0.15 F1080.0
G1 X20.49 Y2.28 Z0.15 F1080.0
G1 X20.78 Y2.34 Z0.15 F1080.0
M108 R30.0
M102
G1 X20.95 Y2.37 Z0.15 F1080.0
G1 X21.05 Y2.37 Z0.15 F1080.0
M108 R1.846
M103
(</loop>)
(<loop> outer )
G1 X18.86 Y2.37 Z0.15 F3000.0
M108 R30.0
M101
G1 X18.06 Y2.37 Z0.15 F3000.0
M108 R1.846
G1 X18.06 Y-7.37 Z0.15 F1080.0
G1 X24.3 Y-7.37 Z0.15 F1080.0
G1 X24.3 Y7.37 Z0.15 F1080.0
G1 X18.06 Y7.37 Z0.15 F1080.0
G1 X18.06 Y2.37 Z0.15 F1080.0
M103
(</loop>)
(<perimeter> outer )
G1 X17.64 Y2.37 Z0.15 F3000.0
M101
G1 X17.64 Y-7.79 Z0.15 F1080.0
G1 X24.72 Y-7.79 Z0.15 F1080.0
G1 X24.72 Y7.79 Z0.15 F1080.0
G1 X17.64 Y7.79 Z0.15 F1080.0
G1 X17.64 Y2.64 Z0.15 F1080.0
M108 R30.0
M102
G1 X17.64 Y2.37 Z0.15 F1080.0
M108 R1.846
M103
(</perimeter>)
(</boundaryPerimeter>)
(<surroundingLoop>)
(<boundaryPerimeter>)
(<boundaryPoint> X22.925 Y-0.172 Z0.15 </boundaryPoint>)
(<boundaryPoint> X22.858 Y-0.508 Z0.15 </boundaryPoint>)
(<boundaryPoint> X22.725 Y-0.825 Z0.15 </boundaryPoint>)
(<boundaryPoint> X22.535 Y-1.11 Z0.15 </boundaryPoint>)
(<boundaryPoint> X22.292 Y-1.353 Z0.15 </boundaryPoint>)
(<boundaryPoint> X22.008 Y-1.543 Z0.15 </boundaryPoint>)
(<boundaryPoint> X21.691 Y-1.675 Z0.15 </boundaryPoint>)
(<boundaryPoint> X21.354 Y-1.742 Z0.15 </boundaryPoint>)
(<boundaryPoint> X21.011 Y-1.742 Z0.15 </boundaryPoint>)
(<boundaryPoint> X20.674 Y-1.675 Z0.15 </boundaryPoint>)
(<boundaryPoint> X20.357 Y-1.543 Z0.15 </boundaryPoint>)
(<boundaryPoint> X20.072 Y-1.353 Z0.15 </boundaryPoint>)
(<boundaryPoint> X19.829 Y-1.11 Z0.15 </boundaryPoint>)
(<boundaryPoint> X19.639 Y-0.825 Z0.15 </boundaryPoint>)
(<boundaryPoint> X19.508 Y-0.508 Z0.15 </boundaryPoint>)
(<boundaryPoint> X19.441 Y-0.172 Z0.15 </boundaryPoint>)
(<boundaryPoint> X19.441 Y0.172 Z0.15 </boundaryPoint>)
(<boundaryPoint> X19.508 Y0.508 Z0.15 </boundaryPoint>)
(<boundaryPoint> X19.639 Y0.825 Z0.15 </boundaryPoint>)
(<boundaryPoint> X19.829 Y1.11 Z0.15 </boundaryPoint>)
(<boundaryPoint> X20.072 Y1.353 Z0.15 </boundaryPoint>)
(<boundaryPoint> X20.357 Y1.543 Z0.15 </boundaryPoint>)
(<boundaryPoint> X20.674 Y1.675 Z0.15 </boundaryPoint>)
(<boundaryPoint> X21.011 Y1.742 Z0.15 </boundaryPoint>)
(<boundaryPoint> X21.354 Y1.742 Z0.15 </boundaryPoint>)
(<boundaryPoint> X21.691 Y1.675 Z0.15 </boundaryPoint>)
(<boundaryPoint> X22.008 Y1.543 Z0.15 </boundaryPoint>)
(<boundaryPoint> X22.292 Y1.353 Z0.15 </boundaryPoint>)
(<boundaryPoint> X22.535 Y1.11 Z0.15 </boundaryPoint>)
(<boundaryPoint> X22.725 Y0.825 Z0.15 </boundaryPoint>)
(<boundaryPoint> X22.858 Y0.508 Z0.15 </boundaryPoint>)
(<boundaryPoint> X22.925 Y0.172 Z0.15 </boundaryPoint>)
(<perimeter> inner )
G1 X18.97 Y1.63 Z0.15 F3000.0
M108 R30.0
M101
G1 X19.67 Y1.24 Z0.15 F3000.0
M108 R1.846
G1 X19.94 Y1.52 Z0.15 F1080.0
G1 X20.26 Y1.73 Z0.15 F1080.0
G1 X20.61 Y1.88 Z0.15 F1080.0
G1 X20.99 Y1.95 Z0.15 F1080.0
G1 X21.38 Y1.95 Z0.15 F1080.0
G1 X21.75 Y1.88 Z0.15 F1080.0
G1 X22.11 Y1.73 Z0.15 F1080.0
G1 X22.43 Y1.52 Z0.15 F1080.0
G1 X22.7 Y1.24 Z0.15 F1080.0
G1 X22.91 Y0.92 Z0.15 F1080.0
G1 X23.06 Y0.57 Z0.15 F1080.0
G1 X23.13 Y0.19 Z0.15 F1080.0
G1 X23.13 Y-0.19 Z0.15 F1080.0
G1 X23.06 Y-0.57 Z0.15 F1080.0
G1 X22.91 Y-0.92 Z0.15 F1080.0
G1 X22.7 Y-1.24 Z0.15 F1080.0
G1 X22.43 Y-1.52 Z0.15 F1080.0
G1 X22.11 Y-1.73 Z0.15 F1080.0
G1 X21.75 Y-1.88 Z0.15 F1080.0
G1 X21.38 Y-1.95 Z0.15 F1080.0
G1 X20.99 Y-1.95 Z0.15 F1080.0
G1 X20.61 Y-1.88 Z0.15 F1080.0
G1 X20.26 Y-1.73 Z0.15 F1080.0
G1 X19.94 Y-1.52 Z0.15 F1080.0
G1 X19.67 Y-1.24 Z0.15 F1080.0
G1 X19.45 Y-0.92 Z0.15 F1080.0
G1 X19.31 Y-0.57 Z0.15 F1080.0
G1 X19.23 Y-0.19 Z0.15 F1080.0
G1 X19.23 Y0.19 Z0.15 F1080.0
G1 X19.31 Y0.57 Z0.15 F1080.0
G1 X19.45 Y0.92 Z0.15 F1080.0
G1 X19.52 Y1.02 Z0.15 F1080.0
M108 R30.0
M102
G1 X19.67 Y1.24 Z0.15 F1080.0
M108 R1.846
M103
(</perimeter>)
(</boundaryPerimeter>)
(</surroundingLoop>)
G1 X19.73 Y1.78 Z0.15 F1800.0
M108 R30.0
M101
G1 X19.8 Y2.25 Z0.15 F1800.0
M108 R1.846
G1 X19.8 Y7.1 Z0.15 F1080.0
G1 X19.38 Y7.1 Z0.15 F1080.0
G1 X19.38 Y1.93 Z0.15 F1080.0
G1 X18.96 Y1.43 Z0.15 F1080.0
G1 X18.96 Y7.1 Z0.15 F1080.0
G1 X18.54 Y7.1 Z0.15 F1080.0
G1 X18.54 Y-7.1 Z0.15 F1080.0
G1 X18.96 Y-7.1 Z0.15 F1080.0
G1 X18.96 Y-1.43 Z0.15 F1080.0
G1 X19.38 Y-1.93 Z0.15 F1080.0
G1 X19.38 Y-7.1 Z0.15 F1080.0
G1 X19.8 Y-7.1 Z0.15 F1080.0
G1 X19.8 Y-2.25 Z0.15 F1080.0
M103
G1 X20.63 Y-2.58 Z0.15 F1800.0
M101
G1 X20.63 Y-7.1 Z0.15 F1080.0
G1 X20.21 Y-7.1 Z0.15 F1080.0
G1 X20.21 Y-2.73 Z0.15 F1080.0
M108 R30.0
M102
G1 X20.21 Y-2.46 Z0.15 F1080.0
M108 R1.846
M103
G1 X21.0 Y-2.57 Z0.15 F1800.0
M108 R30.0
M101
G1 X21.47 Y-2.64 Z0.15 F1800.0
M108 R1.846
G1 X21.47 Y-7.1 Z0.15 F1080.0
G1 X21.05 Y-7.1 Z0.15 F1080.0
G1 X21.05 Y-2.91 Z0.15 F1080.0
M108 R30.0
M102
G1 X21.05 Y-2.64 Z0.15 F1080.0
M108 R1.846
M103
G1 X22.7 Y-1.96 Z0.15 F1800.0
M108 R30.0
M101
G1 X23.15 Y-1.77 Z0.15 F1800.0
M108 R1.846
G1 X23.15 Y-7.1 Z0.15 F1080.0
G1 X22.73 Y-7.1 Z0.15 F1080.0
G1 X22.73 Y-2.15 Z0.15 F1080.0
G1 X22.31 Y-2.39 Z0.15 F1080.0
G1 X22.31 Y-7.1 Z0.15 F1080.0
G1 X21.89 Y-7.1 Z0.15 F1080.0
G1 X21.89 Y-2.82 Z0.15 F1080.0
M108 R30.0
M102
G1 X21.89 Y-2.55 Z0.15 F1080.0
M108 R1.846
M103
G1 X23.18 Y-0.4 Z0.15 F3000.0
G1 X23.45 Y0.68 Z0.15 F1800.0
M108 R30.0
M101
G1 X23.57 Y1.15 Z0.15 F1800.0
M108 R1.846
G1 X23.57 Y7.1 Z0.15 F1080.0
G1 X23.99 Y7.1 Z0.15 F1080.0
G1 X23.99 Y-7.1 Z0.15 F1080.0
G1 X23.57 Y-7.1 Z0.15 F1080.0
G1 X23.57 Y-1.42 Z0.15 F1080.0
M108 R30.0
M102
G1 X23.57 Y-1.15 Z0.15 F1080.0
M108 R1.846
M103
G1 X22.81 Y1.23 Z0.15 F3000.0
G1 X22.16 Y2.16 Z0.15 F1800.0
M108 R30.0
M101
G1 X21.89 Y2.55 Z0.15 F1800.0
M108 R1.846
G1 X21.89 Y7.1 Z0.15 F1080.0
G1 X22.31 Y7.1 Z0.15 F1080.0
G1 X22.31 Y2.39 Z0.15 F1080.0
G1 X22.73 Y2.15 Z0.15 F1080.0
G1 X22.73 Y7.1 Z0.15 F1080.0
G1 X23.15 Y7.1 Z0.15 F1080.0
G1 X23.15 Y2.04 Z0.15 F1080.0
M108 R30.0
M102
G1 X23.15 Y1.77 Z0.15 F1080.0
M108 R1.846
M103
G1 X21.5 Y2.46 Z0.15 F1800.0
M108 R30.0
M101
G1 X21.05 Y2.64 Z0.15 F1800.0
M108 R1.846
G1 X21.05 Y7.1 Z0.15 F1080.0
G1 X21.47 Y7.1 Z0.15 F1080.0
G1 X21.47 Y2.91 Z0.15 F1080.0
M108 R30.0
M102
G1 X21.47 Y2.64 Z0.15 F1080.0
M108 R1.846
M103
G1 X20.69 Y2.53 Z0.15 F1800.0
M108 R30.0
M101
G1 X20.21 Y2.46 Z0.15 F1800.0
M108 R1.846
G1 X20.21 Y7.1 Z0.15 F1080.0
G1 X20.63 Y7.1 Z0.15 F1080.0
G1 X20.63 Y2.85 Z0.15 F1080.0
M108 R30.0
M102
G1 X20.63 Y2.58 Z0.15 F1080.0
M108 R1.846
M103
(</surroundingLoop>)
(<surroundingLoop>)
(<boundaryPerimeter>)
(<boundaryPoint> X24.932 Y-27.891 Z0.15 </boundaryPoint>)
(<boundaryPoint> X24.932 Y-11.891 Z0.15 </boundaryPoint>)
(<boundaryPoint> X2.932 Y-11.891 Z0.15 </boundaryPoint>)
(<boundaryPoint> X2.932 Y-27.891 Z0.15 </boundaryPoint>)
(<loop> inner )
G1 X8.31 Y-17.17 Z0.15 F3000.0
M108 R30.0
M101
G1 X7.89 Y-17.85 Z0.15 F3000.0
M108 R1.846
G1 X8.19 Y-18.05 Z0.15 F1080.0
G1 X8.52 Y-18.38 Z0.15 F1080.0
G1 X8.78 Y-18.77 Z0.15 F1080.0
G1 X8.96 Y-19.2 Z0.15 F1080.0
G1 X9.05 Y-19.66 Z0.15 F1080.0
G1 X9.05 Y-20.13 Z0.15 F1080.0
G1 X8.96 Y-20.58 Z0.15 F1080.0
G1 X8.78 Y-21.01 Z0.15 F1080.0
G1 X8.52 Y-21.4 Z0.15 F1080.0
G1 X8.19 Y-21.73 Z0.15 F1080.0
G1 X7.8 Y-21.99 Z0.15 F1080.0
G1 X7.37 Y-22.17 Z0.15 F1080.0
G1 X6.92 Y-22.26 Z0.15 F1080.0
G1 X6.45 Y-22.26 Z0.15 F1080.0
G1 X5.99 Y-22.17 Z0.15 F1080.0
G1 X5.56 Y-21.99 Z0.15 F1080.0
G1 X5.17 Y-21.73 Z0.15 F1080.0
G1 X4.84 Y-21.4 Z0.15 F1080.0
G1 X4.58 Y-21.01 Z0.15 F1080.0
G1 X4.4 Y-20.58 Z0.15 F1080.0
G1 X4.31 Y-20.13 Z0.15 F1080.0
G1 X4.31 Y-19.66 Z0.15 F1080.0
G1 X4.4 Y-19.2 Z0.15 F1080.0
G1 X4.58 Y-18.77 Z0.15 F1080.0
G1 X4.84 Y-18.38 Z0.15 F1080.0
G1 X5.17 Y-18.05 Z0.15 F1080.0
G1 X5.56 Y-17.79 Z0.15 F1080.0
G1 X5.99 Y-17.61 Z0.15 F1080.0
G1 X6.45 Y-17.52 Z0.15 F1080.0
G1 X6.92 Y-17.52 Z0.15 F1080.0
G1 X7.37 Y-17.61 Z0.15 F1080.0
G1 X7.65 Y-17.73 Z0.15 F1080.0
M108 R30.0
M102
G1 X7.8 Y-17.79 Z0.15 F1080.0
G1 X7.89 Y-17.85 Z0.15 F1080.0
M108 R1.846
M103
(</loop>)
(<loop> inner )
G1 X18.06 Y-19.31 Z0.15 F3000.0
M108 R30.0
M101
G1 X18.85 Y-19.43 Z0.15 F3000.0
M108 R1.846
G1 X18.98 Y-18.98 Z0.15 F1080.0
G1 X19.2 Y-18.57 Z0.15 F1080.0
G1 X19.5 Y-18.21 Z0.15 F1080.0
G1 X19.86 Y-17.91 Z0.15 F1080.0
G1 X20.27 Y-17.69 Z0.15 F1080.0
G1 X20.72 Y-17.56 Z0.15 F1080.0
G1 X21.18 Y-17.51 Z0.15 F1080.0
G1 X21.65 Y-17.56 Z0.15 F1080.0
G1 X22.09 Y-17.69 Z0.15 F1080.0
G1 X22.51 Y-17.91 Z0.15 F1080.0
G1 X22.86 Y-18.21 Z0.15 F1080.0
G1 X23.16 Y-18.57 Z0.15 F1080.0
G1 X23.38 Y-18.98 Z0.15 F1080.0
G1 X23.52 Y-19.43 Z0.15 F1080.0
G1 X23.56 Y-19.89 Z0.15 F1080.0
G1 X23.52 Y-20.36 Z0.15 F1080.0
G1 X23.38 Y-20.8 Z0.15 F1080.0
G1 X23.16 Y-21.21 Z0.15 F1080.0
G1 X22.86 Y-21.58 Z0.15 F1080.0
G1 X22.5 Y-21.87 Z0.15 F1080.0
G1 X22.09 Y-22.09 Z0.15 F1080.0
G1 X21.65 Y-22.23 Z0.15 F1080.0
G1 X21.18 Y-22.27 Z0.15 F1080.0
G1 X20.72 Y-22.23 Z0.15 F1080.0
G1 X20.27 Y-22.09 Z0.15 F1080.0
G1 X19.86 Y-21.87 Z0.15 F1080.0
G1 X19.5 Y-21.58 Z0.15 F1080.0
G1 X19.2 Y-21.21 Z0.15 F1080.0
G1 X18.98 Y-20.8 Z0.15 F1080.0
G1 X18.85 Y-20.36 Z0.15 F1080.0
G1 X18.8 Y-19.89 Z0.15 F1080.0
G1 X18.82 Y-19.7 Z0.15 F1080.0
M108 R30.0
M102
G1 X18.85 Y-19.43 Z0.15 F1080.0
M108 R1.846
M103
(</loop>)
(<loop> outer )
G1 X20.4 Y-18.0 Z0.15 F3000.0
G1 X20.78 Y-17.89 Z0.15 F3000.0
G1 X21.18 Y-17.85 Z0.15 F3000.0
G1 X21.58 Y-17.89 Z0.15 F3000.0
G1 X23.61 Y-19.03 Z0.15 F3000.0
M108 R30.0
M101
G1 X24.3 Y-19.43 Z0.15 F3000.0
M108 R1.846
G1 X24.3 Y-12.52 Z0.15 F1080.0
G1 X3.56 Y-12.52 Z0.15 F1080.0
G1 X3.56 Y-27.26 Z0.15 F1080.0
G1 X24.3 Y-27.26 Z0.15 F1080.0
G1 X24.3 Y-19.43 Z0.15 F1080.0
M103
(</loop>)
(<perimeter> outer )
G1 X24.72 Y-19.43 Z0.15 F3000.0
M101
G1 X24.72 Y-12.1 Z0.15 F1080.0
G1 X3.14 Y-12.1 Z0.15 F1080.0
G1 X3.14 Y-27.68 Z0.15 F1080.0
G1 X24.72 Y-27.68 Z0.15 F1080.0
G1 X24.72 Y-19.7 Z0.15 F1080.0
M108 R30.0
M102
G1 X24.72 Y-19.43 Z0.15 F1080.0
M108 R1.846
M103
(</perimeter>)
(</boundaryPerimeter>)
(<surroundingLoop>)
(<boundaryPerimeter>)
(<boundaryPoint> X19.727 Y-18.919 Z0.15 </boundaryPoint>)
(<boundaryPoint> X19.945 Y-18.654 Z0.15 </boundaryPoint>)
(<boundaryPoint> X20.21 Y-18.436 Z0.15 </boundaryPoint>)
(<boundaryPoint> X20.512 Y-18.274 Z0.15 </boundaryPoint>)
(<boundaryPoint> X20.841 Y-18.175 Z0.15 </boundaryPoint>)
(<boundaryPoint> X21.182 Y-18.141 Z0.15 </boundaryPoint>)
(<boundaryPoint> X21.523 Y-18.175 Z0.15 </boundaryPoint>)
(<boundaryPoint> X21.852 Y-18.274 Z0.15 </boundaryPoint>)
(<boundaryPoint> X22.154 Y-18.436 Z0.15 </boundaryPoint>)
(<boundaryPoint> X22.419 Y-18.654 Z0.15 </boundaryPoint>)
(<boundaryPoint> X22.637 Y-18.919 Z0.15 </boundaryPoint>)
(<boundaryPoint> X22.8 Y-19.222 Z0.15 </boundaryPoint>)
(<boundaryPoint> X22.898 Y-19.55 Z0.15 </boundaryPoint>)
(<boundaryPoint> X22.932 Y-19.891 Z0.15 </boundaryPoint>)
(<boundaryPoint> X22.898 Y-20.233 Z0.15 </boundaryPoint>)
(<boundaryPoint> X22.8 Y-20.561 Z0.15 </boundaryPoint>)
(<boundaryPoint> X22.637 Y-20.863 Z0.15 </boundaryPoint>)
(<boundaryPoint> X22.419 Y-21.129 Z0.15 </boundaryPoint>)
(<boundaryPoint> X22.154 Y-21.346 Z0.15 </boundaryPoint>)
(<boundaryPoint> X21.852 Y-21.508 Z0.15 </boundaryPoint>)
(<boundaryPoint> X21.523 Y-21.608 Z0.15 </boundaryPoint>)
(<boundaryPoint> X21.182 Y-21.641 Z0.15 </boundaryPoint>)
(<boundaryPoint> X20.841 Y-21.608 Z0.15 </boundaryPoint>)
(<boundaryPoint> X20.512 Y-21.508 Z0.15 </boundaryPoint>)
(<boundaryPoint> X20.21 Y-21.346 Z0.15 </boundaryPoint>)
(<boundaryPoint> X19.945 Y-21.129 Z0.15 </boundaryPoint>)
(<boundaryPoint> X19.727 Y-20.863 Z0.15 </boundaryPoint>)
(<boundaryPoint> X19.566 Y-20.561 Z0.15 </boundaryPoint>)
(<boundaryPoint> X19.466 Y-20.233 Z0.15 </boundaryPoint>)
(<boundaryPoint> X19.432 Y-19.891 Z0.15 </boundaryPoint>)
(<boundaryPoint> X19.466 Y-19.55 Z0.15 </boundaryPoint>)
(<boundaryPoint> X19.566 Y-19.222 Z0.15 </boundaryPoint>)
(<perimeter> inner )
G1 X23.9 Y-19.47 Z0.15 F3000.0
M108 R30.0
M101
G1 X23.11 Y-19.51 Z0.15 F3000.0
M108 R1.846
G1 X23.14 Y-19.89 Z0.15 F1080.0
G1 X23.11 Y-20.27 Z0.15 F1080.0
G1 X22.99 Y-20.64 Z0.15 F1080.0
G1 X22.81 Y-20.98 Z0.15 F1080.0
G1 X22.57 Y-21.28 Z0.15 F1080.0
G1 X22.27 Y-21.52 Z0.15 F1080.0
G1 X21.93 Y-21.7 Z0.15 F1080.0
G1 X21.56 Y-21.82 Z0.15 F1080.0
G1 X21.18 Y-21.85 Z0.15 F1080.0
G1 X20.8 Y-21.82 Z0.15 F1080.0
G1 X20.43 Y-21.7 Z0.15 F1080.0
G1 X20.09 Y-21.52 Z0.15 F1080.0
G1 X19.8 Y-21.28 Z0.15 F1080.0
G1 X19.55 Y-20.98 Z0.15 F1080.0
G1 X19.37 Y-20.64 Z0.15 F1080.0
G1 X19.26 Y-20.27 Z0.15 F1080.0
G1 X19.22 Y-19.89 Z0.15 F1080.0
G1 X19.26 Y-19.51 Z0.15 F1080.0
G1 X19.37 Y-19.14 Z0.15 F1080.0
G1 X19.55 Y-18.8 Z0.15 F1080.0
G1 X19.8 Y-18.5 Z0.15 F1080.0
G1 X20.09 Y-18.26 Z0.15 F1080.0
G1 X20.43 Y-18.08 Z0.15 F1080.0
G1 X20.8 Y-17.97 Z0.15 F1080.0
G1 X21.18 Y-17.93 Z0.15 F1080.0
G1 X21.56 Y-17.97 Z0.15 F1080.0
G1 X21.93 Y-18.08 Z0.15 F1080.0
G1 X22.27 Y-18.26 Z0.15 F1080.0
G1 X22.57 Y-18.5 Z0.15 F1080.0
G1 X22.81 Y-18.8 Z0.15 F1080.0
G1 X22.99 Y-19.14 Z0.15 F1080.0
G1 X23.03 Y-19.25 Z0.15 F1080.0
M108 R30.0
M102
G1 X23.11 Y-19.51 Z0.15 F1080.0
M108 R1.846
M103
(</perimeter>)
(</boundaryPerimeter>)
(</surroundingLoop>)
(<surroundingLoop>)
(<boundaryPerimeter>)
(<boundaryPoint> X5.139 Y-19.066 Z0.15 </boundaryPoint>)
(<boundaryPoint> X5.329 Y-18.781 Z0.15 </boundaryPoint>)
(<boundaryPoint> X5.572 Y-18.538 Z0.15 </boundaryPoint>)
(<boundaryPoint> X5.857 Y-18.348 Z0.15 </boundaryPoint>)
(<boundaryPoint> X6.174 Y-18.217 Z0.15 </boundaryPoint>)
(<boundaryPoint> X6.51 Y-18.15 Z0.15 </boundaryPoint>)
(<boundaryPoint> X6.854 Y-18.15 Z0.15 </boundaryPoint>)
(<boundaryPoint> X7.19 Y-18.217 Z0.15 </boundaryPoint>)
(<boundaryPoint> X7.507 Y-18.348 Z0.15 </boundaryPoint>)
(<boundaryPoint> X7.792 Y-18.538 Z0.15 </boundaryPoint>)
(<boundaryPoint> X8.035 Y-18.781 Z0.15 </boundaryPoint>)
(<boundaryPoint> X8.226 Y-19.066 Z0.15 </boundaryPoint>)
(<boundaryPoint> X8.357 Y-19.383 Z0.15 </boundaryPoint>)
(<boundaryPoint> X8.424 Y-19.72 Z0.15 </boundaryPoint>)
(<boundaryPoint> X8.424 Y-20.063 Z0.15 </boundaryPoint>)
(<boundaryPoint> X8.357 Y-20.399 Z0.15 </boundaryPoint>)
(<boundaryPoint> X8.226 Y-20.716 Z0.15 </boundaryPoint>)
(<boundaryPoint> X8.035 Y-21.001 Z0.15 </boundaryPoint>)
(<boundaryPoint> X7.792 Y-21.244 Z0.15 </boundaryPoint>)
(<boundaryPoint> X7.507 Y-21.435 Z0.15 </boundaryPoint>)
(<boundaryPoint> X7.19 Y-21.566 Z0.15 </boundaryPoint>)
(<boundaryPoint> X6.854 Y-21.633 Z0.15 </boundaryPoint>)
(<boundaryPoint> X6.51 Y-21.633 Z0.15 </boundaryPoint>)
(<boundaryPoint> X6.174 Y-21.566 Z0.15 </boundaryPoint>)
(<boundaryPoint> X5.857 Y-21.435 Z0.15 </boundaryPoint>)
(<boundaryPoint> X5.572 Y-21.244 Z0.15 </boundaryPoint>)
(<boundaryPoint> X5.329 Y-21.001 Z0.15 </boundaryPoint>)
(<boundaryPoint> X5.139 Y-20.716 Z0.15 </boundaryPoint>)
(<boundaryPoint> X5.007 Y-20.399 Z0.15 </boundaryPoint>)
(<boundaryPoint> X4.94 Y-20.063 Z0.15 </boundaryPoint>)
(<boundaryPoint> X4.94 Y-19.72 Z0.15 </boundaryPoint>)
(<boundaryPoint> X5.007 Y-19.383 Z0.15 </boundaryPoint>)
(<perimeter> inner )
G1 X22.88 Y-18.76 Z0.15 F3000.0
G1 X22.63 Y-18.45 Z0.15 F3000.0
G1 X22.32 Y-18.19 Z0.15 F3000.0
G1 X21.96 Y-18.0 Z0.15 F3000.0
G1 X21.58 Y-17.89 Z0.15 F3000.0
G1 X9.43 Y-19.59 Z0.15 F3000.0
M108 R30.0
M101
G1 X8.63 Y-19.7 Z0.15 F3000.0
M108 R1.846
G1 X8.63 Y-20.08 Z0.15 F1080.0
G1 X8.56 Y-20.46 Z0.15 F1080.0
G1 X8.41 Y-20.82 Z0.15 F1080.0
G1 X8.2 Y-21.13 Z0.15 F1080.0
G1 X7.93 Y-21.41 Z0.15 F1080.0
G1 X7.61 Y-21.62 Z0.15 F1080.0
G1 X7.25 Y-21.77 Z0.15 F1080.0
G1 X6.88 Y-21.84 Z0.15 F1080.0
G1 X6.49 Y-21.84 Z0.15 F1080.0
G1 X6.11 Y-21.77 Z0.15 F1080.0
G1 X5.76 Y-21.62 Z0.15 F1080.0
G1 X5.44 Y-21.41 Z0.15 F1080.0
G1 X5.17 Y-21.13 Z0.15 F1080.0
G1 X4.95 Y-20.82 Z0.15 F1080.0
G1 X4.81 Y-20.46 Z0.15 F1080.0
G1 X4.73 Y-20.08 Z0.15 F1080.0
G1 X4.73 Y-19.7 Z0.15 F1080.0
G1 X4.81 Y-19.32 Z0.15 F1080.0
G1 X4.95 Y-18.97 Z0.15 F1080.0
G1 X5.17 Y-18.65 Z0.15 F1080.0
G1 X5.44 Y-18.38 Z0.15 F1080.0
G1 X5.76 Y-18.16 Z0.15 F1080.0
G1 X6.11 Y-18.02 Z0.15 F1080.0
G1 X6.49 Y-17.94 Z0.15 F1080.0
G1 X6.88 Y-17.94 Z0.15 F1080.0
G1 X7.25 Y-18.02 Z0.15 F1080.0
G1 X7.61 Y-18.16 Z0.15 F1080.0
G1 X7.92 Y-18.38 Z0.15 F1080.0
G1 X8.2 Y-18.65 Z0.15 F1080.0
G1 X8.41 Y-18.97 Z0.15 F1080.0
G1 X8.56 Y-19.32 Z0.15 F1080.0
G1 X8.58 Y-19.43 Z0.15 F1080.0
M108 R30.0
M102
G1 X8.63 Y-19.7 Z0.15 F1080.0
M108 R1.846
M103
(</perimeter>)
(</boundaryPerimeter>)
(</surroundingLoop>)
G1 X21.0 Y-17.35 Z0.15 F1800.0
M108 R30.0
M101
G1 X21.47 Y-17.27 Z0.15 F1800.0
M108 R1.846
G1 X21.47 Y-12.79 Z0.15 F1080.0
G1 X21.05 Y-12.79 Z0.15 F1080.0
G1 X21.05 Y-17.25 Z0.15 F1080.0
G1 X20.63 Y-17.3 Z0.15 F1080.0
G1 X20.63 Y-12.79 Z0.15 F1080.0
G1 X20.21 Y-12.79 Z0.15 F1080.0
G1 X20.21 Y-17.42 Z0.15 F1080.0
G1 X19.8 Y-17.64 Z0.15 F1080.0
G1 X19.8 Y-12.79 Z0.15 F1080.0
G1 X19.38 Y-12.79 Z0.15 F1080.0
G1 X19.38 Y-17.95 Z0.15 F1080.0
G1 X18.96 Y-18.45 Z0.15 F1080.0
G1 X18.96 Y-12.79 Z0.15 F1080.0
G1 X18.54 Y-12.79 Z0.15 F1080.0
G1 X18.54 Y-26.99 Z0.15 F1080.0
G1 X18.12 Y-26.99 Z0.15 F1080.0
G1 X18.12 Y-12.79 Z0.15 F1080.0
G1 X17.7 Y-12.79 Z0.15 F1080.0
G1 X17.7 Y-26.99 Z0.15 F1080.0
G1 X17.28 Y-26.99 Z0.15 F1080.0
G1 X17.28 Y-12.79 Z0.15 F1080.0
G1 X16.86 Y-12.79 Z0.15 F1080.0
G1 X16.86 Y-26.99 Z0.15 F1080.0
G1 X16.45 Y-26.99 Z0.15 F1080.0
G1 X16.45 Y-12.79 Z0.15 F1080.0
G1 X16.03 Y-12.79 Z0.15 F1080.0
G1 X16.03 Y-26.99 Z0.15 F1080.0
G1 X15.61 Y-26.99 Z0.15 F1080.0
G1 X15.61 Y-12.79 Z0.15 F1080.0
G1 X15.19 Y-12.79 Z0.15 F1080.0
G1 X15.19 Y-26.99 Z0.15 F1080.0
G1 X14.77 Y-26.99 Z0.15 F1080.0
G1 X14.77 Y-12.79 Z0.15 F1080.0
G1 X14.35 Y-12.79 Z0.15 F1080.0
G1 X14.35 Y-26.99 Z0.15 F1080.0
G1 X13.93 Y-26.99 Z0.15 F1080.0
G1 X13.93 Y-12.79 Z0.15 F1080.0
G1 X13.51 Y-12.79 Z0.15 F1080.0
G1 X13.51 Y-26.99 Z0.15 F1080.0
G1 X13.1 Y-26.99 Z0.15 F1080.0
G1 X13.1 Y-12.79 Z0.15 F1080.0
G1 X12.68 Y-12.79 Z0.15 F1080.0
G1 X12.68 Y-26.99 Z0.15 F1080.0
G1 X12.26 Y-26.99 Z0.15 F1080.0
G1 X12.26 Y-12.79 Z0.15 F1080.0
G1 X11.84 Y-12.79 Z0.15 F1080.0
G1 X11.84 Y-26.99 Z0.15 F1080.0
G1 X11.42 Y-26.99 Z0.15 F1080.0
G1 X11.42 Y-12.79 Z0.15 F1080.0
G1 X11.0 Y-12.79 Z0.15 F1080.0
G1 X11.0 Y-26.99 Z0.15 F1080.0
G1 X10.58 Y-26.99 Z0.15 F1080.0
G1 X10.58 Y-12.79 Z0.15 F1080.0
G1 X10.16 Y-12.79 Z0.15 F1080.0
G1 X10.16 Y-26.99 Z0.15 F1080.0
G1 X9.74 Y-26.99 Z0.15 F1080.0
G1 X9.74 Y-12.79 Z0.15 F1080.0
G1 X9.32 Y-12.79 Z0.15 F1080.0
G1 X9.32 Y-19.63 Z0.15 F1080.0
M103
G1 X9.32 Y-20.15 Z0.15 F1800.0
M101
G1 X9.32 Y-26.99 Z0.15 F1080.0
G1 X8.9 Y-26.99 Z0.15 F1080.0
G1 X8.9 Y-21.32 Z0.15 F1080.0
M103
G1 X8.49 Y-21.82 Z0.15 F1800.0
M101
G1 X8.49 Y-26.99 Z0.15 F1080.0
G1 X8.07 Y-26.99 Z0.15 F1080.0
G1 X8.07 Y-22.14 Z0.15 F1080.0
M103
G1 X7.65 Y-22.35 Z0.15 F1800.0
M101
G1 X7.65 Y-26.99 Z0.15 F1080.0
G1 X7.23 Y-26.99 Z0.15 F1080.0
G1 X7.23 Y-22.48 Z0.15 F1080.0
M103
G1 X6.81 Y-22.53 Z0.15 F1800.0
M101
G1 X6.81 Y-26.99 Z0.15 F1080.0
G1 X6.39 Y-26.99 Z0.15 F1080.0
G1 X6.39 Y-22.53 Z0.15 F1080.0
M103
G1 X5.97 Y-22.44 Z0.15 F1800.0
M101
G1 X5.97 Y-26.99 Z0.15 F1080.0
G1 X5.55 Y-26.99 Z0.15 F1080.0
G1 X5.55 Y-22.29 Z0.15 F1080.0
G1 X5.14 Y-22.04 Z0.15 F1080.0
G1 X5.14 Y-26.99 Z0.15 F1080.0
G1 X4.72 Y-26.99 Z0.15 F1080.0
G1 X4.72 Y-21.66 Z0.15 F1080.0
M103
G1 X4.3 Y-21.04 Z0.15 F1800.0
M101
G1 X4.3 Y-26.99 Z0.15 F1080.0
G1 X3.88 Y-26.99 Z0.15 F1080.0
G1 X3.88 Y-12.79 Z0.15 F1080.0
G1 X4.3 Y-12.79 Z0.15 F1080.0
G1 X4.3 Y-18.74 Z0.15 F1080.0
M103
G1 X4.72 Y-18.12 Z0.15 F1800.0
M101
G1 X4.72 Y-12.79 Z0.15 F1080.0
G1 X5.14 Y-12.79 Z0.15 F1080.0
G1 X5.14 Y-17.75 Z0.15 F1080.0
G1 X5.55 Y-17.5 Z0.15 F1080.0
G1 X5.55 Y-12.79 Z0.15 F1080.0
G1 X5.97 Y-12.79 Z0.15 F1080.0
G1 X5.97 Y-17.34 Z0.15 F1080.0
M103
G1 X6.39 Y-17.25 Z0.15 F1800.0
M101
G1 X6.39 Y-12.79 Z0.15 F1080.0
G1 X6.81 Y-12.79 Z0.15 F1080.0
G1 X6.81 Y-17.25 Z0.15 F1080.0
M103
G1 X7.23 Y-17.31 Z0.15 F1800.0
M101
G1 X7.23 Y-12.79 Z0.15 F1080.0
G1 X7.65 Y-12.79 Z0.15 F1080.0
G1 X7.65 Y-17.43 Z0.15 F1080.0
G1 X8.07 Y-17.64 Z0.15 F1080.0
G1 X8.07 Y-12.79 Z0.15 F1080.0
G1 X8.49 Y-12.79 Z0.15 F1080.0
G1 X8.49 Y-17.96 Z0.15 F1080.0
G1 X8.9 Y-18.46 Z0.15 F1080.0
G1 X8.9 Y-13.06 Z0.15 F1080.0
M108 R30.0
M102
G1 X8.9 Y-12.79 Z0.15 F1080.0
M108 R1.846
M103
G1 X18.59 Y-21.02 Z0.15 F1800.0
M108 R30.0
M101
G1 X18.96 Y-21.34 Z0.15 F1800.0
M108 R1.846
G1 X18.96 Y-26.99 Z0.15 F1080.0
G1 X19.38 Y-26.99 Z0.15 F1080.0
G1 X19.38 Y-21.83 Z0.15 F1080.0
M103
G1 X19.8 Y-22.15 Z0.15 F1800.0
M101
G1 X19.8 Y-26.99 Z0.15 F1080.0
G1 X20.21 Y-26.99 Z0.15 F1080.0
G1 X20.21 Y-22.36 Z0.15 F1080.0
M103
G1 X20.63 Y-22.49 Z0.15 F1800.0
M101
G1 X20.63 Y-26.99 Z0.15 F1080.0
G1 X21.05 Y-26.99 Z0.15 F1080.0
G1 X21.05 Y-22.53 Z0.15 F1080.0
G1 X21.47 Y-22.52 Z0.15 F1080.0
G1 X21.47 Y-26.99 Z0.15 F1080.0
G1 X21.89 Y-26.99 Z0.15 F1080.0
G1 X21.89 Y-22.44 Z0.15 F1080.0
M103
G1 X22.31 Y-22.29 Z0.15 F1800.0
M101
G1 X22.31 Y-26.99 Z0.15 F1080.0
G1 X22.73 Y-26.99 Z0.15 F1080.0
G1 X22.73 Y-22.04 Z0.15 F1080.0
G1 X23.15 Y-21.66 Z0.15 F1080.0
G1 X23.15 Y-26.99 Z0.15 F1080.0
G1 X23.57 Y-26.99 Z0.15 F1080.0
G1 X23.57 Y-21.31 Z0.15 F1080.0
M108 R30.0
M102
G1 X23.57 Y-21.04 Z0.15 F1080.0
M108 R1.846
M103
G1 X23.95 Y-26.51 Z0.15 F1800.0
M108 R30.0
M101
G1 X23.99 Y-26.99 Z0.15 F1800.0
M108 R1.846
G1 X23.99 Y-12.79 Z0.15 F1080.0
G1 X23.57 Y-12.79 Z0.15 F1080.0
G1 X23.57 Y-18.75 Z0.15 F1080.0
M103
G1 X23.15 Y-18.12 Z0.15 F1800.0
M101
G1 X23.15 Y-12.79 Z0.15 F1080.0
G1 X22.73 Y-12.79 Z0.15 F1080.0
G1 X22.73 Y-17.74 Z0.15 F1080.0
G1 X22.31 Y-17.5 Z0.15 F1080.0
G1 X22.31 Y-12.79 Z0.15 F1080.0
G1 X21.89 Y-12.79 Z0.15 F1080.0
G1 X21.89 Y-17.34 Z0.15 F1080.0
M103
(</surroundingLoop>)
(</layer>)
(<layer> 0.45 )
(<surroundingLoop>)
(<boundaryPerimeter>)
(<boundaryPoint> X24.932 Y-27.891 Z0.45 </boundaryPoint>)
(<boundaryPoint> X24.932 Y-11.891 Z0.45 </boundaryPoint>)
(<boundaryPoint> X2.932 Y-11.891 Z0.45 </boundaryPoint>)
(<boundaryPoint> X2.932 Y-27.891 Z0.45 </boundaryPoint>)
(<loop> inner )
M108 R3.077
G1 X21.43 Y-17.53 Z0.45 F3000.0
M101
G1 X21.65 Y-17.56 Z0.45 F1800.0
G1 X22.09 Y-17.69 Z0.45 F1800.0
G1 X22.51 Y-17.91 Z0.45 F1800.0
G1 X22.86 Y-18.21 Z0.45 F1800.0
G1 X23.16 Y-18.57 Z0.45 F1800.0
G1 X23.38 Y-18.98 Z0.45 F1800.0
G1 X23.52 Y-19.43 Z0.45 F1800.0
G1 X23.56 Y-19.89 Z0.45 F1800.0
G1 X23.52 Y-20.36 Z0.45 F1800.0
G1 X23.38 Y-20.8 Z0.45 F1800.0
G1 X23.16 Y-21.21 Z0.45 F1800.0
G1 X22.86 Y-21.58 Z0.45 F1800.0
G1 X22.5 Y-21.87 Z0.45 F1800.0
G1 X22.09 Y-22.09 Z0.45 F1800.0
G1 X21.65 Y-22.23 Z0.45 F1800.0
G1 X21.18 Y-22.27 Z0.45 F1800.0
G1 X20.72 Y-22.23 Z0.45 F1800.0
G1 X20.27 Y-22.09 Z0.45 F1800.0
G1 X19.86 Y-21.87 Z0.45 F1800.0
G1 X19.5 Y-21.58 Z0.45 F1800.0
G1 X19.2 Y-21.21 Z0.45 F1800.0
G1 X18.98 Y-20.8 Z0.45 F1800.0
G1 X18.85 Y-20.36 Z0.45 F1800.0
G1 X18.8 Y-19.89 Z0.45 F1800.0
G1 X18.85 Y-19.43 Z0.45 F1800.0
G1 X18.98 Y-18.98 Z0.45 F1800.0
G1 X19.2 Y-18.57 Z0.45 F1800.0
G1 X19.5 Y-18.21 Z0.45 F1800.0
G1 X19.86 Y-17.91 Z0.45 F1800.0
G1 X20.27 Y-17.69 Z0.45 F1800.0
G1 X20.72 Y-17.56 Z0.45 F1800.0
G1 X20.98 Y-17.53 Z0.45 F1800.0
M108 R30.0
M102
G1 X21.18 Y-17.51 Z0.45 F1800.0
G1 X21.43 Y-17.53 Z0.45 F1800.0
M108 R3.077
M103
(</loop>)
(<loop> inner )
G1 X9.84 Y-19.52 Z0.45 F3000.0
M108 R30.0
M101
G1 X9.05 Y-19.66 Z0.45 F3000.0
M108 R3.077
G1 X9.05 Y-20.13 Z0.45 F1800.0
G1 X8.96 Y-20.58 Z0.45 F1800.0
G1 X8.78 Y-21.01 Z0.45 F1800.0
G1 X8.52 Y-21.4 Z0.45 F1800.0
G1 X8.19 Y-21.73 Z0.45 F1800.0
G1 X7.8 Y-21.99 Z0.45 F1800.0
G1 X7.37 Y-22.17 Z0.45 F1800.0
G1 X6.92 Y-22.26 Z0.45 F1800.0
G1 X6.45 Y-22.26 Z0.45 F1800.0
G1 X5.99 Y-22.17 Z0.45 F1800.0
G1 X5.56 Y-21.99 Z0.45 F1800.0
G1 X5.17 Y-21.73 Z0.45 F1800.0
G1 X4.84 Y-21.4 Z0.45 F1800.0
G1 X4.58 Y-21.01 Z0.45 F1800.0
G1 X4.4 Y-20.58 Z0.45 F1800.0
G1 X4.31 Y-20.13 Z0.45 F1800.0
G1 X4.31 Y-19.66 Z0.45 F1800.0
G1 X4.4 Y-19.2 Z0.45 F1800.0
G1 X4.58 Y-18.77 Z0.45 F1800.0
G1 X4.84 Y-18.38 Z0.45 F1800.0
G1 X5.17 Y-18.05 Z0.45 F1800.0
G1 X5.56 Y-17.79 Z0.45 F1800.0
G1 X5.99 Y-17.61 Z0.45 F1800.0
G1 X6.45 Y-17.52 Z0.45 F1800.0
G1 X6.92 Y-17.52 Z0.45 F1800.0
G1 X7.37 Y-17.61 Z0.45 F1800.0
G1 X7.8 Y-17.79 Z0.45 F1800.0
G1 X8.19 Y-18.05 Z0.45 F1800.0
G1 X8.52 Y-18.38 Z0.45 F1800.0
G1 X8.78 Y-18.77 Z0.45 F1800.0
G1 X8.96 Y-19.2 Z0.45 F1800.0
G1 X8.96 Y-19.22 Z0.45 F1800.0
M108 R30.0
M102
G1 X9.05 Y-19.66 Z0.45 F1800.0
M108 R3.077
M103
(</loop>)
(<loop> outer )
G1 X7.64 Y-18.09 Z0.45 F3000.0
G1 X7.28 Y-17.94 Z0.45 F3000.0
G1 X6.88 Y-17.86 Z0.45 F3000.0
G1 X6.48 Y-17.86 Z0.45 F3000.0
G1 X6.09 Y-17.94 Z0.45 F3000.0
G1 X4.22 Y-19.21 Z0.45 F3000.0
M108 R30.0
M101
G1 X3.56 Y-19.66 Z0.45 F3000.0
M108 R3.077
G1 X3.56 Y-27.26 Z0.45 F1800.0
G1 X24.3 Y-27.26 Z0.45 F1800.0
G1 X24.3 Y-12.52 Z0.45 F1800.0
G1 X3.56 Y-12.52 Z0.45 F1800.0
G1 X3.56 Y-19.66 Z0.45 F1800.0
M103
(</loop>)
(<perimeter> outer )
G1 X3.14 Y-19.66 Z0.45 F3000.0
M101
G1 X3.14 Y-27.68 Z0.45 F1800.0
G1 X24.72 Y-27.68 Z0.45 F1800.0
G1 X24.72 Y-12.1 Z0.45 F1800.0
G1 X3.14 Y-12.1 Z0.45 F1800.0
G1 X3.14 Y-19.21 Z0.45 F1800.0
M108 R30.0
M102
G1 X3.14 Y-19.66 Z0.45 F1800.0
M108 R3.077
M103
(</perimeter>)
(</boundaryPerimeter>)
(<surroundingLoop>)
(<boundaryPerimeter>)
(<boundaryPoint> X5.139 Y-19.066 Z0.45 </boundaryPoint>)
(<boundaryPoint> X5.329 Y-18.781 Z0.45 </boundaryPoint>)
(<boundaryPoint> X5.572 Y-18.538 Z0.45 </boundaryPoint>)
(<boundaryPoint> X5.857 Y-18.348 Z0.45 </boundaryPoint>)
(<boundaryPoint> X6.174 Y-18.217 Z0.45 </boundaryPoint>)
(<boundaryPoint> X6.51 Y-18.15 Z0.45 </boundaryPoint>)
(<boundaryPoint> X6.854 Y-18.15 Z0.45 </boundaryPoint>)
(<boundaryPoint> X7.19 Y-18.217 Z0.45 </boundaryPoint>)
(<boundaryPoint> X7.507 Y-18.348 Z0.45 </boundaryPoint>)
(<boundaryPoint> X7.792 Y-18.538 Z0.45 </boundaryPoint>)
(<boundaryPoint> X8.035 Y-18.781 Z0.45 </boundaryPoint>)
(<boundaryPoint> X8.226 Y-19.066 Z0.45 </boundaryPoint>)
(<boundaryPoint> X8.357 Y-19.383 Z0.45 </boundaryPoint>)
(<boundaryPoint> X8.424 Y-19.72 Z0.45 </boundaryPoint>)
(<boundaryPoint> X8.424 Y-20.063 Z0.45 </boundaryPoint>)
(<boundaryPoint> X8.357 Y-20.399 Z0.45 </boundaryPoint>)
(<boundaryPoint> X8.226 Y-20.716 Z0.45 </boundaryPoint>)
(<boundaryPoint> X8.035 Y-21.001 Z0.45 </boundaryPoint>)
(<boundaryPoint> X7.792 Y-21.244 Z0.45 </boundaryPoint>)
(<boundaryPoint> X7.507 Y-21.435 Z0.45 </boundaryPoint>)
(<boundaryPoint> X7.19 Y-21.566 Z0.45 </boundaryPoint>)
(<boundaryPoint> X6.854 Y-21.633 Z0.45 </boundaryPoint>)
(<boundaryPoint> X6.51 Y-21.633 Z0.45 </boundaryPoint>)
(<boundaryPoint> X6.174 Y-21.566 Z0.45 </boundaryPoint>)
(<boundaryPoint> X5.857 Y-21.435 Z0.45 </boundaryPoint>)
(<boundaryPoint> X5.572 Y-21.244 Z0.45 </boundaryPoint>)
(<boundaryPoint> X5.329 Y-21.001 Z0.45 </boundaryPoint>)
(<boundaryPoint> X5.139 Y-20.716 Z0.45 </boundaryPoint>)
(<boundaryPoint> X5.007 Y-20.399 Z0.45 </boundaryPoint>)
(<boundaryPoint> X4.94 Y-20.063 Z0.45 </boundaryPoint>)
(<boundaryPoint> X4.94 Y-19.72 Z0.45 </boundaryPoint>)
(<boundaryPoint> X5.007 Y-19.383 Z0.45 </boundaryPoint>)
(<perimeter> inner )
G1 X3.93 Y-19.68 Z0.45 F3000.0
M108 R30.0
M101
G1 X4.73 Y-19.7 Z0.45 F3000.0
M108 R3.077
G1 X4.81 Y-19.32 Z0.45 F1800.0
G1 X4.95 Y-18.97 Z0.45 F1800.0
G1 X5.17 Y-18.65 Z0.45 F1800.0
G1 X5.44 Y-18.38 Z0.45 F1800.0
G1 X5.76 Y-18.16 Z0.45 F1800.0
G1 X6.11 Y-18.02 Z0.45 F1800.0
G1 X6.49 Y-17.94 Z0.45 F1800.0
G1 X6.88 Y-17.94 Z0.45 F1800.0
G1 X7.25 Y-18.02 Z0.45 F1800.0
G1 X7.61 Y-18.16 Z0.45 F1800.0
G1 X7.92 Y-18.38 Z0.45 F1800.0
G1 X8.2 Y-18.65 Z0.45 F1800.0
G1 X8.41 Y-18.97 Z0.45 F1800.0
G1 X8.56 Y-19.32 Z0.45 F1800.0
G1 X8.63 Y-19.7 Z0.45 F1800.0
G1 X8.63 Y-20.08 Z0.45 F1800.0
