; generated by Slic3r 0.8.2 on 2012-06-05 at 08:47:44

; layer_height = 0.25
; perimeters = 3
; solid_layers = 3
; fill_density = .2
; nozzle_diameter = .35
; filament_diameter = 1.75
; extrusion_multiplier = 1
; perimeter_speed = 100
; infill_speed = 120
; travel_speed = 150
; extrusion_width_ratio = 0
; scale = 1
; single wall width = 0.39mm

M190 S100 ; wait for bed temperature to be reached
M104 S220 ; set temperature
G28 ; home all axes
M109 S220 ; wait for temperature to be reached
G90 ; use absolute coordinates
G21 ; set units to millimeters
G92 E0 ; reset extrusion distance
M82 ; use absolute distances for extrusion
G1 Z0.400 F9000.000
G1 X66.500 Y87.979
G1 F1800.000 E1.00000
G1 X66.680 Y87.789 F4200.000 E1.01047
G1 X67.070 Y87.429 E1.03170
G1 X67.480 Y87.109 E1.05250
G1 X68.150 Y86.689 E1.08413
G1 X68.870 Y86.359 E1.11581
G1 X69.370 Y86.189 E1.13694
G1 X69.880 Y86.059 E1.15799
G1 X70.400 Y85.969 E1.17910
G1 X70.660 Y85.939 E1.18957
G1 X71.190 Y85.919 E1.21078
G1 X121.330 Y85.939 E3.21638
G1 X121.850 Y86.009 E3.23737
G1 X122.370 Y86.119 E3.25863
G1 X122.870 Y86.269 E3.27951
G1 X123.360 Y86.459 E3.30053
G1 X123.840 Y86.689 E3.32183
G1 X124.290 Y86.959 E3.34282
G1 X124.510 Y87.109 E3.35347
G1 X124.920 Y87.429 E3.37427
G1 X125.310 Y87.789 E3.39550
G1 X125.670 Y88.179 E3.41673
G1 X125.990 Y88.589 E3.43754
G1 X126.410 Y89.259 E3.46917
G1 X126.740 Y89.979 E3.50085
G1 X126.910 Y90.479 E3.52197
G1 X127.040 Y90.989 E3.54302
G1 X127.130 Y91.509 E3.56413
G1 X127.160 Y91.769 E3.57460
G1 X127.160 Y148.219 E5.83260
G1 X127.090 Y148.739 E5.85359
G1 X126.980 Y149.259 E5.87485
G1 X126.830 Y149.759 E5.89573
G1 X126.640 Y150.249 E5.91675
G1 X126.410 Y150.729 E5.93804
G1 X126.140 Y151.179 E5.95903
G1 X125.990 Y151.399 E5.96968
G1 X125.670 Y151.809 E5.99049
G1 X125.310 Y152.199 E6.01172
G1 X124.920 Y152.559 E6.03295
G1 X124.510 Y152.879 E6.05375
G1 X123.840 Y153.299 E6.08538
G1 X123.120 Y153.629 E6.11706
G1 X122.620 Y153.799 E6.13819
G1 X122.110 Y153.929 E6.15924
G1 X121.590 Y154.019 E6.18035
G1 X121.330 Y154.049 E6.19082
G1 X120.800 Y154.069 E6.21203
G1 X70.660 Y154.049 E8.21763
G1 X70.140 Y153.979 E8.23862
G1 X69.620 Y153.869 E8.25988
G1 X69.120 Y153.719 E8.28076
G1 X68.630 Y153.529 E8.30178
G1 X68.150 Y153.299 E8.32308
G1 X67.700 Y153.029 E8.34407
G1 X67.480 Y152.879 E8.35472
G1 X67.070 Y152.559 E8.37552
G1 X66.680 Y152.199 E8.39675
G1 X66.320 Y151.809 E8.41798
G1 X66.000 Y151.399 E8.43879
G1 X65.580 Y150.729 E8.47042
G1 X65.250 Y150.009 E8.50210
G1 X65.080 Y149.509 E8.52322
G1 X64.950 Y148.999 E8.54427
G1 X64.860 Y148.479 E8.56538
G1 X64.830 Y148.219 E8.57585
G1 X64.830 Y91.769 E10.83385
G1 X64.900 Y91.249 E10.85484
G1 X65.010 Y90.729 E10.87610
G1 X65.160 Y90.229 E10.89698
G1 X65.350 Y89.739 E10.91800
G1 X65.580 Y89.259 E10.93929
G1 X65.850 Y88.809 E10.96028
G1 X66.000 Y88.589 E10.97093
G1 X66.320 Y88.179 E10.99174
G1 X66.460 Y88.023 E11.00014
G1 X66.860 Y88.149 F9000.000
G1 X67.040 Y87.969 F4200.000 E11.01032
G1 X67.420 Y87.629 E11.03071
G1 X68.040 Y87.189 E11.06112
G1 X68.260 Y87.059 E11.07135
G1 X68.720 Y86.829 E11.09192
G1 X69.190 Y86.639 E11.11220
G1 X69.680 Y86.489 E11.13269
G1 X69.930 Y86.429 E11.14298
G1 X70.680 Y86.319 E11.17330
G1 X71.190 Y86.299 E11.19371
G1 X121.310 Y86.319 E13.19851
G1 X122.060 Y86.429 E13.22884
G1 X122.560 Y86.559 E13.24950
G1 X123.040 Y86.729 E13.26987
G1 X123.500 Y86.939 E13.29010
G1 X123.730 Y87.059 E13.30047
G1 X123.950 Y87.189 E13.31069
G1 X124.570 Y87.629 E13.34110
G1 X124.950 Y87.969 E13.36150
G1 X125.130 Y88.149 E13.37168
G1 X125.470 Y88.529 E13.39208
G1 X125.910 Y89.149 E13.42249
G1 X126.040 Y89.369 E13.43271
G1 X126.270 Y89.829 E13.45328
G1 X126.460 Y90.299 E13.47356
G1 X126.610 Y90.789 E13.49406
G1 X126.670 Y91.039 E13.50434
G1 X126.780 Y91.789 E13.53466
G1 X126.780 Y148.199 E15.79106
G1 X126.670 Y148.949 E15.82138
G1 X126.540 Y149.449 E15.84205
G1 X126.370 Y149.929 E15.86242
G1 X126.160 Y150.389 E15.88264
G1 X126.040 Y150.619 E15.89302
G1 X125.910 Y150.839 E15.90324
G1 X125.470 Y151.459 E15.93365
G1 X125.130 Y151.839 E15.95405
G1 X124.950 Y152.019 E15.96423
G1 X124.570 Y152.359 E15.98463
G1 X123.950 Y152.799 E16.01504
G1 X123.730 Y152.929 E16.02526
G1 X123.270 Y153.159 E16.04583
G1 X122.800 Y153.349 E16.06611
G1 X122.310 Y153.499 E16.08661
G1 X122.060 Y153.559 E16.09689
G1 X121.310 Y153.669 E16.12721
G1 X120.800 Y153.689 E16.14763
G1 X70.680 Y153.669 E18.15243
G1 X69.930 Y153.559 E18.18275
G1 X69.430 Y153.429 E18.20341
G1 X68.950 Y153.259 E18.22378
G1 X68.490 Y153.049 E18.24401
G1 X68.260 Y152.929 E18.25439
G1 X68.040 Y152.799 E18.26461
G1 X67.420 Y152.359 E18.29502
G1 X67.040 Y152.019 E18.31541
G1 X66.860 Y151.839 E18.32560
G1 X66.520 Y151.459 E18.34599
G1 X66.080 Y150.839 E18.37640
G1 X65.950 Y150.619 E18.38663
G1 X65.720 Y150.159 E18.40720
G1 X65.530 Y149.689 E18.42748
G1 X65.380 Y149.199 E18.44797
G1 X65.320 Y148.949 E18.45826
G1 X65.210 Y148.199 E18.48858
G1 X65.210 Y91.789 E20.74498
G1 X65.320 Y91.039 E20.77530
G1 X65.450 Y90.539 E20.79596
G1 X65.620 Y90.059 E20.81633
G1 X65.830 Y89.599 E20.83656
G1 X65.950 Y89.369 E20.84694
G1 X66.080 Y89.149 E20.85716
G1 X66.520 Y88.529 E20.88757
G1 X66.821 Y88.193 E20.90560
G1 F1800.000 E19.90560
G92 E0
G1 X116.054 Y137.655 F9000.000
G1 F1800.000 E1.00000
G1 X116.514 Y137.464 F4200.000 E1.01989
G1 X117.001 Y137.367 E1.03977
G1 X117.499 Y137.367 E1.05966
G1 X117.986 Y137.464 E1.07955
G1 X118.446 Y137.655 E1.09943
G1 X118.859 Y137.931 E1.11931
G1 X119.192 Y138.264 E1.13816
G1 X119.367 Y138.498 E1.14987
G1 X119.593 Y138.921 E1.16903
G1 X119.737 Y139.396 E1.18892
G1 X119.786 Y139.891 E1.20880
G1 X119.737 Y140.386 E1.22869
G1 X119.593 Y140.862 E1.24858
G1 X119.359 Y141.300 E1.26846
G1 X119.043 Y141.685 E1.28835
G1 X118.659 Y142.000 E1.30824
G1 X118.221 Y142.234 E1.32812
G1 X117.745 Y142.379 E1.34801
G1 X117.269 Y142.425 E1.36713
G1 X116.774 Y142.380 E1.38701
G1 X116.496 Y142.311 E1.39848
G1 X116.054 Y142.128 E1.41760
G1 X115.641 Y141.852 E1.43748
G1 X115.290 Y141.500 E1.45737
G1 X115.013 Y141.087 E1.47726
G1 X114.823 Y140.627 E1.49714
G1 X114.726 Y140.140 E1.51703
G1 X114.726 Y139.643 E1.53692
G1 X114.823 Y139.155 E1.55680
G1 X115.013 Y138.696 E1.57669
G1 X115.290 Y138.282 E1.59658
G1 X115.641 Y137.931 E1.61646
G1 X116.005 Y137.687 E1.63398
G1 X116.233 Y137.989 F9000.000
G1 X116.624 Y137.827 F4200.000 E1.65090
G1 X117.039 Y137.744 E1.66782
G1 X117.461 Y137.744 E1.68473
G1 X117.876 Y137.827 E1.70165
G1 X118.267 Y137.989 E1.71857
G1 X118.618 Y138.223 E1.73548
G1 X118.906 Y138.511 E1.75175
G1 X119.048 Y138.701 E1.76124
G1 X119.243 Y139.066 E1.77778
G1 X119.366 Y139.470 E1.79469
G1 X119.407 Y139.891 E1.81161
G1 X119.366 Y140.312 E1.82853
G1 X119.243 Y140.717 E1.84544
G1 X119.044 Y141.090 E1.86236
G1 X118.775 Y141.417 E1.87928
G1 X118.449 Y141.685 E1.89619
G1 X118.076 Y141.884 E1.91311
G1 X117.671 Y142.007 E1.93003
G1 X117.260 Y142.048 E1.94654
G1 X116.839 Y142.008 E1.96346
G1 X116.614 Y141.952 E1.97271
G1 X116.233 Y141.794 E1.98923
G1 X115.881 Y141.559 E2.00615
G1 X115.582 Y141.260 E2.02306
G1 X115.347 Y140.908 E2.03998
G1 X115.186 Y140.517 E2.05690
G1 X115.103 Y140.103 E2.07381
G1 X115.103 Y139.680 E2.09073
G1 X115.186 Y139.265 E2.10765
G1 X115.347 Y138.874 E2.12456
G1 X115.582 Y138.523 E2.14148
G1 X115.881 Y138.224 E2.15840
G1 X116.184 Y138.021 E2.17295
G1 F1800.000 E1.17295
G92 E0
G1 X105.237 Y139.396 F9000.000
G1 F1800.000 E1.00000
G1 X105.286 Y139.891 F4200.000 E1.01989
G1 X105.237 Y140.386 E1.03977
G1 X105.093 Y140.862 E1.05966
G1 X104.859 Y141.300 E1.07955
G1 X104.543 Y141.685 E1.09943
G1 X104.159 Y142.000 E1.11932
G1 X103.721 Y142.234 E1.13921
G1 X103.245 Y142.379 E1.15909
G1 X102.769 Y142.425 E1.17821
G1 X102.274 Y142.380 E1.19809
G1 X101.996 Y142.311 E1.20957
G1 X101.554 Y142.128 E1.22868
G1 X101.141 Y141.852 E1.24857
G1 X100.790 Y141.500 E1.26845
G1 X100.513 Y141.087 E1.28834
G1 X100.323 Y140.627 E1.30823
G1 X100.226 Y140.140 E1.32811
G1 X100.226 Y139.643 E1.34800
G1 X100.323 Y139.155 E1.36789
G1 X100.513 Y138.696 E1.38777
G1 X100.790 Y138.282 E1.40766
G1 X101.141 Y137.931 E1.42755
G1 X101.554 Y137.655 E1.44743
G1 X102.014 Y137.464 E1.46732
G1 X102.501 Y137.367 E1.48721
G1 X102.999 Y137.367 E1.50709
G1 X103.486 Y137.464 E1.52698
G1 X103.946 Y137.655 E1.54687
G1 X104.359 Y137.931 E1.56674
G1 X104.692 Y138.264 E1.58559
G1 X104.867 Y138.498 E1.59731
G1 X105.093 Y138.921 E1.61646
G1 X105.220 Y139.340 E1.63398
G1 X104.866 Y139.470 F9000.000
G1 X104.907 Y139.891 F4200.000 E1.65090
G1 X104.866 Y140.312 E1.66782
G1 X104.743 Y140.717 E1.68473
G1 X104.544 Y141.090 E1.70165
G1 X104.275 Y141.417 E1.71857
G1 X103.949 Y141.685 E1.73548
G1 X103.576 Y141.884 E1.75240
G1 X103.171 Y142.007 E1.76932
G1 X102.760 Y142.048 E1.78583
G1 X102.339 Y142.008 E1.80275
G1 X102.114 Y141.952 E1.81200
G1 X101.733 Y141.794 E1.82852
G1 X101.381 Y141.559 E1.84544
G1 X101.082 Y141.260 E1.86235
G1 X100.847 Y140.908 E1.87927
G1 X100.686 Y140.517 E1.89619
G1 X100.603 Y140.103 E1.91310
G1 X100.603 Y139.680 E1.93002
G1 X100.686 Y139.265 E1.94694
G1 X100.847 Y138.874 E1.96385
G1 X101.082 Y138.523 E1.98077
G1 X101.381 Y138.224 E1.99769
G1 X101.733 Y137.989 E2.01460
G1 X102.124 Y137.827 E2.03152
G1 X102.539 Y137.744 E2.04844
G1 X102.961 Y137.744 E2.06535
G1 X103.376 Y137.827 E2.08227
G1 X103.767 Y137.989 E2.09919
G1 X104.118 Y138.223 E2.11610
G1 X104.406 Y138.511 E2.13237
G1 X104.548 Y138.701 E2.14186
G1 X104.743 Y139.066 E2.15840
G1 X104.849 Y139.414 E2.17295
G1 F1800.000 E1.17295
G92 E0
G1 X120.049 Y146.940 F9000.000
G1 F1800.000 E1.00000
G1 X99.951 Y146.940 F4200.000 E1.80391
G1 X99.951 Y140.689 E2.05395
G1 X99.961 Y140.737 E2.05590
G1 X100.179 Y141.265 E2.07876
G1 X100.497 Y141.740 E2.10162
G1 X100.901 Y142.144 E2.12447
G1 X101.376 Y142.462 E2.14733
G1 X101.877 Y142.670 E2.16904
G1 X102.209 Y142.753 E2.18273
G1 X102.778 Y142.803 E2.20558
G1 X103.319 Y142.750 E2.22730
G1 X103.865 Y142.584 E2.25015
G1 X104.369 Y142.315 E2.27301
G1 X104.811 Y141.952 E2.29587
G1 X105.174 Y141.511 E2.31872
G1 X105.443 Y141.007 E2.34158
G1 X105.609 Y140.460 E2.36444
G1 X105.665 Y139.891 E2.38729
G1 X105.609 Y139.323 E2.41015
G1 X105.443 Y138.776 E2.43301
G1 X105.186 Y138.296 E2.45479
G1 X104.978 Y138.016 E2.46873
G1 X104.599 Y137.638 E2.49016
G1 X104.124 Y137.321 E2.51299
G1 X103.596 Y137.102 E2.53585
G1 X103.036 Y136.990 E2.55871
G1 X102.464 Y136.990 E2.58157
G1 X101.904 Y137.102 E2.60442
G1 X101.376 Y137.321 E2.62728
G1 X100.901 Y137.638 E2.65013
G1 X100.497 Y138.042 E2.67299
G1 X100.179 Y138.517 E2.69585
G1 X99.961 Y139.045 E2.71871
G1 X99.951 Y139.093 E2.72066
G1 X99.951 Y132.842 E2.97069
G1 X120.049 Y132.842 E3.77461
G1 X120.049 Y139.125 E4.02591
G1 X119.943 Y138.776 E4.04051
G1 X119.686 Y138.296 E4.06229
G1 X119.478 Y138.016 E4.07623
G1 X119.099 Y137.638 E4.09766
G1 X118.624 Y137.321 E4.12049
G1 X118.096 Y137.102 E4.14335
G1 X117.536 Y136.990 E4.16621
G1 X116.964 Y136.990 E4.18906
G1 X116.404 Y137.102 E4.21192
G1 X115.876 Y137.321 E4.23478
G1 X115.401 Y137.638 E4.25763
G1 X114.997 Y138.042 E4.28049
G1 X114.679 Y138.517 E4.30335
G1 X114.461 Y139.045 E4.32620
G1 X114.349 Y139.606 E4.34906
G1 X114.349 Y140.177 E4.37192
G1 X114.461 Y140.737 E4.39478
G1 X114.679 Y141.265 E4.41763
G1 X114.997 Y141.740 E4.44049
G1 X115.401 Y142.144 E4.46335
G1 X115.876 Y142.462 E4.48620
G1 X116.377 Y142.670 E4.50791
G1 X116.709 Y142.753 E4.52161
G1 X117.278 Y142.803 E4.54446
G1 X117.819 Y142.750 E4.56617
G1 X118.365 Y142.584 E4.58903
G1 X118.869 Y142.315 E4.61188
G1 X119.311 Y141.952 E4.63474
G1 X119.674 Y141.511 E4.65760
G1 X119.943 Y141.007 E4.68045
G1 X120.049 Y140.658 E4.69505
G1 X120.049 Y146.881 E4.94399
G1 X120.426 Y147.317 F9000.000
G1 X99.574 Y147.317 F4200.000 E5.77806
G1 X99.574 Y132.465 E6.37213
G1 X120.426 Y132.465 E7.20620
G1 X120.426 Y147.258 E7.79790
G1 X120.803 Y147.694 F9000.000
G1 X99.197 Y147.694 F4200.000 E8.66212
G1 X99.197 Y132.088 E9.28635
G1 X120.803 Y132.088 E10.15058
G1 X120.803 Y147.635 E10.77243
G1 F1800.000 E9.77243
G92 E0
G1 X104.159 Y122.109 F9000.000
G1 F1800.000 E1.00000
G1 X103.721 Y122.343 F4200.000 E1.01989
G1 X103.245 Y122.487 E1.03977
G1 X102.769 Y122.534 E1.05889
G1 X102.274 Y122.489 E1.07876
G1 X101.996 Y122.420 E1.09024
G1 X101.554 Y122.237 E1.10936
G1 X101.141 Y121.960 E1.12924
G1 X100.790 Y121.609 E1.14913
G1 X100.513 Y121.196 E1.16902
G1 X100.323 Y120.736 E1.18890
G1 X100.226 Y120.249 E1.20879
G1 X100.226 Y119.751 E1.22868
G1 X100.323 Y119.264 E1.24856
G1 X100.513 Y118.804 E1.26845
G1 X100.790 Y118.391 E1.28834
G1 X101.141 Y118.040 E1.30823
G1 X101.554 Y117.763 E1.32811
G1 X102.014 Y117.573 E1.34800
G1 X102.501 Y117.476 E1.36789
G1 X102.980 Y117.476 E1.38701
G1 X103.266 Y117.519 E1.39858
G1 X103.721 Y117.657 E1.41760
G1 X104.159 Y117.891 E1.43748
G1 X104.543 Y118.207 E1.45737
G1 X104.859 Y118.591 E1.47726
G1 X105.093 Y119.029 E1.49714
G1 X105.237 Y119.505 E1.51703
G1 X105.286 Y120.000 E1.53692
G1 X105.237 Y120.495 E1.55680
G1 X105.093 Y120.971 E1.57669
G1 X104.859 Y121.409 E1.59658
G1 X104.543 Y121.793 E1.61646
G1 X104.205 Y122.071 E1.63398
G1 X103.949 Y121.794 F9000.000
G1 X103.576 Y121.993 F4200.000 E1.65090
G1 X103.171 Y122.116 E1.66782
G1 X102.760 Y122.156 E1.68433
G1 X102.339 Y122.117 E1.70124
G1 X102.114 Y122.061 E1.71050
G1 X101.733 Y121.903 E1.72702
G1 X101.381 Y121.668 E1.74394
G1 X101.082 Y121.369 E1.76085
G1 X100.847 Y121.017 E1.77777
G1 X100.686 Y120.626 E1.79469
G1 X100.603 Y120.211 E1.81160
G1 X100.603 Y119.789 E1.82852
G1 X100.686 Y119.374 E1.84544
G1 X100.847 Y118.983 E1.86235
G1 X101.082 Y118.631 E1.87927
G1 X101.381 Y118.332 E1.89619
G1 X101.733 Y118.097 E1.91310
G1 X102.124 Y117.936 E1.93002
G1 X102.539 Y117.853 E1.94694
G1 X102.952 Y117.853 E1.96346
G1 X103.182 Y117.888 E1.97280
G1 X103.576 Y118.007 E1.98923
G1 X103.949 Y118.206 E2.00615
G1 X104.275 Y118.475 E2.02306
G1 X104.544 Y118.801 E2.03998
G1 X104.743 Y119.174 E2.05690
G1 X104.866 Y119.579 E2.07381
G1 X104.907 Y120.000 E2.09073
G1 X104.866 Y120.421 E2.10765
G1 X104.743 Y120.826 E2.12456
G1 X104.544 Y121.199 E2.14148
G1 X104.275 Y121.525 E2.15840
G1 X103.994 Y121.756 E2.17295
G1 X104.369 Y122.424 F9000.000
G1 X104.811 Y122.061 F4200.000 E2.19580
G1 X105.174 Y121.619 E2.21866
G1 X105.443 Y121.115 E2.24152
G1 X105.549 Y120.766 E2.25611
G1 X105.549 Y127.049 E2.50742
G1 X99.951 Y127.049 E2.73133
G1 X99.951 Y120.798 E2.98136
G1 X99.961 Y120.846 E2.98332
G1 X100.179 Y121.374 E3.00618
G1 X100.497 Y121.849 E3.02903
G1 X100.901 Y122.253 E3.05189
G1 X101.376 Y122.571 E3.07475
G1 X101.877 Y122.778 E3.09646
G1 X102.210 Y122.862 E3.11016
G1 X102.778 Y122.912 E3.13300
G1 X103.319 Y122.859 E3.15471
G1 X103.865 Y122.693 E3.17757
G1 X104.317 Y122.452 E3.19806
G1 F1800.000 E2.19806
G92 E0
G1 X105.549 Y119.234 F9000.000
G1 F1800.000 E1.00000
G1 X105.443 Y118.885 F4200.000 E1.01459
G1 X105.174 Y118.381 E1.03745
G1 X104.811 Y117.939 E1.06031
G1 X104.369 Y117.576 E1.08317
G1 X103.866 Y117.307 E1.10602
G1 X103.349 Y117.150 E1.12763
G1 X103.008 Y117.099 E1.14142
G1 X102.464 Y117.099 E1.16315
G1 X101.904 Y117.211 E1.18601
G1 X101.376 Y117.429 E1.20887
G1 X100.901 Y117.747 E1.23172
G1 X100.497 Y118.151 E1.25458
G1 X100.179 Y118.626 E1.27744
G1 X99.961 Y119.154 E1.30029
G1 X99.951 Y119.202 E1.30225
G1 X99.951 Y112.951 E1.55228
G1 X105.549 Y112.951 E1.77620
G1 X105.549 Y119.175 E2.02513
G1 F1800.000 E1.02513
G92 E0
G1 X105.926 Y112.574 F9000.000
G1 F1800.000 E1.00000
G1 X105.926 Y127.426 F4200.000 E1.59407
G1 X99.574 Y127.426 E1.84814
G1 X99.574 Y112.574 E2.44221
G1 X105.867 Y112.574 E2.69391
G1 X106.303 Y112.197 F9000.000
G1 X106.303 Y127.803 F4200.000 E3.31814
G1 X99.197 Y127.803 E3.60236
G1 X99.197 Y112.197 E4.22659
G1 X106.244 Y112.197 E4.50845
G1 F1800.000 E3.50845
G92 E0
G1 X115.290 Y118.391 F9000.000
G1 F1800.000 E1.00000
G1 X115.641 Y118.040 F4200.000 E1.01989
G1 X116.054 Y117.763 E1.03977
G1 X116.514 Y117.573 E1.05966
G1 X117.001 Y117.476 E1.07955
G1 X117.499 Y117.476 E1.09943
G1 X117.986 Y117.573 E1.11932
G1 X118.446 Y117.763 E1.13921
G1 X118.843 Y118.029 E1.15834
G1 X119.057 Y118.223 E1.16990
G1 X119.359 Y118.591 E1.18892
G1 X119.593 Y119.029 E1.20881
G1 X119.737 Y119.505 E1.22869
