; generated by Slic3r 0.8.4 on 2012-08-23 at 17:20:08

; layer_height = 0.25
; perimeters = 2
; solid_layers = 3
; fill_density = .2
; nozzle_diameter = .35
; filament_diameter = 1.75
; extrusion_multiplier = 1.2
; perimeter_speed = 100
; infill_speed = 120
; travel_speed = 180
; scale = 1
; single wall width = 0.39mm

M190 S110 ; wait for bed temperature to be reached
M104 S220 ; set temperature
M104 S220 ;start extruder
G28 ; home all axes
M109 S220 ; wait for temperature to be reached
G90 ; use absolute coordinates
G21 ; set units to millimeters
G92 E0 ; reset extrusion distance
M82 ; use absolute distances for extrusion
G1 Z0.200 F10800.000
G1 X73.000 Y90.670
G1 F1800.000 E1.00000
G1 X73.520 Y90.180 F3000.000 E1.02744
G1 X74.130 Y89.710 E1.05701
G1 X74.750 Y89.320 E1.08513
G1 X75.100 Y89.140 E1.10025
G1 X75.650 Y88.890 E1.12345
G1 X76.100 Y88.720 E1.14192
G1 X76.440 Y88.620 E1.15553
G1 X77.130 Y88.470 E1.18264
G1 X77.840 Y88.370 E1.21018
G1 X78.330 Y88.340 E1.22903
G1 X96.660 Y88.340 E1.93290
G1 X97.150 Y88.370 E1.95175
G1 X98.080 Y88.510 E1.98786
G1 X98.550 Y88.620 E2.00640
G1 X98.890 Y88.720 E2.02001
G1 X99.510 Y88.960 E2.04554
G1 X99.950 Y89.160 E2.06410
G1 X100.650 Y89.570 E2.09525
G1 X101.250 Y90.000 E2.12359
G1 X101.470 Y90.180 E2.13451
G1 X101.990 Y90.670 E2.16195
G1 X102.310 Y91.020 E2.18016
G1 X102.780 Y91.630 E2.20973
G1 X103.170 Y92.250 E2.23785
G1 X103.330 Y92.540 E2.25057
G1 X103.600 Y93.150 E2.27619
G1 X103.770 Y93.600 E2.29466
G1 X103.870 Y93.940 E2.30827
G1 X104.020 Y94.630 E2.33538
G1 X104.120 Y95.340 E2.36292
G1 X104.150 Y95.820 E2.38139
G1 X104.150 Y144.160 E4.23764
G1 X104.120 Y144.650 E4.25649
G1 X103.980 Y145.580 E4.29261
G1 X103.870 Y146.050 E4.31114
G1 X103.770 Y146.390 E4.32475
G1 X103.530 Y147.010 E4.35028
G1 X103.330 Y147.450 E4.36884
G1 X102.920 Y148.150 E4.39999
G1 X102.490 Y148.750 E4.42834
G1 X102.310 Y148.970 E4.43925
G1 X101.820 Y149.490 E4.46669
G1 X101.470 Y149.810 E4.48490
G1 X100.860 Y150.280 E4.51447
G1 X100.240 Y150.670 E4.54260
G1 X99.950 Y150.830 E4.55532
G1 X99.340 Y151.100 E4.58093
G1 X98.890 Y151.270 E4.59940
G1 X98.550 Y151.370 E4.61301
G1 X97.860 Y151.520 E4.64013
G1 X97.150 Y151.620 E4.66766
G1 X96.660 Y151.650 E4.68651
G1 X78.330 Y151.650 E5.39038
G1 X77.840 Y151.620 E5.40924
G1 X76.910 Y151.480 E5.44535
G1 X76.440 Y151.370 E5.46389
G1 X76.100 Y151.270 E5.47749
G1 X75.480 Y151.030 E5.50302
G1 X75.040 Y150.830 E5.52158
G1 X74.340 Y150.420 E5.55274
G1 X73.740 Y149.990 E5.58108
G1 X73.520 Y149.810 E5.59200
G1 X73.000 Y149.320 E5.61943
G1 X72.680 Y148.970 E5.63764
G1 X72.210 Y148.360 E5.66721
G1 X71.820 Y147.740 E5.69534
G1 X71.660 Y147.450 E5.70806
G1 X71.390 Y146.840 E5.73368
G1 X71.220 Y146.390 E5.75215
G1 X71.120 Y146.050 E5.76576
G1 X70.970 Y145.360 E5.79287
G1 X70.870 Y144.650 E5.82040
G1 X70.840 Y144.160 E5.83926
G1 X70.840 Y95.820 E7.69551
G1 X70.870 Y95.340 E7.71398
G1 X71.010 Y94.410 E7.75009
G1 X71.120 Y93.940 E7.76863
G1 X71.220 Y93.600 E7.78224
G1 X71.460 Y92.980 E7.80777
G1 X71.660 Y92.540 E7.82633
G1 X72.070 Y91.840 E7.85748
G1 X72.500 Y91.240 E7.88582
G1 X72.680 Y91.020 E7.89674
G1 X72.960 Y90.714 E7.91268
G1 X73.280 Y90.930 F10800.000
G1 X73.960 Y90.300 F3000.000 E7.94828
G1 X74.530 Y89.890 E7.97524
G1 X74.940 Y89.640 E7.99368
G1 X75.630 Y89.310 E8.02305
G1 X76.230 Y89.080 E8.04772
G1 X76.530 Y88.990 E8.05975
G1 X77.190 Y88.840 E8.08574
G1 X77.860 Y88.750 E8.11170
G1 X78.500 Y88.710 E8.13632
G1 X96.490 Y88.710 E8.82714
G1 X97.330 Y88.770 E8.85948
G1 X97.800 Y88.840 E8.87772
G1 X98.460 Y88.990 E8.90371
G1 X98.760 Y89.080 E8.91574
G1 X99.350 Y89.310 E8.94006
G1 X100.050 Y89.640 E8.96978
G1 X100.460 Y89.890 E8.98822
G1 X101.030 Y90.300 E9.01518
G1 X101.710 Y90.930 E9.05077
G1 X102.190 Y91.460 E9.07823
G1 X102.600 Y92.030 E9.10519
G1 X102.850 Y92.440 E9.12363
G1 X103.240 Y93.280 E9.15920
G1 X103.410 Y93.730 E9.17767
G1 X103.500 Y94.030 E9.18970
G1 X103.650 Y94.690 E9.21569
G1 X103.740 Y95.360 E9.24165
G1 X103.780 Y95.990 E9.26589
G1 X103.780 Y143.990 E11.10909
G1 X103.720 Y144.830 E11.14142
G1 X103.650 Y145.300 E11.15967
G1 X103.500 Y145.960 E11.18566
G1 X103.410 Y146.260 E11.19769
G1 X103.180 Y146.850 E11.22201
G1 X102.850 Y147.550 E11.25172
G1 X102.480 Y148.140 E11.27847
G1 X102.190 Y148.530 E11.29713
G1 X101.560 Y149.210 E11.33272
G1 X101.030 Y149.690 E11.36018
G1 X100.460 Y150.100 E11.38714
G1 X100.050 Y150.350 E11.40558
G1 X99.210 Y150.740 E11.44115
G1 X98.760 Y150.910 E11.45962
G1 X98.460 Y151.000 E11.47165
G1 X97.800 Y151.150 E11.49764
G1 X97.130 Y151.240 E11.52360
G1 X96.490 Y151.280 E11.54822
G1 X78.500 Y151.280 E12.23904
G1 X77.660 Y151.220 E12.27137
G1 X77.190 Y151.150 E12.28962
G1 X76.530 Y151.000 E12.31561
G1 X76.230 Y150.910 E12.32764
G1 X75.640 Y150.680 E12.35196
G1 X74.940 Y150.350 E12.38167
G1 X74.350 Y149.980 E12.40842
G1 X73.960 Y149.690 E12.42708
G1 X73.280 Y149.060 E12.46267
G1 X72.800 Y148.530 E12.49013
G1 X72.390 Y147.960 E12.51709
G1 X72.140 Y147.550 E12.53553
G1 X71.750 Y146.710 E12.57110
G1 X71.580 Y146.260 E12.58957
G1 X71.490 Y145.960 E12.60160
G1 X71.340 Y145.300 E12.62759
G1 X71.250 Y144.630 E12.65355
G1 X71.210 Y143.990 E12.67817
G1 X71.210 Y95.990 E14.52137
G1 X71.270 Y95.160 E14.55333
G1 X71.340 Y94.690 E14.57157
G1 X71.490 Y94.030 E14.59756
G1 X71.580 Y93.730 E14.60959
G1 X71.810 Y93.140 E14.63391
G1 X72.140 Y92.440 E14.66362
G1 X72.510 Y91.850 E14.69037
G1 X72.800 Y91.460 E14.70903
G1 X73.240 Y90.974 E14.73422
G1 F1800.000 E13.73422
G92 E0
G1 X78.257 Y141.537 F10800.000
G1 F1800.000 E1.00000
G1 X78.689 Y141.516 F3000.000 E1.01660
G1 X78.689 Y141.529 E1.01711
G1 X79.103 Y141.591 E1.03319
G1 X79.447 Y141.714 E1.04721
G1 X79.667 Y141.818 E1.05653
G1 X79.875 Y141.942 E1.06586
G1 X80.070 Y142.087 E1.07519
G1 X80.250 Y142.250 E1.08451
G1 X80.413 Y142.430 E1.09384
G1 X80.558 Y142.625 E1.10316
G1 X80.682 Y142.833 E1.11249
G1 X80.786 Y143.053 E1.12181
G1 X80.799 Y143.087 E1.12321
G1 X80.799 Y143.087 E1.12321
G1 X80.868 Y143.281 E1.13113
G1 X80.927 Y143.517 E1.14046
G1 X80.963 Y143.757 E1.14979
G1 X80.975 Y144.000 E1.15912
G1 X80.963 Y144.243 E1.16844
G1 X80.927 Y144.483 E1.17777
G1 X80.868 Y144.718 E1.18709
G1 X80.766 Y145.003 E1.19868
G1 X80.760 Y145.003 E1.19893
G1 X80.682 Y145.167 E1.20590
G1 X80.558 Y145.375 E1.21522
G1 X80.413 Y145.570 E1.22455
G1 X80.250 Y145.750 E1.23387
G1 X80.070 Y145.913 E1.24320
G1 X79.875 Y146.058 E1.25252
G1 X79.667 Y146.182 E1.26185
G1 X79.447 Y146.286 E1.27118
G1 X79.218 Y146.368 E1.28050
G1 X78.983 Y146.427 E1.28983
G1 X78.743 Y146.463 E1.29915
G1 X78.706 Y146.465 E1.30055
G1 X78.706 Y146.465 E1.30055
G1 X78.450 Y146.477 E1.31038
G1 X78.450 Y146.536 E1.31263
G1 X77.782 Y146.368 E1.33911
G1 X77.553 Y146.286 E1.34843
G1 X77.333 Y146.182 E1.35776
G1 X77.125 Y146.058 E1.36708
G1 X76.930 Y145.913 E1.37641
G1 X76.750 Y145.750 E1.38573
G1 X76.587 Y145.570 E1.39506
G1 X76.442 Y145.375 E1.40439
G1 X76.318 Y145.167 E1.41371
G1 X76.214 Y144.947 E1.42304
G1 X76.132 Y144.718 E1.43236
G1 X76.073 Y144.483 E1.44169
G1 X76.037 Y144.243 E1.45102
G1 X76.025 Y144.000 E1.46034
G1 X76.037 Y143.757 E1.46967
G1 X76.073 Y143.517 E1.47899
G1 X76.132 Y143.281 E1.48833
G1 X76.214 Y143.053 E1.49764
G1 X76.318 Y142.833 E1.50697
G1 X76.442 Y142.625 E1.51630
G1 X76.561 Y142.465 E1.52394
G1 X76.561 Y142.465 E1.52394
G1 X76.587 Y142.430 E1.52562
G1 X76.750 Y142.250 E1.53495
G1 X76.930 Y142.087 E1.54427
G1 X77.125 Y141.942 E1.55360
G1 X77.333 Y141.818 E1.56292
G1 X77.553 Y141.714 E1.57225
G1 X77.782 Y141.632 E1.58158
G1 X78.017 Y141.573 E1.59090
G1 X78.199 Y141.546 E1.59795
G1 X78.277 Y141.915 F10800.000
G1 X78.294 Y141.913 F3000.000 E1.59864
G1 X78.312 Y141.912 E1.59932
G1 X78.312 Y141.912 E1.59932
G1 X78.500 Y141.903 E1.60654
G1 X78.706 Y141.913 E1.61445
G1 X78.723 Y141.915 E1.61513
G1 X78.723 Y141.915 E1.61513
G1 X78.909 Y141.943 E1.62235
G1 X79.109 Y141.993 E1.63025
G1 X79.303 Y142.062 E1.63816
G1 X79.489 Y142.150 E1.64606
G1 X79.665 Y142.256 E1.65396
G1 X79.831 Y142.379 E1.66187
G1 X79.983 Y142.517 E1.66977
G1 X80.121 Y142.669 E1.67767
G1 X80.244 Y142.835 E1.68558
G1 X80.350 Y143.011 E1.69348
G1 X80.438 Y143.197 E1.70138
G1 X80.507 Y143.391 E1.70928
G1 X80.557 Y143.591 E1.71719
G1 X80.587 Y143.794 E1.72509
G1 X80.597 Y144.000 E1.73300
G1 X80.587 Y144.206 E1.74090
G1 X80.557 Y144.409 E1.74880
G1 X80.507 Y144.609 E1.75671
G1 X80.501 Y144.626 E1.75739
G1 X80.501 Y144.626 E1.75739
G1 X80.438 Y144.803 E1.76461
G1 X80.350 Y144.989 E1.77252
G1 X80.244 Y145.165 E1.78042
G1 X80.121 Y145.331 E1.78832
G1 X79.983 Y145.483 E1.79623
G1 X79.831 Y145.621 E1.80413
G1 X79.665 Y145.744 E1.81203
G1 X79.489 Y145.850 E1.81994
G1 X79.303 Y145.938 E1.82784
G1 X79.109 Y146.007 E1.83574
G1 X78.909 Y146.057 E1.84365
G1 X78.706 Y146.087 E1.85155
G1 X78.500 Y146.097 E1.85945
G1 X78.294 Y146.087 E1.86736
G1 X78.091 Y146.057 E1.87526
G1 X78.073 Y146.053 E1.87595
G1 X78.073 Y146.053 E1.87595
G1 X77.891 Y146.007 E1.88316
G1 X77.697 Y145.938 E1.89107
G1 X77.511 Y145.850 E1.89897
G1 X77.335 Y145.744 E1.90687
G1 X77.169 Y145.621 E1.91478
G1 X77.017 Y145.483 E1.92268
G1 X76.879 Y145.331 E1.93058
G1 X76.756 Y145.165 E1.93849
G1 X76.650 Y144.989 E1.94639
G1 X76.562 Y144.803 E1.95430
G1 X76.493 Y144.609 E1.96220
G1 X76.443 Y144.409 E1.97010
G1 X76.413 Y144.206 E1.97801
G1 X76.403 Y144.000 E1.98591
G1 X76.413 Y143.794 E1.99381
G1 X76.443 Y143.591 E2.00172
G1 X76.493 Y143.391 E2.00963
G1 X76.562 Y143.197 E2.01752
G1 X76.650 Y143.011 E2.02543
G1 X76.756 Y142.835 E2.03333
G1 X76.879 Y142.669 E2.04123
G1 X77.017 Y142.517 E2.04914
G1 X77.169 Y142.379 E2.05704
G1 X77.335 Y142.256 E2.06494
G1 X77.511 Y142.150 E2.07285
G1 X77.697 Y142.062 E2.08075
G1 X77.891 Y141.993 E2.08865
G1 X78.091 Y141.943 E2.09656
G1 X78.218 Y141.924 E2.10150
G1 F1800.000 E1.10150
G92 E0
G1 X94.037 Y143.757 F10800.000
G1 F1800.000 E1.00000
G1 X94.043 Y143.721 F3000.000 E1.00139
G1 X94.043 Y143.721 E1.00139
G1 X94.073 Y143.517 E1.00933
G1 X94.132 Y143.282 E1.01865
G1 X94.214 Y143.053 E1.02798
G1 X94.317 Y142.833 E1.03730
G1 X94.442 Y142.625 E1.04663
G1 X94.587 Y142.430 E1.05595
G1 X94.750 Y142.250 E1.06528
G1 X94.930 Y142.087 E1.07460
G1 X95.151 Y141.924 E1.08515
G1 X95.151 Y141.904 E1.08589
G1 X95.553 Y141.714 E1.10299
G1 X95.782 Y141.632 E1.11231
G1 X96.017 Y141.573 E1.12164
G1 X96.257 Y141.537 E1.13097
G1 X96.500 Y141.525 E1.14029
G1 X96.743 Y141.537 E1.14962
G1 X96.983 Y141.573 E1.15894
G1 X97.018 Y141.582 E1.16034
G1 X97.018 Y141.582 E1.16034
G1 X97.218 Y141.632 E1.16827
G1 X97.447 Y141.714 E1.17760
G1 X97.667 Y141.818 E1.18694
G1 X97.875 Y141.942 E1.19625
G1 X98.070 Y142.087 E1.20557
G1 X98.250 Y142.250 E1.21490
G1 X98.413 Y142.430 E1.22422
G1 X98.558 Y142.625 E1.23355
G1 X98.576 Y142.656 E1.23494
G1 X98.576 Y142.656 E1.23494
G1 X98.682 Y142.833 E1.24287
G1 X98.786 Y143.053 E1.25220
G1 X98.868 Y143.282 E1.26152
G1 X98.927 Y143.517 E1.27085
G1 X98.963 Y143.757 E1.28018
G1 X98.975 Y144.000 E1.28950
G1 X98.963 Y144.243 E1.29883
G1 X98.927 Y144.483 E1.30815
G1 X98.868 Y144.718 E1.31748
G1 X98.786 Y144.947 E1.32680
G1 X98.669 Y145.196 E1.33736
G1 X98.665 Y145.196 E1.33751
G1 X98.558 Y145.375 E1.34553
G1 X98.413 Y145.570 E1.35486
G1 X98.250 Y145.750 E1.36418
G1 X98.070 Y145.913 E1.37351
G1 X97.849 Y146.076 E1.38405
G1 X97.849 Y146.096 E1.38480
G1 X97.447 Y146.286 E1.40189
G1 X97.218 Y146.368 E1.41122
G1 X96.983 Y146.427 E1.42054
G1 X96.743 Y146.463 E1.42987
G1 X96.706 Y146.465 E1.43126
G1 X96.706 Y146.465 E1.43126
G1 X96.500 Y146.475 E1.43919
G1 X96.464 Y146.473 E1.44059
G1 X96.464 Y146.473 E1.44059
G1 X96.257 Y146.463 E1.44852
G1 X96.017 Y146.427 E1.45784
G1 X95.782 Y146.368 E1.46717
G1 X95.553 Y146.286 E1.47650
G1 X95.333 Y146.182 E1.48582
G1 X95.125 Y146.058 E1.49515
G1 X94.930 Y145.913 E1.50448
G1 X94.750 Y145.750 E1.51381
G1 X94.699 Y145.693 E1.51674
G1 X94.678 Y145.693 E1.51752
G1 X94.442 Y145.375 E1.53274
G1 X94.318 Y145.167 E1.54206
G1 X94.214 Y144.947 E1.55139
G1 X94.132 Y144.718 E1.56071
G1 X94.073 Y144.483 E1.57004
G1 X94.037 Y144.243 E1.57936
G1 X94.025 Y144.000 E1.58869
G1 X94.034 Y143.817 E1.59574
G1 X94.412 Y143.812 F10800.000
G1 X94.413 Y143.794 F3000.000 E1.59643
G1 X94.443 Y143.591 E1.60433
G1 X94.493 Y143.391 E1.61224
G1 X94.562 Y143.197 E1.62014
G1 X94.650 Y143.011 E1.62804
G1 X94.756 Y142.835 E1.63595
G1 X94.879 Y142.669 E1.64385
G1 X95.017 Y142.517 E1.65176
G1 X95.169 Y142.379 E1.65966
G1 X95.335 Y142.256 E1.66756
G1 X95.511 Y142.150 E1.67547
G1 X95.527 Y142.143 E1.67615
G1 X95.527 Y142.143 E1.67615
G1 X95.697 Y142.062 E1.68337
G1 X95.891 Y141.993 E1.69127
G1 X96.091 Y141.943 E1.69918
G1 X96.294 Y141.913 E1.70708
G1 X96.500 Y141.903 E1.71498
G1 X96.706 Y141.913 E1.72289
G1 X96.909 Y141.943 E1.73079
G1 X97.109 Y141.993 E1.73869
G1 X97.303 Y142.062 E1.74660
G1 X97.489 Y142.151 E1.75452
G1 X97.665 Y142.256 E1.76240
G1 X97.831 Y142.379 E1.77031
G1 X97.983 Y142.517 E1.77821
G1 X98.121 Y142.669 E1.78611
G1 X98.244 Y142.835 E1.79402
G1 X98.350 Y143.011 E1.80192
G1 X98.438 Y143.197 E1.80982
G1 X98.507 Y143.391 E1.81773
G1 X98.557 Y143.591 E1.82563
G1 X98.587 Y143.794 E1.83353
G1 X98.597 Y144.000 E1.84144
G1 X98.587 Y144.206 E1.84934
G1 X98.557 Y144.409 E1.85725
G1 X98.507 Y144.609 E1.86515
G1 X98.438 Y144.803 E1.87305
G1 X98.430 Y144.819 E1.87374
G1 X98.430 Y144.819 E1.87374
G1 X98.350 Y144.989 E1.88096
G1 X98.244 Y145.165 E1.88886
G1 X98.121 Y145.331 E1.89676
G1 X97.983 Y145.483 E1.90467
G1 X97.831 Y145.621 E1.91257
G1 X97.665 Y145.744 E1.92047
G1 X97.489 Y145.850 E1.92838
G1 X97.473 Y145.857 E1.92906
G1 X97.473 Y145.857 E1.92906
G1 X97.303 Y145.938 E1.93628
G1 X97.109 Y146.007 E1.94418
G1 X96.909 Y146.057 E1.95209
G1 X96.706 Y146.087 E1.95999
G1 X96.500 Y146.097 E1.96789
G1 X96.294 Y146.087 E1.97580
G1 X96.091 Y146.057 E1.98370
G1 X95.891 Y146.007 E1.99160
G1 X95.697 Y145.938 E1.99951
G1 X95.511 Y145.850 E2.00741
G1 X95.335 Y145.744 E2.01531
G1 X95.169 Y145.621 E2.02322
G1 X95.017 Y145.483 E2.03114
G1 X94.879 Y145.331 E2.03902
G1 X94.868 Y145.316 E2.03971
G1 X94.868 Y145.316 E2.03971
G1 X94.756 Y145.165 E2.04693
G1 X94.650 Y144.989 E2.05483
G1 X94.562 Y144.803 E2.06274
G1 X94.493 Y144.609 E2.07064
G1 X94.443 Y144.409 E2.07854
G1 X94.413 Y144.206 E2.08645
G1 X94.403 Y144.000 E2.09435
G1 X94.409 Y143.871 E2.09929
G1 F1800.000 E1.09929
G92 E0
G1 X98.232 Y148.181 F10800.000
G1 F1800.000 E1.00000
G1 X97.814 Y148.330 F3000.000 E1.01705
G1 X97.383 Y148.438 E1.03411
G1 X96.944 Y148.504 E1.05116
G1 X96.488 Y148.526 E1.06866
G1 X78.056 Y148.504 E1.77645
G1 X77.617 Y148.438 E1.79350
G1 X77.186 Y148.330 E1.81055
G1 X76.768 Y148.181 E1.82761
G1 X76.367 Y147.991 E1.84466
G1 X75.986 Y147.763 E1.86171
G1 X75.629 Y147.498 E1.87877
G1 X75.300 Y147.200 E1.89582
G1 X75.002 Y146.871 E1.91287
G1 X74.737 Y146.514 E1.92992
G1 X74.509 Y146.133 E1.94698
G1 X74.319 Y145.732 E1.96403
G1 X74.170 Y145.314 E1.98108
G1 X74.062 Y144.883 E1.99814
G1 X73.996 Y144.444 E2.01519
G1 X73.975 Y144.000 E2.03224
G1 X73.996 Y143.556 E2.04930
G1 X74.062 Y143.117 E2.06635
G1 X74.170 Y142.686 E2.08340
G1 X74.319 Y142.268 E2.10046
G1 X74.509 Y141.867 E2.11751
G1 X74.737 Y141.486 E2.13456
G1 X75.002 Y141.129 E2.15162
G1 X75.300 Y140.800 E2.16867
G1 X75.629 Y140.502 E2.18572
G1 X75.986 Y140.237 E2.20278
G1 X76.367 Y140.009 E2.21983
G1 X76.768 Y139.819 E2.23688
G1 X77.186 Y139.670 E2.25393
G1 X77.617 Y139.562 E2.27099
G1 X78.056 Y139.496 E2.28804
G1 X78.512 Y139.474 E2.30554
G1 X96.944 Y139.496 E3.01333
G1 X97.383 Y139.562 E3.03038
G1 X97.814 Y139.670 E3.04743
G1 X98.232 Y139.819 E3.06449
G1 X98.633 Y140.009 E3.08154
G1 X99.014 Y140.237 E3.09859
G1 X99.371 Y140.502 E3.11565
G1 X99.700 Y140.800 E3.13270
G1 X99.998 Y141.129 E3.14975
G1 X100.263 Y141.486 E3.16681
G1 X100.491 Y141.867 E3.18386
G1 X100.681 Y142.268 E3.20091
G1 X100.830 Y142.686 E3.21796
G1 X100.938 Y143.117 E3.23502
G1 X101.004 Y143.556 E3.25207
G1 X101.025 Y144.000 E3.26912
G1 X101.004 Y144.444 E3.28618
G1 X100.938 Y144.883 E3.30323
G1 X100.830 Y145.314 E3.32028
G1 X100.681 Y145.732 E3.33734
G1 X100.491 Y146.133 E3.35439
G1 X100.263 Y146.514 E3.37144
G1 X99.998 Y146.871 E3.38850
G1 X99.700 Y147.200 E3.40555
G1 X99.371 Y147.498 E3.42260
