(** This GCode was generated by ReplicatorG 0034 **)
(*  using Skeinforge (35)  *)
(*  for a Single headed Thing-O-Matic  *)
(*  on 2012/05/20 11:14:31 (-0400) *)
(<alteration>)
(**** beginning of start.gcode ****)
(This file is for a MakerBot Thing-O-Matic)
(**** begin initialization commands ****)
G21 (set units to mm)
G90 (set positioning to absolute)
M108 R5.0 (set extruder speed)
M103 (Make sure extruder is off)
M104 S225 T0 (set extruder temperature)
M109 S100 T0 (set heated-build-platform temperature)
(**** end initialization commands ****)
(**** begin homing ****)
G162 Z F1000 (home Z axis maximum)
G92 Z10 (set Z to 0)
G1 Z0.0 (move z down 10)
G162 Z F150 (home Z axis maximum)
G161 X Y F2500 (home XY axes minimum)
M132 X Y Z A B (Recall stored home offsets for XYZAB axis)
(**** end homing ****)
(**** begin pre-wipe commands ****)
( Some people have had problems with the nozzle hitting )
( bolts or wipers during this pre-extrusion warmup.     )
( If this happens to you, you can change the values for )
( the X and Y positions in the following code.          )
( The goal is to have the toolhead wipe its initial     )
( extrusion near the edge of the platform, [anchor it]  )
( so as not to have it interfere with the print.        )
( This file can be found in:                            )
( replicatorg/skein_engines/skeinforge-##/skeinforge_application/ )
( prefs/<profile name [e.g. Thingomatic-ABP-Mk7]>/alterations )
G1 X25.0 Y-60.0 Z10.0 F3300.0 (move to waiting position)
M6 T0 (wait for toolhead parts, nozzle, HBP, etc., to reach temperature)
G0 X25 Y-57 (Position Nozzle)
G0 Z0.6     (Position Height)
M108 R4.0   (Set Extruder Speed)
M101        (Start Extruder)
G4 P1500    (Create Anchor)
(**** end pre-wipe commands ****)
(**** end of start.gcode ****)
(</alteration>)
(<creation> skeinforge </creation>)
(<version> 10.11.05 </version>)
(<extruderInitialization>)
(<craftTypeName> extrusion </craftTypeName>)
M105
(<bridgeWidthMultiplier> 1.0 </bridgeWidthMultiplier>)
(<decimalPlacesCarried> 3 </decimalPlacesCarried>)
(<layerThickness> 0.27 </layerThickness>)
(<threadSequenceString> perimeter loops infill </threadSequenceString>)
(<operatingFeedRatePerSecond> 100.0 </operatingFeedRatePerSecond>)
(<operatingFlowRate> 10.2582668195 </operatingFlowRate>)
(<orbitalFeedRatePerSecond> 50.0 </orbitalFeedRatePerSecond>)
(<travelFeedRatePerSecond> 100.0 </travelFeedRatePerSecond>)
(<perimeterWidth> 0.465 </perimeterWidth>)
(<profileName> ABS </profileName>)
(<procedureDone> carve </procedureDone>)
(<procedureDone> preface </procedureDone>)
(<procedureDone> inset </procedureDone>)
(<procedureDone> fill </procedureDone>)
(<procedureDone> speed </procedureDone>)
(<procedureDone> raft </procedureDone>)
(<procedureDone> jitter </procedureDone>)
(<procedureDone> stretch </procedureDone>)
(<procedureDone> comb </procedureDone>)
(<procedureDone> cool </procedureDone>)
(<procedureDone> outline </procedureDone>)
(<procedureDone> reversal </procedureDone>)
(<procedureDone> export </procedureDone>)
(</extruderInitialization>)
(<extrusion>)
;M113 S1.0
M108 R10.26
(<layer> 0.135 )
(<surroundingLoop>)
(<boundaryPerimeter>)
(<boundaryPoint> X38.75 Y15.0 Z0.135 </boundaryPoint>)
(<boundaryPoint> X-38.75 Y15.0 Z0.135 </boundaryPoint>)
(<boundaryPoint> X-38.75 Y-15.0 Z0.135 </boundaryPoint>)
(<boundaryPoint> X38.75 Y-15.0 Z0.135 </boundaryPoint>)
(<perimeter> outer )
M108 R6.155
G1 X40.52 Y-16.77 Z0.14 F3600.0
M101
G1 X-40.52 Y-16.77 Z0.14 F3600.0
G1 X-40.52 Y16.77 Z0.14 F3600.0
G1 X40.52 Y16.77 Z0.14 F3600.0
G1 X40.52 Y-15.87 Z0.14 F3600.0
M108 R30.0
M102
G1 X40.52 Y-16.77 Z0.14 F3600.0
M108 R6.155
M103
G1 X1.62 Y-14.69 Z0.14 F6000.0
M108 R30.0
M101
G1 X0.02 Y-14.61 Z0.14 F6000.0
M108 R6.155
G1 X38.52 Y-14.77 Z0.14 F3600.0
G1 X38.52 Y14.77 Z0.14 F3600.0
G1 X-38.52 Y14.77 Z0.14 F3600.0
G1 X-38.52 Y-14.77 Z0.14 F3600.0
G1 X-0.79 Y-14.77 Z0.14 F3600.0
M108 R30.0
M102
G1 X0.0 Y-14.77 Z0.14 F3600.0
G1 X0.11 Y-14.77 Z0.14 F3600.0
M108 R6.155
M103
(</perimeter>)
(</boundaryPerimeter>)
(<surroundingLoop>)
(<boundaryPerimeter>)
(<boundaryPoint> X20.6 Y-10.0 Z0.135 </boundaryPoint>)
(<boundaryPoint> X20.542 Y-10.585 Z0.135 </boundaryPoint>)
(<boundaryPoint> X20.372 Y-11.148 Z0.135 </boundaryPoint>)
(<boundaryPoint> X20.094 Y-11.667 Z0.135 </boundaryPoint>)
(<boundaryPoint> X19.721 Y-12.121 Z0.135 </boundaryPoint>)
(<boundaryPoint> X19.267 Y-12.494 Z0.135 </boundaryPoint>)
(<boundaryPoint> X18.748 Y-12.772 Z0.135 </boundaryPoint>)
(<boundaryPoint> X18.185 Y-12.942 Z0.135 </boundaryPoint>)
(<boundaryPoint> X17.6 Y-13.0 Z0.135 </boundaryPoint>)
(<boundaryPoint> X17.015 Y-12.942 Z0.135 </boundaryPoint>)
(<boundaryPoint> X16.452 Y-12.772 Z0.135 </boundaryPoint>)
(<boundaryPoint> X15.933 Y-12.494 Z0.135 </boundaryPoint>)
(<boundaryPoint> X15.479 Y-12.121 Z0.135 </boundaryPoint>)
(<boundaryPoint> X15.106 Y-11.667 Z0.135 </boundaryPoint>)
(<boundaryPoint> X14.828 Y-11.148 Z0.135 </boundaryPoint>)
(<boundaryPoint> X14.658 Y-10.585 Z0.135 </boundaryPoint>)
(<boundaryPoint> X14.6 Y-10.0 Z0.135 </boundaryPoint>)
(<boundaryPoint> X14.658 Y-9.415 Z0.135 </boundaryPoint>)
(<boundaryPoint> X14.828 Y-8.852 Z0.135 </boundaryPoint>)
(<boundaryPoint> X15.106 Y-8.333 Z0.135 </boundaryPoint>)
(<boundaryPoint> X15.479 Y-7.879 Z0.135 </boundaryPoint>)
(<boundaryPoint> X15.933 Y-7.506 Z0.135 </boundaryPoint>)
(<boundaryPoint> X16.452 Y-7.228 Z0.135 </boundaryPoint>)
(<boundaryPoint> X17.015 Y-7.058 Z0.135 </boundaryPoint>)
(<boundaryPoint> X17.6 Y-7.0 Z0.135 </boundaryPoint>)
(<boundaryPoint> X18.185 Y-7.058 Z0.135 </boundaryPoint>)
(<boundaryPoint> X18.748 Y-7.228 Z0.135 </boundaryPoint>)
(<boundaryPoint> X19.267 Y-7.506 Z0.135 </boundaryPoint>)
(<boundaryPoint> X19.721 Y-7.879 Z0.135 </boundaryPoint>)
(<boundaryPoint> X20.094 Y-8.333 Z0.135 </boundaryPoint>)
(<boundaryPoint> X20.372 Y-8.852 Z0.135 </boundaryPoint>)
(<boundaryPoint> X20.542 Y-9.415 Z0.135 </boundaryPoint>)
(<perimeter> inner )
G1 X12.78 Y-11.1 Z0.14 F6000.0
M108 R30.0
M101
G1 X14.32 Y-10.65 Z0.14 F6000.0
M108 R6.155
G1 X14.25 Y-10.0 Z0.14 F3600.0
G1 X14.32 Y-9.35 Z0.14 F3600.0
G1 X14.51 Y-8.72 Z0.14 F3600.0
G1 X14.82 Y-8.14 Z0.14 F3600.0
G1 X15.23 Y-7.63 Z0.14 F3600.0
G1 X15.74 Y-7.22 Z0.14 F3600.0
G1 X16.32 Y-6.91 Z0.14 F3600.0
G1 X16.95 Y-6.72 Z0.14 F3600.0
G1 X17.6 Y-6.65 Z0.14 F3600.0
G1 X18.25 Y-6.72 Z0.14 F3600.0
G1 X18.88 Y-6.91 Z0.14 F3600.0
G1 X19.46 Y-7.22 Z0.14 F3600.0
G1 X19.96 Y-7.63 Z0.14 F3600.0
G1 X20.38 Y-8.14 Z0.14 F3600.0
G1 X20.69 Y-8.72 Z0.14 F3600.0
G1 X20.88 Y-9.35 Z0.14 F3600.0
G1 X20.95 Y-10.0 Z0.14 F3600.0
G1 X20.88 Y-10.65 Z0.14 F3600.0
G1 X20.69 Y-11.28 Z0.14 F3600.0
G1 X20.38 Y-11.86 Z0.14 F3600.0
G1 X19.96 Y-12.37 Z0.14 F3600.0
G1 X19.46 Y-12.78 Z0.14 F3600.0
G1 X18.88 Y-13.09 Z0.14 F3600.0
G1 X18.25 Y-13.28 Z0.14 F3600.0
G1 X17.6 Y-13.35 Z0.14 F3600.0
G1 X16.95 Y-13.28 Z0.14 F3600.0
G1 X16.32 Y-13.09 Z0.14 F3600.0
G1 X15.74 Y-12.78 Z0.14 F3600.0
G1 X15.23 Y-12.37 Z0.14 F3600.0
G1 X14.82 Y-11.86 Z0.14 F3600.0
G1 X14.62 Y-11.5 Z0.14 F3600.0
M108 R30.0
M102
G1 X14.51 Y-11.28 Z0.14 F3600.0
G1 X14.32 Y-10.65 Z0.14 F3600.0
M108 R6.155
M103
(</perimeter>)
(</boundaryPerimeter>)
(</surroundingLoop>)
(<surroundingLoop>)
(<boundaryPerimeter>)
(<boundaryPoint> X20.372 Y8.852 Z0.135 </boundaryPoint>)
(<boundaryPoint> X20.094 Y8.333 Z0.135 </boundaryPoint>)
(<boundaryPoint> X19.721 Y7.879 Z0.135 </boundaryPoint>)
(<boundaryPoint> X19.267 Y7.506 Z0.135 </boundaryPoint>)
(<boundaryPoint> X18.748 Y7.228 Z0.135 </boundaryPoint>)
(<boundaryPoint> X18.185 Y7.058 Z0.135 </boundaryPoint>)
(<boundaryPoint> X17.6 Y7.0 Z0.135 </boundaryPoint>)
(<boundaryPoint> X17.015 Y7.058 Z0.135 </boundaryPoint>)
(<boundaryPoint> X16.452 Y7.228 Z0.135 </boundaryPoint>)
(<boundaryPoint> X15.933 Y7.506 Z0.135 </boundaryPoint>)
(<boundaryPoint> X15.479 Y7.879 Z0.135 </boundaryPoint>)
(<boundaryPoint> X15.106 Y8.333 Z0.135 </boundaryPoint>)
(<boundaryPoint> X14.828 Y8.852 Z0.135 </boundaryPoint>)
(<boundaryPoint> X14.658 Y9.415 Z0.135 </boundaryPoint>)
(<boundaryPoint> X14.6 Y10.0 Z0.135 </boundaryPoint>)
(<boundaryPoint> X14.658 Y10.585 Z0.135 </boundaryPoint>)
(<boundaryPoint> X14.828 Y11.148 Z0.135 </boundaryPoint>)
(<boundaryPoint> X15.106 Y11.667 Z0.135 </boundaryPoint>)
(<boundaryPoint> X15.479 Y12.121 Z0.135 </boundaryPoint>)
(<boundaryPoint> X15.933 Y12.494 Z0.135 </boundaryPoint>)
(<boundaryPoint> X16.452 Y12.772 Z0.135 </boundaryPoint>)
(<boundaryPoint> X17.015 Y12.942 Z0.135 </boundaryPoint>)
(<boundaryPoint> X17.6 Y13.0 Z0.135 </boundaryPoint>)
(<boundaryPoint> X18.185 Y12.942 Z0.135 </boundaryPoint>)
(<boundaryPoint> X18.748 Y12.772 Z0.135 </boundaryPoint>)
(<boundaryPoint> X19.267 Y12.494 Z0.135 </boundaryPoint>)
(<boundaryPoint> X19.721 Y12.121 Z0.135 </boundaryPoint>)
(<boundaryPoint> X20.094 Y11.667 Z0.135 </boundaryPoint>)
(<boundaryPoint> X20.372 Y11.148 Z0.135 </boundaryPoint>)
(<boundaryPoint> X20.542 Y10.585 Z0.135 </boundaryPoint>)
(<boundaryPoint> X20.6 Y10.0 Z0.135 </boundaryPoint>)
(<boundaryPoint> X20.542 Y9.415 Z0.135 </boundaryPoint>)
(<perimeter> inner )
G1 X16.71 Y5.14 Z0.14 F6000.0
M108 R30.0
M101
G1 X16.95 Y6.72 Z0.14 F6000.0
M108 R6.155
G1 X16.32 Y6.91 Z0.14 F3600.0
G1 X15.74 Y7.22 Z0.14 F3600.0
G1 X15.23 Y7.63 Z0.14 F3600.0
G1 X14.82 Y8.14 Z0.14 F3600.0
G1 X14.51 Y8.72 Z0.14 F3600.0
G1 X14.32 Y9.35 Z0.14 F3600.0
G1 X14.25 Y10.0 Z0.14 F3600.0
G1 X14.32 Y10.65 Z0.14 F3600.0
G1 X14.51 Y11.28 Z0.14 F3600.0
G1 X14.82 Y11.86 Z0.14 F3600.0
G1 X15.23 Y12.37 Z0.14 F3600.0
G1 X15.74 Y12.78 Z0.14 F3600.0
G1 X16.32 Y13.09 Z0.14 F3600.0
G1 X16.95 Y13.28 Z0.14 F3600.0
G1 X17.6 Y13.35 Z0.14 F3600.0
G1 X18.25 Y13.28 Z0.14 F3600.0
G1 X18.88 Y13.09 Z0.14 F3600.0
G1 X19.46 Y12.78 Z0.14 F3600.0
G1 X19.96 Y12.37 Z0.14 F3600.0
G1 X20.38 Y11.86 Z0.14 F3600.0
G1 X20.69 Y11.28 Z0.14 F3600.0
G1 X20.88 Y10.65 Z0.14 F3600.0
G1 X20.95 Y10.0 Z0.14 F3600.0
G1 X20.88 Y9.35 Z0.14 F3600.0
G1 X20.69 Y8.72 Z0.14 F3600.0
G1 X20.38 Y8.14 Z0.14 F3600.0
G1 X19.96 Y7.63 Z0.14 F3600.0
G1 X19.46 Y7.22 Z0.14 F3600.0
G1 X18.88 Y6.91 Z0.14 F3600.0
G1 X18.25 Y6.72 Z0.14 F3600.0
G1 X17.84 Y6.68 Z0.14 F3600.0
M108 R30.0
M102
G1 X17.6 Y6.65 Z0.14 F3600.0
G1 X16.95 Y6.72 Z0.14 F3600.0
M108 R6.155
M103
(</perimeter>)
(</boundaryPerimeter>)
(</surroundingLoop>)
(<surroundingLoop>)
(<boundaryPerimeter>)
(<boundaryPoint> X-14.6 Y10.0 Z0.135 </boundaryPoint>)
(<boundaryPoint> X-14.658 Y9.415 Z0.135 </boundaryPoint>)
(<boundaryPoint> X-14.828 Y8.852 Z0.135 </boundaryPoint>)
(<boundaryPoint> X-15.106 Y8.333 Z0.135 </boundaryPoint>)
(<boundaryPoint> X-15.479 Y7.879 Z0.135 </boundaryPoint>)
(<boundaryPoint> X-15.933 Y7.506 Z0.135 </boundaryPoint>)
(<boundaryPoint> X-16.452 Y7.228 Z0.135 </boundaryPoint>)
(<boundaryPoint> X-17.015 Y7.058 Z0.135 </boundaryPoint>)
(<boundaryPoint> X-17.6 Y7.0 Z0.135 </boundaryPoint>)
(<boundaryPoint> X-18.185 Y7.058 Z0.135 </boundaryPoint>)
(<boundaryPoint> X-18.748 Y7.228 Z0.135 </boundaryPoint>)
(<boundaryPoint> X-19.267 Y7.506 Z0.135 </boundaryPoint>)
(<boundaryPoint> X-19.721 Y7.879 Z0.135 </boundaryPoint>)
(<boundaryPoint> X-20.094 Y8.333 Z0.135 </boundaryPoint>)
(<boundaryPoint> X-20.372 Y8.852 Z0.135 </boundaryPoint>)
(<boundaryPoint> X-20.542 Y9.415 Z0.135 </boundaryPoint>)
(<boundaryPoint> X-20.6 Y10.0 Z0.135 </boundaryPoint>)
(<boundaryPoint> X-20.542 Y10.585 Z0.135 </boundaryPoint>)
(<boundaryPoint> X-20.372 Y11.148 Z0.135 </boundaryPoint>)
(<boundaryPoint> X-20.094 Y11.667 Z0.135 </boundaryPoint>)
(<boundaryPoint> X-19.721 Y12.121 Z0.135 </boundaryPoint>)
(<boundaryPoint> X-19.267 Y12.494 Z0.135 </boundaryPoint>)
(<boundaryPoint> X-18.748 Y12.772 Z0.135 </boundaryPoint>)
(<boundaryPoint> X-18.185 Y12.942 Z0.135 </boundaryPoint>)
(<boundaryPoint> X-17.6 Y13.0 Z0.135 </boundaryPoint>)
(<boundaryPoint> X-17.015 Y12.942 Z0.135 </boundaryPoint>)
(<boundaryPoint> X-16.452 Y12.772 Z0.135 </boundaryPoint>)
(<boundaryPoint> X-15.933 Y12.494 Z0.135 </boundaryPoint>)
(<boundaryPoint> X-15.479 Y12.121 Z0.135 </boundaryPoint>)
(<boundaryPoint> X-15.106 Y11.667 Z0.135 </boundaryPoint>)
(<boundaryPoint> X-14.828 Y11.148 Z0.135 </boundaryPoint>)
(<boundaryPoint> X-14.658 Y10.585 Z0.135 </boundaryPoint>)
(<perimeter> inner )
G1 X-12.66 Y9.83 Z0.14 F6000.0
M108 R30.0
M101
G1 X-14.25 Y10.0 Z0.14 F6000.0
M108 R6.155
G1 X-14.32 Y9.35 Z0.14 F3600.0
G1 X-14.51 Y8.72 Z0.14 F3600.0
G1 X-14.82 Y8.14 Z0.14 F3600.0
G1 X-15.23 Y7.63 Z0.14 F3600.0
G1 X-15.74 Y7.22 Z0.14 F3600.0
G1 X-16.32 Y6.91 Z0.14 F3600.0
G1 X-16.95 Y6.72 Z0.14 F3600.0
G1 X-17.6 Y6.65 Z0.14 F3600.0
G1 X-18.25 Y6.72 Z0.14 F3600.0
G1 X-18.88 Y6.91 Z0.14 F3600.0
G1 X-19.46 Y7.22 Z0.14 F3600.0
G1 X-19.96 Y7.63 Z0.14 F3600.0
G1 X-20.38 Y8.14 Z0.14 F3600.0
G1 X-20.69 Y8.72 Z0.14 F3600.0
G1 X-20.88 Y9.35 Z0.14 F3600.0
G1 X-20.95 Y10.0 Z0.14 F3600.0
G1 X-20.88 Y10.65 Z0.14 F3600.0
G1 X-20.69 Y11.28 Z0.14 F3600.0
G1 X-20.38 Y11.86 Z0.14 F3600.0
G1 X-19.96 Y12.37 Z0.14 F3600.0
G1 X-19.46 Y12.78 Z0.14 F3600.0
G1 X-18.88 Y13.09 Z0.14 F3600.0
G1 X-18.25 Y13.28 Z0.14 F3600.0
G1 X-17.6 Y13.35 Z0.14 F3600.0
G1 X-16.95 Y13.28 Z0.14 F3600.0
G1 X-16.32 Y13.09 Z0.14 F3600.0
G1 X-15.74 Y12.78 Z0.14 F3600.0
G1 X-15.23 Y12.37 Z0.14 F3600.0
G1 X-14.82 Y11.86 Z0.14 F3600.0
G1 X-14.51 Y11.28 Z0.14 F3600.0
G1 X-14.39 Y10.89 Z0.14 F3600.0
M108 R30.0
M102
G1 X-14.32 Y10.65 Z0.14 F3600.0
G1 X-14.25 Y10.0 Z0.14 F3600.0
M108 R6.155
M103
(</perimeter>)
(</boundaryPerimeter>)
(</surroundingLoop>)
(<surroundingLoop>)
(<boundaryPerimeter>)
(<boundaryPoint> X-14.6 Y-10.0 Z0.135 </boundaryPoint>)
(<boundaryPoint> X-14.658 Y-10.585 Z0.135 </boundaryPoint>)
(<boundaryPoint> X-14.828 Y-11.148 Z0.135 </boundaryPoint>)
(<boundaryPoint> X-15.106 Y-11.667 Z0.135 </boundaryPoint>)
(<boundaryPoint> X-15.479 Y-12.121 Z0.135 </boundaryPoint>)
(<boundaryPoint> X-15.933 Y-12.494 Z0.135 </boundaryPoint>)
(<boundaryPoint> X-16.452 Y-12.772 Z0.135 </boundaryPoint>)
(<boundaryPoint> X-17.015 Y-12.942 Z0.135 </boundaryPoint>)
(<boundaryPoint> X-17.6 Y-13.0 Z0.135 </boundaryPoint>)
(<boundaryPoint> X-18.185 Y-12.942 Z0.135 </boundaryPoint>)
(<boundaryPoint> X-18.748 Y-12.772 Z0.135 </boundaryPoint>)
(<boundaryPoint> X-19.267 Y-12.494 Z0.135 </boundaryPoint>)
(<boundaryPoint> X-19.721 Y-12.121 Z0.135 </boundaryPoint>)
(<boundaryPoint> X-20.094 Y-11.667 Z0.135 </boundaryPoint>)
(<boundaryPoint> X-20.372 Y-11.148 Z0.135 </boundaryPoint>)
(<boundaryPoint> X-20.542 Y-10.585 Z0.135 </boundaryPoint>)
(<boundaryPoint> X-20.6 Y-10.0 Z0.135 </boundaryPoint>)
(<boundaryPoint> X-20.542 Y-9.415 Z0.135 </boundaryPoint>)
(<boundaryPoint> X-20.372 Y-8.852 Z0.135 </boundaryPoint>)
(<boundaryPoint> X-20.094 Y-8.333 Z0.135 </boundaryPoint>)
(<boundaryPoint> X-19.721 Y-7.879 Z0.135 </boundaryPoint>)
(<boundaryPoint> X-19.267 Y-7.506 Z0.135 </boundaryPoint>)
(<boundaryPoint> X-18.748 Y-7.228 Z0.135 </boundaryPoint>)
(<boundaryPoint> X-18.185 Y-7.058 Z0.135 </boundaryPoint>)
(<boundaryPoint> X-17.6 Y-7.0 Z0.135 </boundaryPoint>)
(<boundaryPoint> X-17.015 Y-7.058 Z0.135 </boundaryPoint>)
(<boundaryPoint> X-16.452 Y-7.228 Z0.135 </boundaryPoint>)
(<boundaryPoint> X-15.933 Y-7.506 Z0.135 </boundaryPoint>)
(<boundaryPoint> X-15.479 Y-7.879 Z0.135 </boundaryPoint>)
(<boundaryPoint> X-15.106 Y-8.333 Z0.135 </boundaryPoint>)
(<boundaryPoint> X-14.828 Y-8.852 Z0.135 </boundaryPoint>)
(<boundaryPoint> X-14.658 Y-9.415 Z0.135 </boundaryPoint>)
(<perimeter> inner )
G1 X-16.69 Y-5.14 Z0.14 F6000.0
M108 R30.0
M101
G1 X-16.95 Y-6.72 Z0.14 F6000.0
M108 R6.155
G1 X-16.32 Y-6.91 Z0.14 F3600.0
G1 X-15.74 Y-7.22 Z0.14 F3600.0
G1 X-15.23 Y-7.63 Z0.14 F3600.0
G1 X-14.82 Y-8.14 Z0.14 F3600.0
G1 X-14.51 Y-8.72 Z0.14 F3600.0
G1 X-14.32 Y-9.35 Z0.14 F3600.0
G1 X-14.25 Y-10.0 Z0.14 F3600.0
G1 X-14.32 Y-10.65 Z0.14 F3600.0
G1 X-14.51 Y-11.28 Z0.14 F3600.0
G1 X-14.82 Y-11.86 Z0.14 F3600.0
G1 X-15.23 Y-12.37 Z0.14 F3600.0
G1 X-15.74 Y-12.78 Z0.14 F3600.0
G1 X-16.32 Y-13.09 Z0.14 F3600.0
G1 X-16.95 Y-13.28 Z0.14 F3600.0
G1 X-17.6 Y-13.35 Z0.14 F3600.0
G1 X-18.25 Y-13.28 Z0.14 F3600.0
G1 X-18.88 Y-13.09 Z0.14 F3600.0
G1 X-19.46 Y-12.78 Z0.14 F3600.0
G1 X-19.96 Y-12.37 Z0.14 F3600.0
G1 X-20.38 Y-11.86 Z0.14 F3600.0
G1 X-20.69 Y-11.28 Z0.14 F3600.0
G1 X-20.88 Y-10.65 Z0.14 F3600.0
G1 X-20.95 Y-10.0 Z0.14 F3600.0
G1 X-20.88 Y-9.35 Z0.14 F3600.0
G1 X-20.69 Y-8.72 Z0.14 F3600.0
G1 X-20.38 Y-8.14 Z0.14 F3600.0
G1 X-19.96 Y-7.63 Z0.14 F3600.0
G1 X-19.46 Y-7.22 Z0.14 F3600.0
G1 X-18.88 Y-6.91 Z0.14 F3600.0
G1 X-18.25 Y-6.72 Z0.14 F3600.0
G1 X-17.6 Y-6.65 Z0.14 F3600.0
G1 X-16.95 Y-6.72 Z0.14 F3600.0
M103
(</perimeter>)
(</boundaryPerimeter>)
(</surroundingLoop>)
(<loop> inner )
G1 X-16.87 Y-6.33 Z0.14 F6000.0
M101
G1 X-16.17 Y-6.54 Z0.14 F3600.0
G1 X-15.52 Y-6.89 Z0.14 F3600.0
G1 X-14.95 Y-7.35 Z0.14 F3600.0
G1 X-14.49 Y-7.92 Z0.14 F3600.0
G1 X-14.14 Y-8.57 Z0.14 F3600.0
G1 X-13.93 Y-9.27 Z0.14 F3600.0
G1 X-13.86 Y-10.0 Z0.14 F3600.0
G1 X-13.93 Y-10.73 Z0.14 F3600.0
G1 X-14.14 Y-11.43 Z0.14 F3600.0
G1 X-14.49 Y-12.08 Z0.14 F3600.0
G1 X-14.95 Y-12.65 Z0.14 F3600.0
G1 X-15.52 Y-13.11 Z0.14 F3600.0
G1 X-16.17 Y-13.46 Z0.14 F3600.0
G1 X-16.87 Y-13.67 Z0.14 F3600.0
G1 X-17.6 Y-13.74 Z0.14 F3600.0
G1 X-18.33 Y-13.67 Z0.14 F3600.0
G1 X-19.03 Y-13.46 Z0.14 F3600.0
G1 X-19.68 Y-13.11 Z0.14 F3600.0
G1 X-20.25 Y-12.65 Z0.14 F3600.0
G1 X-20.71 Y-12.08 Z0.14 F3600.0
G1 X-21.06 Y-11.43 Z0.14 F3600.0
G1 X-21.27 Y-10.73 Z0.14 F3600.0
G1 X-21.34 Y-10.0 Z0.14 F3600.0
G1 X-21.27 Y-9.27 Z0.14 F3600.0
G1 X-21.06 Y-8.57 Z0.14 F3600.0
G1 X-20.71 Y-7.92 Z0.14 F3600.0
G1 X-20.25 Y-7.35 Z0.14 F3600.0
G1 X-19.68 Y-6.89 Z0.14 F3600.0
G1 X-19.03 Y-6.54 Z0.14 F3600.0
G1 X-18.33 Y-6.33 Z0.14 F3600.0
G1 X-17.77 Y-6.27 Z0.14 F3600.0
M108 R30.0
M102
G1 X-17.6 Y-6.25 Z0.14 F3600.0
G1 X-16.87 Y-6.33 Z0.14 F3600.0
M108 R6.155
M103
(</loop>)
(<loop> inner )
G1 X-17.51 Y4.66 Z0.14 F6000.0
M108 R30.0
M101
G1 X-17.6 Y6.25 Z0.14 F6000.0
M108 R6.155
G1 X-18.33 Y6.33 Z0.14 F3600.0
G1 X-19.03 Y6.54 Z0.14 F3600.0
G1 X-19.68 Y6.89 Z0.14 F3600.0
G1 X-20.25 Y7.35 Z0.14 F3600.0
G1 X-20.71 Y7.92 Z0.14 F3600.0
G1 X-21.06 Y8.57 Z0.14 F3600.0
G1 X-21.27 Y9.27 Z0.14 F3600.0
G1 X-21.34 Y10.0 Z0.14 F3600.0
G1 X-21.27 Y10.73 Z0.14 F3600.0
G1 X-21.06 Y11.43 Z0.14 F3600.0
G1 X-20.71 Y12.08 Z0.14 F3600.0
G1 X-20.25 Y12.65 Z0.14 F3600.0
G1 X-19.68 Y13.11 Z0.14 F3600.0
G1 X-19.03 Y13.46 Z0.14 F3600.0
G1 X-18.33 Y13.67 Z0.14 F3600.0
G1 X-17.6 Y13.74 Z0.14 F3600.0
G1 X-16.87 Y13.67 Z0.14 F3600.0
G1 X-16.17 Y13.46 Z0.14 F3600.0
G1 X-15.52 Y13.11 Z0.14 F3600.0
G1 X-14.95 Y12.65 Z0.14 F3600.0
G1 X-14.49 Y12.08 Z0.14 F3600.0
G1 X-14.14 Y11.43 Z0.14 F3600.0
G1 X-13.93 Y10.73 Z0.14 F3600.0
G1 X-13.86 Y10.0 Z0.14 F3600.0
G1 X-13.93 Y9.27 Z0.14 F3600.0
G1 X-14.14 Y8.57 Z0.14 F3600.0
G1 X-14.49 Y7.92 Z0.14 F3600.0
G1 X-14.95 Y7.35 Z0.14 F3600.0
G1 X-15.52 Y6.89 Z0.14 F3600.0
G1 X-16.17 Y6.54 Z0.14 F3600.0
G1 X-16.71 Y6.37 Z0.14 F3600.0
M108 R30.0
M102
G1 X-16.87 Y6.33 Z0.14 F3600.0
G1 X-17.6 Y6.25 Z0.14 F3600.0
M108 R6.155
M103
(</loop>)
(<loop> inner )
G1 X12.69 Y-7.89 Z0.14 F6000.0
M108 R30.0
M101
G1 X14.14 Y-8.57 Z0.14 F6000.0
M108 R6.155
G1 X14.49 Y-7.92 Z0.14 F3600.0
G1 X14.95 Y-7.35 Z0.14 F3600.0
G1 X15.52 Y-6.89 Z0.14 F3600.0
G1 X16.17 Y-6.54 Z0.14 F3600.0
G1 X16.87 Y-6.33 Z0.14 F3600.0
G1 X17.6 Y-6.25 Z0.14 F3600.0
G1 X18.33 Y-6.33 Z0.14 F3600.0
G1 X19.03 Y-6.54 Z0.14 F3600.0
G1 X19.68 Y-6.89 Z0.14 F3600.0
G1 X20.25 Y-7.35 Z0.14 F3600.0
G1 X20.71 Y-7.92 Z0.14 F3600.0
G1 X21.06 Y-8.57 Z0.14 F3600.0
G1 X21.27 Y-9.27 Z0.14 F3600.0
G1 X21.34 Y-10.0 Z0.14 F3600.0
G1 X21.27 Y-10.73 Z0.14 F3600.0
G1 X21.06 Y-11.43 Z0.14 F3600.0
G1 X20.71 Y-12.08 Z0.14 F3600.0
G1 X20.25 Y-12.65 Z0.14 F3600.0
G1 X19.68 Y-13.11 Z0.14 F3600.0
G1 X19.03 Y-13.46 Z0.14 F3600.0
G1 X18.33 Y-13.67 Z0.14 F3600.0
G1 X17.6 Y-13.74 Z0.14 F3600.0
G1 X16.87 Y-13.67 Z0.14 F3600.0
G1 X16.17 Y-13.46 Z0.14 F3600.0
G1 X15.52 Y-13.11 Z0.14 F3600.0
G1 X14.95 Y-12.65 Z0.14 F3600.0
G1 X14.49 Y-12.08 Z0.14 F3600.0
G1 X14.14 Y-11.43 Z0.14 F3600.0
G1 X13.93 Y-10.73 Z0.14 F3600.0
G1 X13.86 Y-10.0 Z0.14 F3600.0
G1 X13.91 Y-9.44 Z0.14 F3600.0
M108 R30.0
M102
G1 X13.93 Y-9.27 Z0.14 F3600.0
G1 X14.14 Y-8.57 Z0.14 F3600.0
M108 R6.155
M103
(</loop>)
(<loop> inner )
G1 X16.58 Y4.75 Z0.14 F6000.0
M108 R30.0
M101
G1 X16.87 Y6.33 Z0.14 F6000.0
M108 R6.155
G1 X16.17 Y6.54 Z0.14 F3600.0
G1 X15.52 Y6.89 Z0.14 F3600.0
G1 X14.95 Y7.35 Z0.14 F3600.0
G1 X14.49 Y7.92 Z0.14 F3600.0
G1 X14.14 Y8.57 Z0.14 F3600.0
G1 X13.93 Y9.27 Z0.14 F3600.0
G1 X13.86 Y10.0 Z0.14 F3600.0
G1 X13.93 Y10.73 Z0.14 F3600.0
G1 X14.14 Y11.43 Z0.14 F3600.0
G1 X14.49 Y12.08 Z0.14 F3600.0
G1 X14.95 Y12.65 Z0.14 F3600.0
G1 X15.52 Y13.11 Z0.14 F3600.0
G1 X16.17 Y13.46 Z0.14 F3600.0
G1 X16.87 Y13.67 Z0.14 F3600.0
G1 X17.6 Y13.74 Z0.14 F3600.0
G1 X18.33 Y13.67 Z0.14 F3600.0
G1 X19.03 Y13.46 Z0.14 F3600.0
G1 X19.68 Y13.11 Z0.14 F3600.0
G1 X20.25 Y12.65 Z0.14 F3600.0
G1 X20.71 Y12.08 Z0.14 F3600.0
G1 X21.06 Y11.43 Z0.14 F3600.0
G1 X21.27 Y10.73 Z0.14 F3600.0
G1 X21.34 Y10.0 Z0.14 F3600.0
G1 X21.27 Y9.27 Z0.14 F3600.0
G1 X21.06 Y8.57 Z0.14 F3600.0
G1 X20.71 Y7.92 Z0.14 F3600.0
G1 X20.25 Y7.35 Z0.14 F3600.0
G1 X19.68 Y6.89 Z0.14 F3600.0
G1 X19.03 Y6.54 Z0.14 F3600.0
G1 X18.33 Y6.33 Z0.14 F3600.0
G1 X17.77 Y6.27 Z0.14 F3600.0
M108 R30.0
M102
G1 X17.6 Y6.25 Z0.14 F3600.0
G1 X16.87 Y6.33 Z0.14 F3600.0
M108 R6.155
M103
(</loop>)
(<loop> outer )
G1 X14.84 Y8.15 Z0.14 F6000.0
G1 X14.53 Y8.73 Z0.14 F6000.0
G1 X14.34 Y9.35 Z0.14 F6000.0
G1 X14.28 Y10.0 Z0.14 F6000.0
G1 X14.34 Y10.65 Z0.14 F6000.0
G1 X14.53 Y11.27 Z0.14 F6000.0
G1 X15.9 Y13.04 Z0.14 F6000.0
M108 R30.0
M101
G1 X16.88 Y14.3 Z0.14 F6000.0
M108 R6.155
G1 X-38.05 Y14.3 Z0.14 F3600.0
G1 X-38.05 Y-14.3 Z0.14 F3600.0
G1 X38.05 Y-14.3 Z0.14 F3600.0
G1 X38.05 Y14.3 Z0.14 F3600.0
G1 X16.88 Y14.3 Z0.14 F3600.0
M103
(</loop>)
G1 X16.75 Y14.0 Z0.14 F3600.0
M101
G1 X16.75 Y13.91 Z0.14 F3600.0
M103
G1 X17.22 Y14.0 Z0.14 F3600.0
M101
G1 X17.22 Y13.97 Z0.14 F3600.0
M103
G1 X18.15 Y13.95 Z0.14 F3600.0
M101
G1 X18.15 Y14.0 Z0.14 F3600.0
M103
G1 X18.62 Y14.0 Z0.14 F3600.0
M101
M108 R30.0
M102
G1 X18.62 Y13.86 Z0.14 F576.0
M108 R6.155
M103
G1 X19.52 Y13.93 Z0.14 F3600.0
M108 R30.0
M101
G1 X20.48 Y14.0 Z0.14 F3600.0
M108 R6.155
G1 X20.48 Y12.78 Z0.14 F3600.0
G1 X20.01 Y13.18 Z0.14 F3600.0
G1 X20.01 Y14.0 Z0.14 F3600.0
G1 X19.55 Y13.48 Z0.14 F3600.0
G1 X19.55 Y13.93 Z0.14 F3600.0
M108 R30.0
M102
G1 X19.55 Y14.0 Z0.14 F3600.0
G1 X19.08 Y13.72 Z0.14 F3600.0
G1 X19.08 Y14.0 Z0.14 F3600.0
M108 R6.155
M103
G1 X20.25 Y12.87 Z0.14 F3600.0
M108 R30.0
M101
G1 X20.94 Y12.2 Z0.14 F3600.0
M108 R6.155
G1 X20.94 Y14.0 Z0.14 F3600.0
M103
G1 X21.41 Y14.0 Z0.14 F3600.0
M101
G1 X21.41 Y12.07 Z0.14 F3600.0
M108 R30.0
M102
G1 X21.41 Y11.17 Z0.14 F3600.0
M108 R6.155
M103
G1 X21.41 Y-7.87 Z0.14 F3600.0
M108 R30.0
M101
G1 X21.41 Y-8.83 Z0.14 F3600.0
M108 R6.155
G1 X21.41 Y7.93 Z0.14 F3600.0
M108 R30.0
M102
G1 X21.41 Y8.83 Z0.14 F3600.0
M108 R6.155
M103
G1 X21.34 Y8.68 Z0.14 F3600.0
M108 R30.0
M101
G1 X20.94 Y7.8 Z0.14 F3600.0
M108 R6.155
G1 X20.94 Y-7.8 Z0.14 F3600.0
G1 X20.48 Y-7.22 Z0.14 F3600.0
G1 X20.48 Y7.22 Z0.14 F3600.0
G1 X20.01 Y6.82 Z0.14 F3600.0
G1 X20.01 Y-6.82 Z0.14 F3600.0
M103
G1 X19.55 Y-6.52 Z0.14 F3600.0
M101
G1 X19.55 Y6.52 Z0.14 F3600.0
M103
G1 X19.08 Y6.28 Z0.14 F3600.0
M101
G1 X19.08 Y-6.28 Z0.14 F3600.0
M103
G1 X18.62 Y-6.14 Z0.14 F3600.0
M101
G1 X18.62 Y6.14 Z0.14 F3600.0
M103
G1 X18.15 Y6.05 Z0.14 F3600.0
M101
G1 X18.15 Y-6.05 Z0.14 F3600.0
G1 X17.69 Y-6.0 Z0.14 F3600.0
G1 X17.69 Y6.0 Z0.14 F3600.0
G1 X17.22 Y6.03 Z0.14 F3600.0
G1 X17.22 Y-6.03 Z0.14 F3600.0
M103
G1 X16.75 Y-6.09 Z0.14 F3600.0
M101
G1 X16.75 Y6.09 Z0.14 F3600.0
M103
G1 X16.29 Y6.23 Z0.14 F3600.0
M101
G1 X16.29 Y-6.23 Z0.14 F3600.0
G1 X15.82 Y-6.43 Z0.14 F3600.0
G1 X15.82 Y6.43 Z0.14 F3600.0
G1 X15.36 Y6.68 Z0.14 F3600.0
G1 X15.36 Y-6.68 Z0.14 F3600.0
G1 X14.89 Y-7.07 Z0.14 F3600.0
G1 X14.89 Y7.07 Z0.14 F3600.0
G1 X14.43 Y7.58 Z0.14 F3600.0
G1 X14.43 Y-7.58 Z0.14 F3600.0
M103
G1 X13.96 Y-8.35 Z0.14 F3600.0
M101
G1 X13.96 Y7.45 Z0.14 F3600.0
M108 R30.0
M102
G1 X13.96 Y8.35 Z0.14 F3600.0
M108 R6.155
M103
G1 X13.96 Y13.04 Z0.14 F3600.0
M108 R30.0
M101
G1 X13.96 Y14.0 Z0.14 F3600.0
M108 R6.155
G1 X13.96 Y12.55 Z0.14 F3600.0
M108 R30.0
M102
G1 X13.96 Y11.65 Z0.14 F3600.0
M108 R6.155
M103
G1 X13.68 Y13.06 Z0.14 F3600.0
M108 R30.0
M101
G1 X13.5 Y14.0 Z0.14 F3600.0
M108 R6.155
G1 X13.5 Y-14.0 Z0.14 F3600.0
M103
G1 X13.96 Y-14.0 Z0.14 F3600.0
M101
G1 X13.96 Y-11.65 Z0.14 F3600.0
M103
G1 X14.43 Y-12.42 Z0.14 F3600.0
M101
G1 X14.43 Y-14.0 Z0.14 F3600.0
M103
G1 X14.89 Y-14.0 Z0.14 F3600.0
M101
G1 X14.89 Y-12.93 Z0.14 F3600.0
G1 X15.36 Y-13.32 Z0.14 F3600.0
G1 X15.36 Y-14.0 Z0.14 F3600.0
G1 X15.82 Y-13.57 Z0.14 F3600.0
G1 X15.82 Y-14.0 Z0.14 F3600.0
G1 X16.29 Y-13.77 Z0.14 F3600.0
G1 X16.29 Y-14.0 Z0.14 F3600.0
M103
G1 X16.75 Y-14.0 Z0.14 F3600.0
M101
G1 X16.75 Y-13.91 Z0.14 F3600.0
M103
G1 X17.22 Y-13.97 Z0.14 F3600.0
M101
G1 X17.22 Y-14.0 Z0.14 F3600.0
M103
G1 X18.15 Y-14.0 Z0.14 F3600.0
M101
G1 X18.15 Y-13.95 Z0.14 F3600.0
M103
G1 X18.62 Y-14.0 Z0.14 F3600.0
M101
G1 X18.62 Y-13.86 Z0.14 F3600.0
M103
G1 X19.08 Y-13.72 Z0.14 F3600.0
M101
G1 X19.08 Y-14.0 Z0.14 F3600.0
G1 X19.55 Y-13.48 Z0.14 F3600.0
G1 X19.55 Y-14.0 Z0.14 F3600.0
G1 X20.01 Y-13.18 Z0.14 F3600.0
G1 X20.01 Y-14.0 Z0.14 F3600.0
M103
G1 X20.48 Y-14.0 Z0.14 F3600.0
M101
G1 X20.48 Y-12.78 Z0.14 F3600.0
G1 X20.94 Y-12.2 Z0.14 F3600.0
G1 X20.94 Y-14.0 Z0.14 F3600.0
M103
G1 X21.41 Y-14.0 Z0.14 F3600.0
M101
G1 X21.41 Y-12.07 Z0.14 F3600.0
M108 R30.0
M102
G1 X21.41 Y-11.17 Z0.14 F3600.0
M108 R6.155
M103
G1 X21.72 Y-13.05 Z0.14 F3600.0
M108 R30.0
M101
G1 X21.88 Y-14.0 Z0.14 F3600.0
M108 R6.155
G1 X21.88 Y14.0 Z0.14 F3600.0
M103
G1 X22.34 Y14.0 Z0.14 F3600.0
M101
G1 X22.34 Y-14.0 Z0.14 F3600.0
M103
G1 X22.81 Y-14.0 Z0.14 F3600.0
M101
G1 X22.81 Y14.0 Z0.14 F3600.0
M103
G1 X23.27 Y14.0 Z0.14 F3600.0
M101
G1 X23.27 Y-14.0 Z0.14 F3600.0
M103
G1 X23.74 Y-14.0 Z0.14 F3600.0
M101
G1 X23.74 Y14.0 Z0.14 F3600.0
M103
G1 X24.2 Y14.0 Z0.14 F3600.0
M101
G1 X24.2 Y-14.0 Z0.14 F3600.0
M103
G1 X24.67 Y-14.0 Z0.14 F3600.0
M101
G1 X24.67 Y14.0 Z0.14 F3600.0
M103
G1 X25.13 Y14.0 Z0.14 F3600.0
M101
G1 X25.13 Y-14.0 Z0.14 F3600.0
M103
G1 X25.6 Y-14.0 Z0.14 F3600.0
M101
G1 X25.6 Y14.0 Z0.14 F3600.0
M103
G1 X26.06 Y14.0 Z0.14 F3600.0
M101
G1 X26.06 Y-14.0 Z0.14 F3600.0
M103
G1 X26.53 Y-14.0 Z0.14 F3600.0
M101
G1 X26.53 Y14.0 Z0.14 F3600.0
M103
G1 X26.99 Y14.0 Z0.14 F3600.0
M101
G1 X26.99 Y-14.0 Z0.14 F3600.0
M103
G1 X27.46 Y-14.0 Z0.14 F3600.0
M101
G1 X27.46 Y14.0 Z0.14 F3600.0
M103
G1 X27.93 Y14.0 Z0.14 F3600.0
M101
G1 X27.93 Y-14.0 Z0.14 F3600.0
M103
G1 X28.39 Y-14.0 Z0.14 F3600.0
M101
G1 X28.39 Y14.0 Z0.14 F3600.0
M103
G1 X28.86 Y14.0 Z0.14 F3600.0
M101
G1 X28.86 Y-14.0 Z0.14 F3600.0
M103
G1 X29.32 Y-14.0 Z0.14 F3600.0
M101
G1 X29.32 Y14.0 Z0.14 F3600.0
M103
G1 X29.79 Y14.0 Z0.14 F3600.0
M101
G1 X29.79 Y-14.0 Z0.14 F3600.0
M103
G1 X30.25 Y-14.0 Z0.14 F3600.0
M101
G1 X30.25 Y14.0 Z0.14 F3600.0
M103
G1 X30.72 Y14.0 Z0.14 F3600.0
M101
G1 X30.72 Y-14.0 Z0.14 F3600.0
M103
G1 X31.18 Y-14.0 Z0.14 F3600.0
M101
G1 X31.18 Y14.0 Z0.14 F3600.0
M103
G1 X31.65 Y14.0 Z0.14 F3600.0
M101
G1 X31.65 Y-14.0 Z0.14 F3600.0
M103
G1 X32.11 Y-14.0 Z0.14 F3600.0
M101
G1 X32.11 Y14.0 Z0.14 F3600.0
M103
G1 X32.58 Y14.0 Z0.14 F3600.0
M101
G1 X32.58 Y-14.0 Z0.14 F3600.0
M103
G1 X33.05 Y-14.0 Z0.14 F3600.0
M101
G1 X33.05 Y14.0 Z0.14 F3600.0
M103
G1 X33.51 Y14.0 Z0.14 F3600.0
M101
G1 X33.51 Y-14.0 Z0.14 F3600.0
M103
G1 X33.98 Y-14.0 Z0.14 F3600.0
M101
G1 X33.98 Y14.0 Z0.14 F3600.0
M103
G1 X34.44 Y14.0 Z0.14 F3600.0
M101
G1 X34.44 Y-14.0 Z0.14 F3600.0
M103
G1 X34.91 Y-14.0 Z0.14 F3600.0
M101
G1 X34.91 Y14.0 Z0.14 F3600.0
M103
G1 X35.37 Y14.0 Z0.14 F3600.0
M101
G1 X35.37 Y-14.0 Z0.14 F3600.0
M103
G1 X35.84 Y-14.0 Z0.14 F3600.0
M101
G1 X35.84 Y14.0 Z0.14 F3600.0
M103
G1 X36.3 Y14.0 Z0.14 F3600.0
M101
G1 X36.3 Y-14.0 Z0.14 F3600.0
M103
G1 X36.77 Y-14.0 Z0.14 F3600.0
M101
G1 X36.77 Y14.0 Z0.14 F3600.0
M103
G1 X37.23 Y14.0 Z0.14 F3600.0
M101
G1 X37.23 Y-14.0 Z0.14 F3600.0
M103
G1 X37.7 Y-14.0 Z0.14 F3600.0
M101
G1 X37.7 Y13.1 Z0.14 F3600.0
M108 R30.0
M102
G1 X37.7 Y14.0 Z0.14 F3600.0
M108 R6.155
M103
G1 X17.25 Y14.0 Z0.14 F3600.0
M108 R30.0
M101
G1 X16.29 Y14.0 Z0.14 F3600.0
M108 R6.155
G1 X16.29 Y13.77 Z0.14 F3600.0
G1 X15.82 Y13.57 Z0.14 F3600.0
G1 X15.82 Y14.0 Z0.14 F3600.0
G1 X15.36 Y13.32 Z0.14 F3600.0
G1 X15.36 Y14.0 Z0.14 F3600.0
M103
G1 X14.89 Y14.0 Z0.14 F3600.0
M101
G1 X14.89 Y12.93 Z0.14 F3600.0
G1 X14.43 Y12.42 Z0.14 F3600.0
G1 X14.43 Y13.1 Z0.14 F3600.0
M108 R30.0
M102
G1 X14.43 Y14.0 Z0.14 F3600.0
M108 R6.155
M103
G1 X13.99 Y14.0 Z0.14 F3600.0
M108 R30.0
M101
G1 X13.03 Y14.0 Z0.14 F3600.0
M108 R6.155
G1 X13.03 Y-14.0 Z0.14 F3600.0
M103
G1 X12.57 Y-14.0 Z0.14 F3600.0
M101
G1 X12.57 Y14.0 Z0.14 F3600.0
M103
G1 X12.1 Y14.0 Z0.14 F3600.0
M101
G1 X12.1 Y-14.0 Z0.14 F3600.0
M103
G1 X11.64 Y-14.0 Z0.14 F3600.0
M101
G1 X11.64 Y14.0 Z0.14 F3600.0
M103
G1 X11.17 Y14.0 Z0.14 F3600.0
M101
G1 X11.17 Y-14.0 Z0.14 F3600.0
M103
G1 X10.71 Y-14.0 Z0.14 F3600.0
M101
G1 X10.71 Y14.0 Z0.14 F3600.0
M103
G1 X10.24 Y14.0 Z0.14 F3600.0
M101
G1 X10.24 Y-14.0 Z0.14 F3600.0
M103
G1 X9.77 Y-14.0 Z0.14 F3600.0
M101
G1 X9.77 Y14.0 Z0.14 F3600.0
M103
G1 X9.31 Y14.0 Z0.14 F3600.0
M101
G1 X9.31 Y-14.0 Z0.14 F3600.0
M103
G1 X8.84 Y-14.0 Z0.14 F3600.0
M101
G1 X8.84 Y14.0 Z0.14 F3600.0
M103
G1 X8.38 Y14.0 Z0.14 F3600.0
M101
G1 X8.38 Y-14.0 Z0.14 F3600.0
M103
G1 X7.91 Y-14.0 Z0.14 F3600.0
M101
G1 X7.91 Y14.0 Z0.14 F3600.0
M103
G1 X7.45 Y14.0 Z0.14 F3600.0
M101
G1 X7.45 Y-14.0 Z0.14 F3600.0
M103
G1 X6.98 Y-14.0 Z0.14 F3600.0
M101
G1 X6.98 Y14.0 Z0.14 F3600.0
M103
G1 X6.52 Y14.0 Z0.14 F3600.0
M101
G1 X6.52 Y-14.0 Z0.14 F3600.0
M103
G1 X6.05 Y-14.0 Z0.14 F3600.0
M101
G1 X6.05 Y14.0 Z0.14 F3600.0
M103
G1 X5.58 Y14.0 Z0.14 F3600.0
M101
G1 X5.58 Y-14.0 Z0.14 F3600.0
M103
G1 X5.12 Y-14.0 Z0.14 F3600.0
M101
G1 X5.12 Y14.0 Z0.14 F3600.0
M103
G1 X4.65 Y14.0 Z0.14 F3600.0
M101
G1 X4.65 Y-14.0 Z0.14 F3600.0
M103
G1 X4.19 Y-14.0 Z0.14 F3600.0
M101
G1 X4.19 Y14.0 Z0.14 F3600.0
M103
G1 X3.72 Y14.0 Z0.14 F3600.0
M101
G1 X3.72 Y-14.0 Z0.14 F3600.0
M103
G1 X3.26 Y-14.0 Z0.14 F3600.0
M101
G1 X3.26 Y14.0 Z0.14 F3600.0
M103
G1 X2.79 Y14.0 Z0.14 F3600.0
M101
G1 X2.79 Y-14.0 Z0.14 F3600.0
M103
G1 X2.33 Y-14.0 Z0.14 F3600.0
M101
G1 X2.33 Y14.0 Z0.14 F3600.0
M103
G1 X1.86 Y14.0 Z0.14 F3600.0
M101
G1 X1.86 Y-14.0 Z0.14 F3600.0
M103
G1 X1.4 Y-14.0 Z0.14 F3600.0
M101
G1 X1.4 Y14.0 Z0.14 F3600.0
M103
G1 X0.93 Y14.0 Z0.14 F3600.0
M101
G1 X0.93 Y-14.0 Z0.14 F3600.0
M103
G1 X0.47 Y-14.0 Z0.14 F3600.0
M101
G1 X0.47 Y14.0 Z0.14 F3600.0
M103
G1 X0.0 Y14.0 Z0.14 F3600.0
M101
G1 X-0.0 Y-14.0 Z0.14 F3600.0
M103
G1 X-0.47 Y-14.0 Z0.14 F3600.0
M101
G1 X-0.47 Y14.0 Z0.14 F3600.0
M103
G1 X-0.93 Y14.0 Z0.14 F3600.0
M101
G1 X-0.93 Y-14.0 Z0.14 F3600.0
M103
G1 X-1.4 Y-14.0 Z0.14 F3600.0
M101
G1 X-1.4 Y14.0 Z0.14 F3600.0
M103
G1 X-1.86 Y14.0 Z0.14 F3600.0
M101
G1 X-1.86 Y-14.0 Z0.14 F3600.0
M103
G1 X-2.33 Y-14.0 Z0.14 F3600.0
M101
G1 X-2.33 Y14.0 Z0.14 F3600.0
M103
G1 X-2.79 Y14.0 Z0.14 F3600.0
M101
G1 X-2.79 Y-14.0 Z0.14 F3600.0
M103
G1 X-3.26 Y-14.0 Z0.14 F3600.0
M101
G1 X-3.26 Y14.0 Z0.14 F3600.0
M103
G1 X-3.72 Y14.0 Z0.14 F3600.0
M101
G1 X-3.72 Y-14.0 Z0.14 F3600.0
M103
G1 X-4.19 Y-14.0 Z0.14 F3600.0
M101
G1 X-4.19 Y14.0 Z0.14 F3600.0
M103
G1 X-4.65 Y14.0 Z0.14 F3600.0
M101
G1 X-4.65 Y-14.0 Z0.14 F3600.0
M103
G1 X-5.12 Y-14.0 Z0.14 F3600.0
M101
G1 X-5.12 Y14.0 Z0.14 F3600.0
M103
G1 X-5.58 Y14.0 Z0.14 F3600.0
M101
G1 X-5.58 Y-14.0 Z0.14 F3600.0
M103
G1 X-6.05 Y-14.0 Z0.14 F3600.0
M101
G1 X-6.05 Y14.0 Z0.14 F3600.0
M103
G1 X-6.52 Y14.0 Z0.14 F3600.0
M101
G1 X-6.52 Y-14.0 Z0.14 F3600.0
M103
G1 X-6.98 Y-14.0 Z0.14 F3600.0
M101
G1 X-6.98 Y14.0 Z0.14 F3600.0
M103
G1 X-7.45 Y14.0 Z0.14 F3600.0
M101
G1 X-7.45 Y-14.0 Z0.14 F3600.0
M103
G1 X-7.91 Y-14.0 Z0.14 F3600.0
M101
G1 X-7.91 Y14.0 Z0.14 F3600.0
M103
G1 X-8.38 Y14.0 Z0.14 F3600.0
M101
G1 X-8.38 Y-14.0 Z0.14 F3600.0
M103
G1 X-8.84 Y-14.0 Z0.14 F3600.0
M101
G1 X-8.84 Y14.0 Z0.14 F3600.0
M103
G1 X-9.31 Y14.0 Z0.14 F3600.0
M101
G1 X-9.31 Y-14.0 Z0.14 F3600.0
M103
G1 X-9.77 Y-14.0 Z0.14 F3600.0
M101
G1 X-9.77 Y14.0 Z0.14 F3600.0
M103
G1 X-10.24 Y14.0 Z0.14 F3600.0
M101
G1 X-10.24 Y-14.0 Z0.14 F3600.0
M103
G1 X-10.71 Y-14.0 Z0.14 F3600.0
M101
G1 X-10.71 Y14.0 Z0.14 F3600.0
M103
G1 X-11.17 Y14.0 Z0.14 F3600.0
M101
G1 X-11.17 Y-14.0 Z0.14 F3600.0
M103
G1 X-11.64 Y-14.0 Z0.14 F3600.0
M101
G1 X-11.64 Y14.0 Z0.14 F3600.0
M103
G1 X-12.1 Y14.0 Z0.14 F3600.0
M101
G1 X-12.1 Y-14.0 Z0.14 F3600.0
M103
G1 X-12.57 Y-14.0 Z0.14 F3600.0
M101
G1 X-12.57 Y14.0 Z0.14 F3600.0
M103
G1 X-13.03 Y14.0 Z0.14 F3600.0
M101
G1 X-13.03 Y-14.0 Z0.14 F3600.0
M103
G1 X-13.5 Y-14.0 Z0.14 F3600.0
M101
G1 X-13.5 Y14.0 Z0.14 F3600.0
M103
G1 X-13.96 Y14.0 Z0.14 F3600.0
M101
G1 X-13.96 Y11.65 Z0.14 F3600.0
M103
G1 X-14.43 Y12.42 Z0.14 F3600.0
M101
G1 X-14.43 Y14.0 Z0.14 F3600.0
M103
G1 X-14.89 Y14.0 Z0.14 F3600.0
M101
G1 X-14.89 Y12.93 Z0.14 F3600.0
G1 X-15.36 Y13.32 Z0.14 F3600.0
G1 X-15.36 Y14.0 Z0.14 F3600.0
G1 X-15.82 Y13.57 Z0.14 F3600.0
G1 X-15.82 Y14.0 Z0.14 F3600.0
G1 X-16.29 Y13.77 Z0.14 F3600.0
G1 X-16.29 Y14.0 Z0.14 F3600.0
M103
G1 X-16.75 Y14.0 Z0.14 F3600.0
M101
G1 X-16.75 Y13.91 Z0.14 F3600.0
M103
G1 X-17.22 Y13.97 Z0.14 F3600.0
M101
G1 X-17.22 Y14.0 Z0.14 F3600.0
M103
G1 X-18.15 Y14.0 Z0.14 F3600.0
M101
G1 X-18.15 Y13.95 Z0.14 F3600.0
M103
G1 X-18.62 Y14.0 Z0.14 F3600.0
M101
G1 X-18.62 Y13.86 Z0.14 F3600.0
M103
G1 X-19.08 Y13.72 Z0.14 F3600.0
M101
G1 X-19.08 Y14.0 Z0.14 F3600.0
G1 X-19.55 Y13.48 Z0.14 F3600.0
G1 X-19.55 Y14.0 Z0.14 F3600.0
G1 X-20.01 Y13.18 Z0.14 F3600.0
G1 X-20.01 Y14.0 Z0.14 F3600.0
M103
G1 X-20.48 Y14.0 Z0.14 F3600.0
M101
G1 X-20.48 Y12.78 Z0.14 F3600.0
G1 X-20.94 Y12.2 Z0.14 F3600.0
G1 X-20.94 Y14.0 Z0.14 F3600.0
M103
G1 X-21.41 Y14.0 Z0.14 F3600.0
M101
G1 X-21.41 Y12.07 Z0.14 F3600.0
M108 R30.0
M102
G1 X-21.41 Y11.17 Z0.14 F3600.0
M108 R6.155
M103
G1 X-21.41 Y9.79 Z0.14 F3600.0
M108 R30.0
M101
G1 X-21.41 Y8.83 Z0.14 F3600.0
M108 R6.155
G1 X-21.41 Y-7.93 Z0.14 F3600.0
M108 R30.0
M102
G1 X-21.41 Y-8.83 Z0.14 F3600.0
M108 R6.155
M103
G1 X-21.34 Y-8.68 Z0.14 F3600.0
M108 R30.0
M101
G1 X-20.94 Y-7.8 Z0.14 F3600.0
M108 R6.155
G1 X-20.94 Y7.8 Z0.14 F3600.0
G1 X-20.48 Y7.22 Z0.14 F3600.0
G1 X-20.48 Y-7.22 Z0.14 F3600.0
G1 X-20.01 Y-6.82 Z0.14 F3600.0
G1 X-20.01 Y6.82 Z0.14 F3600.0
M103
G1 X-19.55 Y6.52 Z0.14 F3600.0
M101
G1 X-19.55 Y-6.52 Z0.14 F3600.0
M103
G1 X-19.08 Y-6.28 Z0.14 F3600.0
M101
G1 X-19.08 Y6.28 Z0.14 F3600.0
M103
G1 X-18.62 Y6.14 Z0.14 F3600.0
M101
G1 X-18.62 Y-6.14 Z0.14 F3600.0
M103
G1 X-18.15 Y-6.05 Z0.14 F3600.0
M101
G1 X-18.15 Y6.05 Z0.14 F3600.0
G1 X-17.69 Y6.0 Z0.14 F3600.0
G1 X-17.69 Y-6.0 Z0.14 F3600.0
G1 X-17.22 Y-6.03 Z0.14 F3600.0
G1 X-17.22 Y6.03 Z0.14 F3600.0
M103
G1 X-16.75 Y6.09 Z0.14 F3600.0
M101
G1 X-16.75 Y-6.09 Z0.14 F3600.0
M103
G1 X-16.29 Y-6.23 Z0.14 F3600.0
M101
G1 X-16.29 Y6.23 Z0.14 F3600.0
G1 X-15.82 Y6.43 Z0.14 F3600.0
G1 X-15.82 Y-6.43 Z0.14 F3600.0
G1 X-15.36 Y-6.68 Z0.14 F3600.0
G1 X-15.36 Y6.68 Z0.14 F3600.0
G1 X-14.89 Y7.07 Z0.14 F3600.0
G1 X-14.89 Y-7.07 Z0.14 F3600.0
G1 X-14.43 Y-7.58 Z0.14 F3600.0
G1 X-14.43 Y7.58 Z0.14 F3600.0
M103
G1 X-13.96 Y8.35 Z0.14 F3600.0
M101
G1 X-13.96 Y-7.45 Z0.14 F3600.0
M108 R30.0
M102
G1 X-13.96 Y-8.35 Z0.14 F3600.0
M108 R6.155
M103
G1 X-13.96 Y-10.69 Z0.14 F3600.0
M108 R30.0
M101
G1 X-13.96 Y-11.65 Z0.14 F3600.0
M108 R6.155
G1 X-13.96 Y-14.0 Z0.14 F3600.0
M103
G1 X-14.43 Y-14.0 Z0.14 F3600.0
M101
G1 X-14.43 Y-12.42 Z0.14 F3600.0
G1 X-14.89 Y-12.93 Z0.14 F3600.0
G1 X-14.89 Y-14.0 Z0.14 F3600.0
G1 X-15.36 Y-13.32 Z0.14 F3600.0
G1 X-15.36 Y-14.0 Z0.14 F3600.0
G1 X-15.82 Y-13.57 Z0.14 F3600.0
G1 X-15.82 Y-14.0 Z0.14 F3600.0
G1 X-16.29 Y-13.77 Z0.14 F3600.0
G1 X-16.29 Y-14.0 Z0.14 F3600.0
M103
G1 X-16.75 Y-14.0 Z0.14 F3600.0
M101
G1 X-16.75 Y-13.91 Z0.14 F3600.0
M103
G1 X-17.22 Y-13.97 Z0.14 F3600.0
M101
G1 X-17.22 Y-14.0 Z0.14 F3600.0
M103
G1 X-18.15 Y-14.0 Z0.14 F3600.0
M101
G1 X-18.15 Y-13.95 Z0.14 F3600.0
M103
G1 X-18.62 Y-13.86 Z0.14 F3600.0
M101
G1 X-18.62 Y-14.0 Z0.14 F3600.0
G1 X-19.08 Y-13.72 Z0.14 F3600.0
G1 X-19.08 Y-14.0 Z0.14 F3600.0
G1 X-19.55 Y-13.48 Z0.14 F3600.0
G1 X-19.55 Y-14.0 Z0.14 F3600.0
G1 X-20.01 Y-13.18 Z0.14 F3600.0
G1 X-20.01 Y-14.0 Z0.14 F3600.0
M103
G1 X-20.48 Y-14.0 Z0.14 F3600.0
M101
G1 X-20.48 Y-12.78 Z0.14 F3600.0
G1 X-20.94 Y-12.2 Z0.14 F3600.0
G1 X-20.94 Y-14.0 Z0.14 F3600.0
M103
G1 X-21.41 Y-14.0 Z0.14 F3600.0
M101
G1 X-21.41 Y-12.07 Z0.14 F3600.0
M108 R30.0
M102
G1 X-21.41 Y-11.17 Z0.14 F3600.0
M108 R6.155
M103
G1 X-21.72 Y-13.05 Z0.14 F3600.0
M108 R30.0
M101
G1 X-21.88 Y-14.0 Z0.14 F3600.0
M108 R6.155
G1 X-21.88 Y14.0 Z0.14 F3600.0
M103
G1 X-22.34 Y14.0 Z0.14 F3600.0
M101
G1 X-22.34 Y-14.0 Z0.14 F3600.0
M103
G1 X-22.81 Y-14.0 Z0.14 F3600.0
M101
G1 X-22.81 Y14.0 Z0.14 F3600.0
M103
G1 X-23.27 Y14.0 Z0.14 F3600.0
M101
G1 X-23.27 Y-14.0 Z0.14 F3600.0
M103
G1 X-23.74 Y-14.0 Z0.14 F3600.0
M101
G1 X-23.74 Y14.0 Z0.14 F3600.0
M103
G1 X-24.2 Y14.0 Z0.14 F3600.0
M101
G1 X-24.2 Y-14.0 Z0.14 F3600.0
M103
G1 X-24.67 Y-14.0 Z0.14 F3600.0
M101
G1 X-24.67 Y14.0 Z0.14 F3600.0
M103
G1 X-25.13 Y14.0 Z0.14 F3600.0
M101
G1 X-25.13 Y-14.0 Z0.14 F3600.0
M103
G1 X-25.6 Y-14.0 Z0.14 F3600.0
M101
G1 X-25.6 Y14.0 Z0.14 F3600.0
M103
G1 X-26.06 Y14.0 Z0.14 F3600.0
M101
G1 X-26.06 Y-14.0 Z0.14 F3600.0
M103
G1 X-26.53 Y-14.0 Z0.14 F3600.0
M101
G1 X-26.53 Y14.0 Z0.14 F3600.0
M103
G1 X-26.99 Y14.0 Z0.14 F3600.0
M101
G1 X-26.99 Y-14.0 Z0.14 F3600.0
M103
G1 X-27.46 Y-14.0 Z0.14 F3600.0
M101
G1 X-27.46 Y14.0 Z0.14 F3600.0
M103
G1 X-27.93 Y14.0 Z0.14 F3600.0
M101
G1 X-27.93 Y-14.0 Z0.14 F3600.0
M103
G1 X-28.39 Y-14.0 Z0.14 F3600.0
M101
G1 X-28.39 Y14.0 Z0.14 F3600.0
M103
G1 X-28.86 Y14.0 Z0.14 F3600.0
M101
G1 X-28.86 Y-14.0 Z0.14 F3600.0
M103
G1 X-29.32 Y-14.0 Z0.14 F3600.0
M101
G1 X-29.32 Y14.0 Z0.14 F3600.0
M103
G1 X-29.79 Y14.0 Z0.14 F3600.0
M101
G1 X-29.79 Y-14.0 Z0.14 F3600.0
M103
G1 X-30.25 Y-14.0 Z0.14 F3600.0
M101
G1 X-30.25 Y14.0 Z0.14 F3600.0
M103
G1 X-30.72 Y14.0 Z0.14 F3600.0
M101
G1 X-30.72 Y-14.0 Z0.14 F3600.0
M103
G1 X-31.18 Y-14.0 Z0.14 F3600.0
M101
G1 X-31.18 Y14.0 Z0.14 F3600.0
M103
G1 X-31.65 Y14.0 Z0.14 F3600.0
M101
G1 X-31.65 Y-14.0 Z0.14 F3600.0
M103
G1 X-32.11 Y-14.0 Z0.14 F3600.0
M101
G1 X-32.11 Y14.0 Z0.14 F3600.0
M103
G1 X-32.58 Y14.0 Z0.14 F3600.0
M101
G1 X-32.58 Y-14.0 Z0.14 F3600.0
M103
G1 X-33.05 Y-14.0 Z0.14 F3600.0
M101
G1 X-33.05 Y14.0 Z0.14 F3600.0
M103
G1 X-33.51 Y14.0 Z0.14 F3600.0
M101
G1 X-33.51 Y-14.0 Z0.14 F3600.0
M103
G1 X-33.98 Y-14.0 Z0.14 F3600.0
M101
G1 X-33.98 Y14.0 Z0.14 F3600.0
M103
G1 X-34.44 Y14.0 Z0.14 F3600.0
M101
G1 X-34.44 Y-14.0 Z0.14 F3600.0
M103
G1 X-34.91 Y-14.0 Z0.14 F3600.0
M101
G1 X-34.91 Y14.0 Z0.14 F3600.0
M103
G1 X-35.37 Y14.0 Z0.14 F3600.0
M101
G1 X-35.37 Y-14.0 Z0.14 F3600.0
M103
G1 X-35.84 Y-14.0 Z0.14 F3600.0
M101
G1 X-35.84 Y14.0 Z0.14 F3600.0
M103
G1 X-36.3 Y14.0 Z0.14 F3600.0
M101
G1 X-36.3 Y-14.0 Z0.14 F3600.0
M103
G1 X-36.77 Y-14.0 Z0.14 F3600.0
M101
G1 X-36.77 Y14.0 Z0.14 F3600.0
M103
G1 X-37.23 Y14.0 Z0.14 F3600.0
M101
G1 X-37.23 Y-14.0 Z0.14 F3600.0
M103
G1 X-37.7 Y-14.0 Z0.14 F3600.0
M101
G1 X-37.7 Y14.0 Z0.14 F3600.0
M103
(</surroundingLoop>)
(</layer>)
(<layer> 0.405 )
(<surroundingLoop>)
(<boundaryPerimeter>)
(<boundaryPoint> X38.75 Y15.0 Z0.405 </boundaryPoint>)
(<boundaryPoint> X-38.75 Y15.0 Z0.405 </boundaryPoint>)
(<boundaryPoint> X-38.75 Y-15.0 Z0.405 </boundaryPoint>)
(<boundaryPoint> X38.75 Y-15.0 Z0.405 </boundaryPoint>)
(<perimeter> outer )
M108 R10.26
G1 X-37.52 Y14.77 Z0.41 F6000.0
M101
G1 X-37.8 Y14.86 Z0.41 F6000.0
G1 X-38.52 Y14.99 Z0.41 F6000.0
G1 X-38.52 Y-14.77 Z0.41 F6000.0
G1 X38.52 Y-14.77 Z0.41 F6000.0
G1 X38.52 Y14.77 Z0.41 F6000.0
G1 X-36.02 Y14.77 Z0.41 F6000.0
M108 R30.0
M102
G1 X-37.52 Y14.77 Z0.41 F6000.0
M108 R10.26
M103
(</perimeter>)
(</boundaryPerimeter>)
(<surroundingLoop>)
(<boundaryPerimeter>)
(<boundaryPoint> X-14.6 Y10.0 Z0.405 </boundaryPoint>)
(<boundaryPoint> X-14.658 Y9.415 Z0.405 </boundaryPoint>)
(<boundaryPoint> X-14.828 Y8.852 Z0.405 </boundaryPoint>)
(<boundaryPoint> X-15.106 Y8.333 Z0.405 </boundaryPoint>)
(<boundaryPoint> X-15.479 Y7.879 Z0.405 </boundaryPoint>)
(<boundaryPoint> X-15.933 Y7.506 Z0.405 </boundaryPoint>)
(<boundaryPoint> X-16.452 Y7.228 Z0.405 </boundaryPoint>)
(<boundaryPoint> X-17.015 Y7.058 Z0.405 </boundaryPoint>)
(<boundaryPoint> X-17.6 Y7.0 Z0.405 </boundaryPoint>)
(<boundaryPoint> X-18.185 Y7.058 Z0.405 </boundaryPoint>)
(<boundaryPoint> X-18.748 Y7.228 Z0.405 </boundaryPoint>)
(<boundaryPoint> X-19.267 Y7.506 Z0.405 </boundaryPoint>)
(<boundaryPoint> X-19.721 Y7.879 Z0.405 </boundaryPoint>)
(<boundaryPoint> X-20.094 Y8.333 Z0.405 </boundaryPoint>)
(<boundaryPoint> X-20.372 Y8.852 Z0.405 </boundaryPoint>)
(<boundaryPoint> X-20.542 Y9.415 Z0.405 </boundaryPoint>)
(<boundaryPoint> X-20.6 Y10.0 Z0.405 </boundaryPoint>)
(<boundaryPoint> X-20.542 Y10.585 Z0.405 </boundaryPoint>)
(<boundaryPoint> X-20.372 Y11.148 Z0.405 </boundaryPoint>)
(<boundaryPoint> X-20.094 Y11.667 Z0.405 </boundaryPoint>)
(<boundaryPoint> X-19.721 Y12.121 Z0.405 </boundaryPoint>)
(<boundaryPoint> X-19.267 Y12.494 Z0.405 </boundaryPoint>)
(<boundaryPoint> X-18.748 Y12.772 Z0.405 </boundaryPoint>)
(<boundaryPoint> X-18.185 Y12.942 Z0.405 </boundaryPoint>)
(<boundaryPoint> X-17.6 Y13.0 Z0.405 </boundaryPoint>)
(<boundaryPoint> X-17.015 Y12.942 Z0.405 </boundaryPoint>)
(<boundaryPoint> X-16.452 Y12.772 Z0.405 </boundaryPoint>)
(<boundaryPoint> X-15.933 Y12.494 Z0.405 </boundaryPoint>)
(<boundaryPoint> X-15.479 Y12.121 Z0.405 </boundaryPoint>)
(<boundaryPoint> X-15.106 Y11.667 Z0.405 </boundaryPoint>)
(<boundaryPoint> X-14.828 Y11.148 Z0.405 </boundaryPoint>)
(<boundaryPoint> X-14.658 Y10.585 Z0.405 </boundaryPoint>)
(<perimeter> inner )
G1 X-22.43 Y11.04 Z0.41 F6000.0
M108 R30.0
M101
G1 X-20.88 Y10.65 Z0.41 F6000.0
M108 R10.26
G1 X-20.69 Y11.28 Z0.41 F6000.0
G1 X-20.38 Y11.86 Z0.41 F6000.0
G1 X-19.96 Y12.37 Z0.41 F6000.0
G1 X-19.46 Y12.78 Z0.41 F6000.0
G1 X-18.88 Y13.09 Z0.41 F6000.0
G1 X-18.25 Y13.28 Z0.41 F6000.0
G1 X-17.6 Y13.35 Z0.41 F6000.0
G1 X-16.95 Y13.28 Z0.41 F6000.0
G1 X-16.32 Y13.09 Z0.41 F6000.0
G1 X-15.74 Y12.78 Z0.41 F6000.0
G1 X-15.23 Y12.37 Z0.41 F6000.0
G1 X-14.82 Y11.86 Z0.41 F6000.0
G1 X-14.51 Y11.28 Z0.41 F6000.0
G1 X-14.32 Y10.65 Z0.41 F6000.0
G1 X-14.25 Y10.0 Z0.41 F6000.0
G1 X-14.32 Y9.35 Z0.41 F6000.0
G1 X-14.51 Y8.72 Z0.41 F6000.0
G1 X-14.82 Y8.14 Z0.41 F6000.0
G1 X-15.23 Y7.63 Z0.41 F6000.0
G1 X-15.74 Y7.22 Z0.41 F6000.0
G1 X-16.32 Y6.91 Z0.41 F6000.0
G1 X-16.95 Y6.72 Z0.41 F6000.0
G1 X-17.6 Y6.65 Z0.41 F6000.0
G1 X-18.25 Y6.72 Z0.41 F6000.0
G1 X-18.88 Y6.91 Z0.41 F6000.0
G1 X-19.46 Y7.22 Z0.41 F6000.0
G1 X-19.96 Y7.63 Z0.41 F6000.0
G1 X-20.38 Y8.14 Z0.41 F6000.0
G1 X-20.69 Y8.72 Z0.41 F6000.0
G1 X-20.83 Y9.17 Z0.41 F6000.0
M108 R30.0
M102
G1 X-20.88 Y9.35 Z0.41 F6000.0
G1 X-20.95 Y10.0 Z0.41 F6000.0
G1 X-20.88 Y10.65 Z0.41 F6000.0
M108 R10.26
M103
(</perimeter>)
(</boundaryPerimeter>)
(</surroundingLoop>)
(<surroundingLoop>)
(<boundaryPerimeter>)
(<boundaryPoint> X-14.6 Y-10.0 Z0.405 </boundaryPoint>)
(<boundaryPoint> X-14.658 Y-10.585 Z0.405 </boundaryPoint>)
(<boundaryPoint> X-14.828 Y-11.148 Z0.405 </boundaryPoint>)
(<boundaryPoint> X-15.106 Y-11.667 Z0.405 </boundaryPoint>)
(<boundaryPoint> X-15.479 Y-12.121 Z0.405 </boundaryPoint>)
(<boundaryPoint> X-15.933 Y-12.494 Z0.405 </boundaryPoint>)
(<boundaryPoint> X-16.452 Y-12.772 Z0.405 </boundaryPoint>)
(<boundaryPoint> X-17.015 Y-12.942 Z0.405 </boundaryPoint>)
(<boundaryPoint> X-17.6 Y-13.0 Z0.405 </boundaryPoint>)
(<boundaryPoint> X-18.185 Y-12.942 Z0.405 </boundaryPoint>)
(<boundaryPoint> X-18.748 Y-12.772 Z0.405 </boundaryPoint>)
(<boundaryPoint> X-19.267 Y-12.494 Z0.405 </boundaryPoint>)
(<boundaryPoint> X-19.721 Y-12.121 Z0.405 </boundaryPoint>)
(<boundaryPoint> X-20.094 Y-11.667 Z0.405 </boundaryPoint>)
(<boundaryPoint> X-20.372 Y-11.148 Z0.405 </boundaryPoint>)
(<boundaryPoint> X-20.542 Y-10.585 Z0.405 </boundaryPoint>)
(<boundaryPoint> X-20.6 Y-10.0 Z0.405 </boundaryPoint>)
(<boundaryPoint> X-20.542 Y-9.415 Z0.405 </boundaryPoint>)
(<boundaryPoint> X-20.372 Y-8.852 Z0.405 </boundaryPoint>)
(<boundaryPoint> X-20.094 Y-8.333 Z0.405 </boundaryPoint>)
(<boundaryPoint> X-19.721 Y-7.879 Z0.405 </boundaryPoint>)
(<boundaryPoint> X-19.267 Y-7.506 Z0.405 </boundaryPoint>)
(<boundaryPoint> X-18.748 Y-7.228 Z0.405 </boundaryPoint>)
(<boundaryPoint> X-18.185 Y-7.058 Z0.405 </boundaryPoint>)
(<boundaryPoint> X-17.6 Y-7.0 Z0.405 </boundaryPoint>)
(<boundaryPoint> X-17.015 Y-7.058 Z0.405 </boundaryPoint>)
(<boundaryPoint> X-16.452 Y-7.228 Z0.405 </boundaryPoint>)
(<boundaryPoint> X-15.933 Y-7.506 Z0.405 </boundaryPoint>)
(<boundaryPoint> X-15.479 Y-7.879 Z0.405 </boundaryPoint>)
(<boundaryPoint> X-15.106 Y-8.333 Z0.405 </boundaryPoint>)
(<boundaryPoint> X-14.828 Y-8.852 Z0.405 </boundaryPoint>)
(<boundaryPoint> X-14.658 Y-9.415 Z0.405 </boundaryPoint>)
(<perimeter> inner )
G1 X-18.49 Y-5.14 Z0.41 F6000.0
M108 R30.0
M101
G1 X-18.25 Y-6.72 Z0.41 F6000.0
M108 R10.26
G1 X-17.6 Y-6.65 Z0.41 F6000.0
G1 X-16.95 Y-6.72 Z0.41 F6000.0
G1 X-16.32 Y-6.91 Z0.41 F6000.0
G1 X-15.74 Y-7.22 Z0.41 F6000.0
G1 X-15.23 Y-7.63 Z0.41 F6000.0
G1 X-14.82 Y-8.14 Z0.41 F6000.0
G1 X-14.51 Y-8.72 Z0.41 F6000.0
G1 X-14.32 Y-9.35 Z0.41 F6000.0
G1 X-14.25 Y-10.0 Z0.41 F6000.0
G1 X-14.32 Y-10.65 Z0.41 F6000.0
G1 X-14.51 Y-11.28 Z0.41 F6000.0
G1 X-14.82 Y-11.86 Z0.41 F6000.0
G1 X-15.23 Y-12.37 Z0.41 F6000.0
G1 X-15.74 Y-12.78 Z0.41 F6000.0
G1 X-16.32 Y-13.09 Z0.41 F6000.0
G1 X-16.95 Y-13.28 Z0.41 F6000.0
G1 X-17.6 Y-13.35 Z0.41 F6000.0
G1 X-18.25 Y-13.28 Z0.41 F6000.0
G1 X-18.88 Y-13.09 Z0.41 F6000.0
G1 X-19.46 Y-12.78 Z0.41 F6000.0
G1 X-19.96 Y-12.37 Z0.41 F6000.0
G1 X-20.38 Y-11.86 Z0.41 F6000.0
G1 X-20.69 Y-11.28 Z0.41 F6000.0
G1 X-20.88 Y-10.65 Z0.41 F6000.0
G1 X-20.95 Y-10.0 Z0.41 F6000.0
G1 X-20.88 Y-9.35 Z0.41 F6000.0
G1 X-20.69 Y-8.72 Z0.41 F6000.0
G1 X-20.38 Y-8.14 Z0.41 F6000.0
G1 X-19.96 Y-7.63 Z0.41 F6000.0
G1 X-19.6 Y-7.34 Z0.41 F6000.0
M108 R30.0
M102
G1 X-19.46 Y-7.22 Z0.41 F6000.0
G1 X-18.88 Y-6.91 Z0.41 F6000.0
G1 X-18.25 Y-6.72 Z0.41 F6000.0
M108 R10.26
M103
(</perimeter>)
(</boundaryPerimeter>)
(</surroundingLoop>)
(<surroundingLoop>)
(<boundaryPerimeter>)
(<boundaryPoint> X20.6 Y-10.0 Z0.405 </boundaryPoint>)
(<boundaryPoint> X20.542 Y-10.585 Z0.405 </boundaryPoint>)
(<boundaryPoint> X20.372 Y-11.148 Z0.405 </boundaryPoint>)
(<boundaryPoint> X20.094 Y-11.667 Z0.405 </boundaryPoint>)
(<boundaryPoint> X19.721 Y-12.121 Z0.405 </boundaryPoint>)
(<boundaryPoint> X19.267 Y-12.494 Z0.405 </boundaryPoint>)
(<boundaryPoint> X18.748 Y-12.772 Z0.405 </boundaryPoint>)
(<boundaryPoint> X18.185 Y-12.942 Z0.405 </boundaryPoint>)
(<boundaryPoint> X17.6 Y-13.0 Z0.405 </boundaryPoint>)
(<boundaryPoint> X17.015 Y-12.942 Z0.405 </boundaryPoint>)
(<boundaryPoint> X16.452 Y-12.772 Z0.405 </boundaryPoint>)
(<boundaryPoint> X15.933 Y-12.494 Z0.405 </boundaryPoint>)
(<boundaryPoint> X15.479 Y-12.121 Z0.405 </boundaryPoint>)
(<boundaryPoint> X15.106 Y-11.667 Z0.405 </boundaryPoint>)
(<boundaryPoint> X14.828 Y-11.148 Z0.405 </boundaryPoint>)
(<boundaryPoint> X14.658 Y-10.585 Z0.405 </boundaryPoint>)
(<boundaryPoint> X14.6 Y-10.0 Z0.405 </boundaryPoint>)
(<boundaryPoint> X14.658 Y-9.415 Z0.405 </boundaryPoint>)
(<boundaryPoint> X14.828 Y-8.852 Z0.405 </boundaryPoint>)
(<boundaryPoint> X15.106 Y-8.333 Z0.405 </boundaryPoint>)
(<boundaryPoint> X15.479 Y-7.879 Z0.405 </boundaryPoint>)
(<boundaryPoint> X15.933 Y-7.506 Z0.405 </boundaryPoint>)
(<boundaryPoint> X16.452 Y-7.228 Z0.405 </boundaryPoint>)
(<boundaryPoint> X17.015 Y-7.058 Z0.405 </boundaryPoint>)
(<boundaryPoint> X17.6 Y-7.0 Z0.405 </boundaryPoint>)
(<boundaryPoint> X18.185 Y-7.058 Z0.405 </boundaryPoint>)
(<boundaryPoint> X18.748 Y-7.228 Z0.405 </boundaryPoint>)
(<boundaryPoint> X19.267 Y-7.506 Z0.405 </boundaryPoint>)
(<boundaryPoint> X19.721 Y-7.879 Z0.405 </boundaryPoint>)
(<boundaryPoint> X20.094 Y-8.333 Z0.405 </boundaryPoint>)
(<boundaryPoint> X20.372 Y-8.852 Z0.405 </boundaryPoint>)
(<boundaryPoint> X20.542 Y-9.415 Z0.405 </boundaryPoint>)
(<perimeter> inner )
G1 X12.66 Y-9.84 Z0.41 F6000.0
M108 R30.0
M101
G1 X14.25 Y-10.0 Z0.41 F6000.0
M108 R10.26
G1 X14.32 Y-9.35 Z0.41 F6000.0
G1 X14.51 Y-8.72 Z0.41 F6000.0
G1 X14.82 Y-8.14 Z0.41 F6000.0
G1 X15.23 Y-7.63 Z0.41 F6000.0
G1 X15.74 Y-7.22 Z0.41 F6000.0
G1 X16.32 Y-6.91 Z0.41 F6000.0
G1 X16.95 Y-6.72 Z0.41 F6000.0
G1 X17.6 Y-6.65 Z0.41 F6000.0
G1 X18.25 Y-6.72 Z0.41 F6000.0
G1 X18.88 Y-6.91 Z0.41 F6000.0
G1 X19.46 Y-7.22 Z0.41 F6000.0
G1 X19.96 Y-7.63 Z0.41 F6000.0
G1 X20.38 Y-8.14 Z0.41 F6000.0
G1 X20.69 Y-8.72 Z0.41 F6000.0
G1 X20.88 Y-9.35 Z0.41 F6000.0
G1 X20.95 Y-10.0 Z0.41 F6000.0
G1 X20.88 Y-10.65 Z0.41 F6000.0
G1 X20.69 Y-11.28 Z0.41 F6000.0
G1 X20.38 Y-11.86 Z0.41 F6000.0
G1 X19.96 Y-12.37 Z0.41 F6000.0
G1 X19.46 Y-12.78 Z0.41 F6000.0
G1 X18.88 Y-13.09 Z0.41 F6000.0
G1 X18.25 Y-13.28 Z0.41 F6000.0
G1 X17.6 Y-13.35 Z0.41 F6000.0
G1 X16.95 Y-13.28 Z0.41 F6000.0
G1 X16.32 Y-13.09 Z0.41 F6000.0
G1 X15.74 Y-12.78 Z0.41 F6000.0
G1 X15.23 Y-12.37 Z0.41 F6000.0
G1 X14.82 Y-11.86 Z0.41 F6000.0
G1 X14.6 Y-11.45 Z0.41 F6000.0
M108 R30.0
M102
G1 X14.51 Y-11.28 Z0.41 F6000.0
G1 X14.32 Y-10.65 Z0.41 F6000.0
G1 X14.25 Y-10.0 Z0.41 F6000.0
M108 R10.26
M103
(</perimeter>)
(</boundaryPerimeter>)
(</surroundingLoop>)
(<surroundingLoop>)
(<boundaryPerimeter>)
(<boundaryPoint> X20.372 Y8.852 Z0.405 </boundaryPoint>)
(<boundaryPoint> X20.094 Y8.333 Z0.405 </boundaryPoint>)
(<boundaryPoint> X19.721 Y7.879 Z0.405 </boundaryPoint>)
(<boundaryPoint> X19.267 Y7.506 Z0.405 </boundaryPoint>)
(<boundaryPoint> X18.748 Y7.228 Z0.405 </boundaryPoint>)
(<boundaryPoint> X18.185 Y7.058 Z0.405 </boundaryPoint>)
(<boundaryPoint> X17.6 Y7.0 Z0.405 </boundaryPoint>)
(<boundaryPoint> X17.015 Y7.058 Z0.405 </boundaryPoint>)
(<boundaryPoint> X16.452 Y7.228 Z0.405 </boundaryPoint>)
(<boundaryPoint> X15.933 Y7.506 Z0.405 </boundaryPoint>)
(<boundaryPoint> X15.479 Y7.879 Z0.405 </boundaryPoint>)
(<boundaryPoint> X15.106 Y8.333 Z0.405 </boundaryPoint>)
(<boundaryPoint> X14.828 Y8.852 Z0.405 </boundaryPoint>)
(<boundaryPoint> X14.658 Y9.415 Z0.405 </boundaryPoint>)
(<boundaryPoint> X14.6 Y10.0 Z0.405 </boundaryPoint>)
(<boundaryPoint> X14.658 Y10.585 Z0.405 </boundaryPoint>)
(<boundaryPoint> X14.828 Y11.148 Z0.405 </boundaryPoint>)
(<boundaryPoint> X15.106 Y11.667 Z0.405 </boundaryPoint>)
(<boundaryPoint> X15.479 Y12.121 Z0.405 </boundaryPoint>)
(<boundaryPoint> X15.933 Y12.494 Z0.405 </boundaryPoint>)
(<boundaryPoint> X16.452 Y12.772 Z0.405 </boundaryPoint>)
(<boundaryPoint> X17.015 Y12.942 Z0.405 </boundaryPoint>)
(<boundaryPoint> X17.6 Y13.0 Z0.405 </boundaryPoint>)
(<boundaryPoint> X18.185 Y12.942 Z0.405 </boundaryPoint>)
(<boundaryPoint> X18.748 Y12.772 Z0.405 </boundaryPoint>)
(<boundaryPoint> X19.267 Y12.494 Z0.405 </boundaryPoint>)
(<boundaryPoint> X19.721 Y12.121 Z0.405 </boundaryPoint>)
(<boundaryPoint> X20.094 Y11.667 Z0.405 </boundaryPoint>)
(<boundaryPoint> X20.372 Y11.148 Z0.405 </boundaryPoint>)
(<boundaryPoint> X20.542 Y10.585 Z0.405 </boundaryPoint>)
(<boundaryPoint> X20.6 Y10.0 Z0.405 </boundaryPoint>)
(<boundaryPoint> X20.542 Y9.415 Z0.405 </boundaryPoint>)
(<perimeter> inner )
G1 X16.69 Y5.14 Z0.41 F6000.0
M108 R30.0
M101
G1 X16.95 Y6.72 Z0.41 F6000.0
M108 R10.26
G1 X16.32 Y6.91 Z0.41 F6000.0
G1 X15.74 Y7.22 Z0.41 F6000.0
G1 X15.23 Y7.63 Z0.41 F6000.0
G1 X14.82 Y8.14 Z0.41 F6000.0
G1 X14.51 Y8.72 Z0.41 F6000.0
G1 X14.32 Y9.35 Z0.41 F6000.0
G1 X14.25 Y10.0 Z0.41 F6000.0
G1 X14.32 Y10.65 Z0.41 F6000.0
G1 X14.51 Y11.28 Z0.41 F6000.0
G1 X14.82 Y11.86 Z0.41 F6000.0
G1 X15.23 Y12.37 Z0.41 F6000.0
G1 X15.74 Y12.78 Z0.41 F6000.0
G1 X16.32 Y13.09 Z0.41 F6000.0
G1 X16.95 Y13.28 Z0.41 F6000.0
G1 X17.6 Y13.35 Z0.41 F6000.0
G1 X18.25 Y13.28 Z0.41 F6000.0
G1 X18.88 Y13.09 Z0.41 F6000.0
G1 X19.46 Y12.78 Z0.41 F6000.0
G1 X19.96 Y12.37 Z0.41 F6000.0
G1 X20.38 Y11.86 Z0.41 F6000.0
G1 X20.69 Y11.28 Z0.41 F6000.0
G1 X20.88 Y10.65 Z0.41 F6000.0
G1 X20.95 Y10.0 Z0.41 F6000.0
G1 X20.88 Y9.35 Z0.41 F6000.0
G1 X20.69 Y8.72 Z0.41 F6000.0
G1 X20.38 Y8.14 Z0.41 F6000.0
G1 X19.96 Y7.63 Z0.41 F6000.0
G1 X19.46 Y7.22 Z0.41 F6000.0
G1 X18.88 Y6.91 Z0.41 F6000.0
G1 X18.25 Y6.72 Z0.41 F6000.0
G1 X17.6 Y6.65 Z0.41 F6000.0
G1 X16.95 Y6.72 Z0.41 F6000.0
M103
(</perimeter>)
(</boundaryPerimeter>)
(</surroundingLoop>)
(<loop> inner )
G1 X16.87 Y6.33 Z0.41 F6000.0
M101
G1 X16.17 Y6.54 Z0.41 F6000.0
G1 X15.52 Y6.89 Z0.41 F6000.0
G1 X14.95 Y7.35 Z0.41 F6000.0
G1 X14.49 Y7.92 Z0.41 F6000.0
G1 X14.14 Y8.57 Z0.41 F6000.0
G1 X13.93 Y9.27 Z0.41 F6000.0
G1 X13.86 Y10.0 Z0.41 F6000.0
G1 X13.93 Y10.73 Z0.41 F6000.0
G1 X14.14 Y11.43 Z0.41 F6000.0
G1 X14.49 Y12.08 Z0.41 F6000.0
G1 X14.95 Y12.65 Z0.41 F6000.0
G1 X15.52 Y13.11 Z0.41 F6000.0
G1 X16.17 Y13.46 Z0.41 F6000.0
G1 X16.87 Y13.67 Z0.41 F6000.0
G1 X17.6 Y13.74 Z0.41 F6000.0
G1 X18.33 Y13.67 Z0.41 F6000.0
G1 X19.03 Y13.46 Z0.41 F6000.0
G1 X19.68 Y13.11 Z0.41 F6000.0
G1 X20.25 Y12.65 Z0.41 F6000.0
G1 X20.71 Y12.08 Z0.41 F6000.0
G1 X21.06 Y11.43 Z0.41 F6000.0
G1 X21.27 Y10.73 Z0.41 F6000.0
G1 X21.34 Y10.0 Z0.41 F6000.0
G1 X21.27 Y9.27 Z0.41 F6000.0
G1 X21.06 Y8.57 Z0.41 F6000.0
G1 X20.71 Y7.92 Z0.41 F6000.0
G1 X20.25 Y7.35 Z0.41 F6000.0
G1 X19.68 Y6.89 Z0.41 F6000.0
G1 X19.03 Y6.54 Z0.41 F6000.0
G1 X18.36 Y6.33 Z0.41 F6000.0
M108 R30.0
M102
G1 X18.33 Y6.33 Z0.41 F6000.0
G1 X17.6 Y6.25 Z0.41 F6000.0
G1 X16.87 Y6.33 Z0.41 F6000.0
M108 R10.26
M103
(</loop>)
(<loop> inner )
G1 X-12.33 Y9.12 Z0.41 F6000.0
M108 R30.0
M101
G1 X-13.93 Y9.27 Z0.41 F6000.0
M108 R10.26
G1 X-14.14 Y8.57 Z0.41 F6000.0
G1 X-14.49 Y7.92 Z0.41 F6000.0
G1 X-14.95 Y7.35 Z0.41 F6000.0
G1 X-15.52 Y6.89 Z0.41 F6000.0
G1 X-16.17 Y6.54 Z0.41 F6000.0
G1 X-16.87 Y6.33 Z0.41 F6000.0
G1 X-17.6 Y6.25 Z0.41 F6000.0
G1 X-18.33 Y6.33 Z0.41 F6000.0
G1 X-19.03 Y6.54 Z0.41 F6000.0
G1 X-19.68 Y6.89 Z0.41 F6000.0
G1 X-20.25 Y7.35 Z0.41 F6000.0
G1 X-20.71 Y7.92 Z0.41 F6000.0
G1 X-21.06 Y8.57 Z0.41 F6000.0
G1 X-21.27 Y9.27 Z0.41 F6000.0
G1 X-21.34 Y10.0 Z0.41 F6000.0
G1 X-21.27 Y10.73 Z0.41 F6000.0
G1 X-21.06 Y11.43 Z0.41 F6000.0
G1 X-20.71 Y12.08 Z0.41 F6000.0
G1 X-20.25 Y12.65 Z0.41 F6000.0
G1 X-19.68 Y13.11 Z0.41 F6000.0
G1 X-19.03 Y13.46 Z0.41 F6000.0
G1 X-18.33 Y13.67 Z0.41 F6000.0
G1 X-17.6 Y13.74 Z0.41 F6000.0
G1 X-16.87 Y13.67 Z0.41 F6000.0
G1 X-16.17 Y13.46 Z0.41 F6000.0
G1 X-15.52 Y13.11 Z0.41 F6000.0
G1 X-14.95 Y12.65 Z0.41 F6000.0
G1 X-14.49 Y12.08 Z0.41 F6000.0
G1 X-14.14 Y11.43 Z0.41 F6000.0
G1 X-13.94 Y10.76 Z0.41 F6000.0
M108 R30.0
M102
G1 X-13.93 Y10.73 Z0.41 F6000.0
G1 X-13.86 Y10.0 Z0.41 F6000.0
G1 X-13.93 Y9.27 Z0.41 F6000.0
M108 R10.26
M103
(</loop>)
(<loop> inner )
G1 X13.12 Y-7.09 Z0.41 F6000.0
M108 R30.0
M101
G1 X14.49 Y-7.92 Z0.41 F6000.0
M108 R10.26
G1 X14.95 Y-7.35 Z0.41 F6000.0
G1 X15.52 Y-6.89 Z0.41 F6000.0
G1 X16.17 Y-6.54 Z0.41 F6000.0
G1 X16.87 Y-6.33 Z0.41 F6000.0
G1 X17.6 Y-6.25 Z0.41 F6000.0
G1 X18.33 Y-6.33 Z0.41 F6000.0
G1 X19.03 Y-6.54 Z0.41 F6000.0
G1 X19.68 Y-6.89 Z0.41 F6000.0
G1 X20.25 Y-7.35 Z0.41 F6000.0
G1 X20.71 Y-7.92 Z0.41 F6000.0
G1 X21.06 Y-8.57 Z0.41 F6000.0
G1 X21.27 Y-9.27 Z0.41 F6000.0
G1 X21.34 Y-10.0 Z0.41 F6000.0
G1 X21.27 Y-10.73 Z0.41 F6000.0
G1 X21.06 Y-11.43 Z0.41 F6000.0
G1 X20.71 Y-12.08 Z0.41 F6000.0
G1 X20.25 Y-12.65 Z0.41 F6000.0
G1 X19.68 Y-13.11 Z0.41 F6000.0
G1 X19.03 Y-13.46 Z0.41 F6000.0
G1 X18.33 Y-13.67 Z0.41 F6000.0
G1 X17.6 Y-13.74 Z0.41 F6000.0
G1 X16.87 Y-13.67 Z0.41 F6000.0
G1 X16.17 Y-13.46 Z0.41 F6000.0
G1 X15.52 Y-13.11 Z0.41 F6000.0
G1 X14.95 Y-12.65 Z0.41 F6000.0
G1 X14.49 Y-12.08 Z0.41 F6000.0
G1 X14.14 Y-11.43 Z0.41 F6000.0
G1 X13.93 Y-10.73 Z0.41 F6000.0
G1 X13.86 Y-10.0 Z0.41 F6000.0
G1 X13.92 Y-9.3 Z0.41 F6000.0
M108 R30.0
M102
G1 X13.93 Y-9.27 Z0.41 F6000.0
G1 X14.14 Y-8.57 Z0.41 F6000.0
G1 X14.49 Y-7.92 Z0.41 F6000.0
M108 R10.26
M103
(</loop>)
(<loop> inner )
G1 X-12.26 Y-9.88 Z0.41 F6000.0
M108 R30.0
M101
G1 X-13.86 Y-10.0 Z0.41 F6000.0
M108 R10.26
G1 X-13.93 Y-10.73 Z0.41 F6000.0
G1 X-14.14 Y-11.43 Z0.41 F6000.0
G1 X-14.49 Y-12.08 Z0.41 F6000.0
G1 X-14.95 Y-12.65 Z0.41 F6000.0
G1 X-15.52 Y-13.11 Z0.41 F6000.0
G1 X-16.17 Y-13.46 Z0.41 F6000.0
G1 X-16.87 Y-13.67 Z0.41 F6000.0
G1 X-17.6 Y-13.74 Z0.41 F6000.0
G1 X-18.33 Y-13.67 Z0.41 F6000.0
G1 X-19.03 Y-13.46 Z0.41 F6000.0
G1 X-19.68 Y-13.11 Z0.41 F6000.0
G1 X-20.25 Y-12.65 Z0.41 F6000.0
G1 X-20.71 Y-12.08 Z0.41 F6000.0
G1 X-21.06 Y-11.43 Z0.41 F6000.0
G1 X-21.27 Y-10.73 Z0.41 F6000.0
G1 X-21.34 Y-10.0 Z0.41 F6000.0
G1 X-21.27 Y-9.27 Z0.41 F6000.0
G1 X-21.06 Y-8.57 Z0.41 F6000.0
G1 X-20.71 Y-7.92 Z0.41 F6000.0
G1 X-20.25 Y-7.35 Z0.41 F6000.0
G1 X-19.68 Y-6.89 Z0.41 F6000.0
G1 X-19.03 Y-6.54 Z0.41 F6000.0
G1 X-18.33 Y-6.33 Z0.41 F6000.0
G1 X-17.6 Y-6.25 Z0.41 F6000.0
G1 X-16.87 Y-6.33 Z0.41 F6000.0
G1 X-16.17 Y-6.54 Z0.41 F6000.0
G1 X-15.52 Y-6.89 Z0.41 F6000.0
G1 X-14.95 Y-7.35 Z0.41 F6000.0
G1 X-14.49 Y-7.92 Z0.41 F6000.0
G1 X-14.15 Y-8.54 Z0.41 F6000.0
M108 R30.0
M102
G1 X-14.14 Y-8.57 Z0.41 F6000.0
G1 X-13.93 Y-9.27 Z0.41 F6000.0
G1 X-13.86 Y-10.0 Z0.41 F6000.0
M108 R10.26
M103
(</loop>)
(<loop> outer )
G1 X-13.88 Y-12.7 Z0.41 F6000.0
M108 R30.0
M101
G1 X-13.9 Y-14.3 Z0.41 F6000.0
M108 R10.26
G1 X38.05 Y-14.3 Z0.41 F6000.0
G1 X38.05 Y14.3 Z0.41 F6000.0
G1 X-38.05 Y14.3 Z0.41 F6000.0
G1 X-38.05 Y-14.3 Z0.41 F6000.0
G1 X-15.4 Y-14.3 Z0.41 F6000.0
M108 R30.0
M102
G1 X-13.9 Y-14.3 Z0.41 F6000.0
M108 R10.26
M103
(</loop>)
G1 X-13.98 Y-13.69 Z0.41 F6000.0
M108 R30.0
M101
G1 X-14.2 Y-12.1 Z0.41 F6000.0
M108 R10.26
G1 X14.2 Y-12.1 Z0.41 F6000.0
G1 X14.55 Y-12.57 Z0.41 F6000.0
G1 X-14.55 Y-12.57 Z0.41 F6000.0
G1 X-15.01 Y-13.03 Z0.41 F6000.0
G1 X15.01 Y-13.03 Z0.41 F6000.0
G1 X15.69 Y-13.5 Z0.41 F6000.0
G1 X-14.19 Y-13.5 Z0.41 F6000.0
M108 R30.0
M102
G1 X-15.69 Y-13.5 Z0.41 F6000.0
M108 R10.26
M103
G1 X15.57 Y-13.94 Z0.41 F6000.0
M108 R30.0
M101
G1 X17.17 Y-13.96 Z0.41 F6000.0
M108 R10.26
G1 X-17.17 Y-13.96 Z0.41 F6000.0
M103
G1 X-18.03 Y-13.96 Z0.41 F6000.0
M101
G1 X-37.75 Y-13.96 Z0.41 F6000.0
G1 X-37.75 Y-13.5 Z0.41 F6000.0
G1 X-19.51 Y-13.5 Z0.41 F6000.0
G1 X-20.19 Y-13.03 Z0.41 F6000.0
G1 X-37.75 Y-13.03 Z0.41 F6000.0
G1 X-37.75 Y-12.57 Z0.41 F6000.0
G1 X-20.65 Y-12.57 Z0.41 F6000.0
M103
G1 X-21.0 Y-12.1 Z0.41 F6000.0
M101
G1 X-37.75 Y-12.1 Z0.41 F6000.0
G1 X-37.75 Y-11.64 Z0.41 F6000.0
G1 X-21.25 Y-11.64 Z0.41 F6000.0
M103
G1 X-21.41 Y-11.17 Z0.41 F6000.0
M101
G1 X-37.75 Y-11.17 Z0.41 F6000.0
G1 X-37.75 Y-10.71 Z0.41 F6000.0
G1 X-21.54 Y-10.71 Z0.41 F6000.0
G1 X-21.58 Y-10.24 Z0.41 F6000.0
G1 X-37.75 Y-10.24 Z0.41 F6000.0
G1 X-37.75 Y-9.77 Z0.41 F6000.0
G1 X-21.58 Y-9.77 Z0.41 F6000.0
G1 X-21.54 Y-9.31 Z0.41 F6000.0
G1 X-37.75 Y-9.31 Z0.41 F6000.0
G1 X-37.75 Y-8.84 Z0.41 F6000.0
G1 X-21.41 Y-8.84 Z0.41 F6000.0
M103
G1 X-21.25 Y-8.38 Z0.41 F6000.0
M101
G1 X-37.75 Y-8.38 Z0.41 F6000.0
G1 X-37.75 Y-7.91 Z0.41 F6000.0
G1 X-21.0 Y-7.91 Z0.41 F6000.0
G1 X-20.66 Y-7.45 Z0.41 F6000.0
G1 X-37.75 Y-7.45 Z0.41 F6000.0
G1 X-37.75 Y-6.98 Z0.41 F6000.0
G1 X-20.2 Y-6.98 Z0.41 F6000.0
M103
G1 X-19.54 Y-6.52 Z0.41 F6000.0
M101
G1 X-36.25 Y-6.52 Z0.41 F6000.0
M108 R30.0
M102
G1 X-37.75 Y-6.52 Z0.41 F6000.0
M108 R10.26
M103
G1 X-20.84 Y5.58 Z0.41 F6000.0
M108 R30.0
M101
G1 X-19.54 Y6.52 Z0.41 F6000.0
M108 R10.26
G1 X-37.75 Y6.52 Z0.41 F6000.0
G1 X-37.75 Y6.05 Z0.41 F6000.0
G1 X37.75 Y6.05 Z0.41 F6000.0
G1 X37.75 Y5.58 Z0.41 F6000.0
G1 X-37.75 Y5.58 Z0.41 F6000.0
G1 X-37.75 Y5.12 Z0.41 F6000.0
G1 X37.75 Y5.12 Z0.41 F6000.0
G1 X37.75 Y4.65 Z0.41 F6000.0
G1 X-37.75 Y4.65 Z0.41 F6000.0
G1 X-37.75 Y4.19 Z0.41 F6000.0
G1 X37.75 Y4.19 Z0.41 F6000.0
G1 X37.75 Y3.72 Z0.41 F6000.0
G1 X-37.75 Y3.72 Z0.41 F6000.0
G1 X-37.75 Y3.26 Z0.41 F6000.0
G1 X37.75 Y3.26 Z0.41 F6000.0
G1 X37.75 Y2.79 Z0.41 F6000.0
G1 X-37.75 Y2.79 Z0.41 F6000.0
G1 X-37.75 Y2.33 Z0.41 F6000.0
G1 X37.75 Y2.33 Z0.41 F6000.0
G1 X37.75 Y1.86 Z0.41 F6000.0
G1 X-37.75 Y1.86 Z0.41 F6000.0
G1 X-37.75 Y1.4 Z0.41 F6000.0
G1 X37.75 Y1.4 Z0.41 F6000.0
G1 X37.75 Y0.93 Z0.41 F6000.0
G1 X-37.75 Y0.93 Z0.41 F6000.0
G1 X-37.75 Y0.47 Z0.41 F6000.0
G1 X37.75 Y0.47 Z0.41 F6000.0
G1 X37.75 Y-0.0 Z0.41 F6000.0
G1 X-37.75 Y0.0 Z0.41 F6000.0
G1 X-37.75 Y-0.47 Z0.41 F6000.0
G1 X37.75 Y-0.47 Z0.41 F6000.0
G1 X37.75 Y-0.93 Z0.41 F6000.0
G1 X-37.75 Y-0.93 Z0.41 F6000.0
G1 X-37.75 Y-1.4 Z0.41 F6000.0
G1 X37.75 Y-1.4 Z0.41 F6000.0
G1 X37.75 Y-1.86 Z0.41 F6000.0
G1 X-37.75 Y-1.86 Z0.41 F6000.0
G1 X-37.75 Y-2.33 Z0.41 F6000.0
G1 X37.75 Y-2.33 Z0.41 F6000.0
G1 X37.75 Y-2.79 Z0.41 F6000.0
G1 X-37.75 Y-2.79 Z0.41 F6000.0
G1 X-37.75 Y-3.26 Z0.41 F6000.0
G1 X37.75 Y-3.26 Z0.41 F6000.0
G1 X37.75 Y-3.72 Z0.41 F6000.0
G1 X-37.75 Y-3.72 Z0.41 F6000.0
G1 X-37.75 Y-4.19 Z0.41 F6000.0
G1 X37.75 Y-4.19 Z0.41 F6000.0
G1 X37.75 Y-4.65 Z0.41 F6000.0
G1 X-37.75 Y-4.65 Z0.41 F6000.0
G1 X-37.75 Y-5.12 Z0.41 F6000.0
G1 X37.75 Y-5.12 Z0.41 F6000.0
G1 X37.75 Y-5.58 Z0.41 F6000.0
G1 X-37.75 Y-5.58 Z0.41 F6000.0
G1 X-37.75 Y-6.05 Z0.41 F6000.0
G1 X-19.66 Y-6.05 Z0.41 F6000.0
M108 R30.0
M102
G1 X-18.16 Y-6.05 Z0.41 F6000.0
M108 R10.26
M103
M108 R30.0
M101
G1 X-17.04 Y-6.05 Z0.41 F4207.5
M108 R10.26
G1 X15.54 Y-6.05 Z0.41 F6000.0
M108 R30.0
M102
G1 X17.04 Y-6.05 Z0.41 F6000.0
M108 R10.26
M103
M108 R30.0
M101
G1 X18.16 Y-6.05 Z0.41 F4207.5
M108 R10.26
G1 X37.75 Y-6.05 Z0.41 F6000.0
G1 X37.75 Y-6.52 Z0.41 F6000.0
G1 X19.54 Y-6.52 Z0.41 F6000.0
M103
G1 X20.2 Y-6.98 Z0.41 F6000.0
M101
G1 X37.75 Y-6.98 Z0.41 F6000.0
G1 X37.75 Y-7.45 Z0.41 F6000.0
G1 X20.66 Y-7.45 Z0.41 F6000.0
G1 X21.0 Y-7.91 Z0.41 F6000.0
G1 X37.75 Y-7.91 Z0.41 F6000.0
G1 X37.75 Y-8.38 Z0.41 F6000.0
G1 X21.25 Y-8.38 Z0.41 F6000.0
M103
G1 X21.41 Y-8.84 Z0.41 F6000.0
M101
G1 X37.75 Y-8.84 Z0.41 F6000.0
G1 X37.75 Y-9.31 Z0.41 F6000.0
G1 X21.54 Y-9.31 Z0.41 F6000.0
G1 X21.58 Y-9.77 Z0.41 F6000.0
G1 X37.75 Y-9.77 Z0.41 F6000.0
G1 X37.75 Y-10.24 Z0.41 F6000.0
G1 X21.58 Y-10.24 Z0.41 F6000.0
G1 X21.54 Y-10.71 Z0.41 F6000.0
G1 X37.75 Y-10.71 Z0.41 F6000.0
G1 X37.75 Y-11.17 Z0.41 F6000.0
G1 X21.41 Y-11.17 Z0.41 F6000.0
M103
G1 X21.25 Y-11.64 Z0.41 F6000.0
M101
G1 X37.75 Y-11.64 Z0.41 F6000.0
G1 X37.75 Y-12.1 Z0.41 F6000.0
G1 X21.0 Y-12.1 Z0.41 F6000.0
M103
G1 X20.65 Y-12.57 Z0.41 F6000.0
M101
G1 X37.75 Y-12.57 Z0.41 F6000.0
G1 X37.75 Y-13.03 Z0.41 F6000.0
G1 X20.19 Y-13.03 Z0.41 F6000.0
G1 X19.51 Y-13.5 Z0.41 F6000.0
G1 X37.75 Y-13.5 Z0.41 F6000.0
G1 X37.75 Y-13.96 Z0.41 F6000.0
G1 X19.53 Y-13.96 Z0.41 F6000.0
M108 R30.0
M102
G1 X18.03 Y-13.96 Z0.41 F6000.0
M108 R10.26
M103
G1 X15.25 Y-12.35 Z0.41 F6000.0
G1 X14.78 Y-11.86 Z0.41 F6000.0
M108 R30.0
M101
G1 X13.66 Y-10.71 Z0.41 F6000.0
M108 R10.26
G1 X-13.66 Y-10.71 Z0.41 F6000.0
M103
G1 X-13.62 Y-10.24 Z0.41 F6000.0
M101
G1 X13.62 Y-10.24 Z0.41 F6000.0
M103
G1 X13.62 Y-9.77 Z0.41 F6000.0
M101
G1 X-13.62 Y-9.77 Z0.41 F6000.0
M103
G1 X-13.66 Y-9.31 Z0.41 F6000.0
M101
G1 X13.66 Y-9.31 Z0.41 F6000.0
M103
G1 X13.79 Y-8.84 Z0.41 F6000.0
M101
G1 X-12.29 Y-8.84 Z0.41 F6000.0
M108 R30.0
M102
G1 X-13.79 Y-8.84 Z0.41 F6000.0
M108 R10.26
M103
G1 X-13.79 Y-9.57 Z0.41 F6000.0
M108 R30.0
M101
G1 X-13.79 Y-11.17 Z0.41 F6000.0
M108 R10.26
G1 X13.79 Y-11.17 Z0.41 F6000.0
G1 X13.95 Y-11.64 Z0.41 F6000.0
G1 X-12.45 Y-11.64 Z0.41 F6000.0
M108 R30.0
M102
G1 X-13.95 Y-11.64 Z0.41 F6000.0
M108 R10.26
M103
G1 X-14.69 Y-8.43 Z0.41 F6000.0
G1 X-14.94 Y-7.94 Z0.41 F6000.0
M108 R30.0
M101
G1 X-15.66 Y-6.52 Z0.41 F6000.0
M108 R10.26
G1 X15.66 Y-6.52 Z0.41 F6000.0
G1 X15.0 Y-6.98 Z0.41 F6000.0
G1 X-15.0 Y-6.98 Z0.41 F6000.0
G1 X-14.54 Y-7.45 Z0.41 F6000.0
G1 X14.54 Y-7.45 Z0.41 F6000.0
G1 X14.2 Y-7.91 Z0.41 F6000.0
G1 X-14.2 Y-7.91 Z0.41 F6000.0
G1 X-13.95 Y-8.38 Z0.41 F6000.0
G1 X12.45 Y-8.38 Z0.41 F6000.0
M108 R30.0
M102
G1 X13.95 Y-8.38 Z0.41 F6000.0
M108 R10.26
M103
G1 X20.78 Y7.38 Z0.41 F6000.0
M108 R30.0
M101
G1 X21.41 Y8.84 Z0.41 F6000.0
M108 R10.26
G1 X37.75 Y8.84 Z0.41 F6000.0
G1 X37.75 Y8.38 Z0.41 F6000.0
G1 X21.25 Y8.38 Z0.41 F6000.0
G1 X21.0 Y7.91 Z0.41 F6000.0
G1 X37.75 Y7.91 Z0.41 F6000.0
G1 X37.75 Y7.45 Z0.41 F6000.0
G1 X20.66 Y7.45 Z0.41 F6000.0
G1 X20.2 Y6.98 Z0.41 F6000.0
G1 X37.75 Y6.98 Z0.41 F6000.0
G1 X37.75 Y6.52 Z0.41 F6000.0
G1 X21.04 Y6.52 Z0.41 F6000.0
M108 R30.0
M102
G1 X19.54 Y6.52 Z0.41 F6000.0
M108 R10.26
M103
G1 X20.85 Y9.26 Z0.41 F6000.0
M108 R30.0
M101
G1 X21.54 Y10.71 Z0.41 F6000.0
M108 R10.26
G1 X37.75 Y10.71 Z0.41 F6000.0
G1 X37.75 Y10.24 Z0.41 F6000.0
G1 X21.58 Y10.24 Z0.41 F6000.0
G1 X21.58 Y9.77 Z0.41 F6000.0
G1 X37.75 Y9.77 Z0.41 F6000.0
G1 X37.75 Y9.31 Z0.41 F6000.0
G1 X23.04 Y9.31 Z0.41 F6000.0
M108 R30.0
M102
G1 X21.54 Y9.31 Z0.41 F6000.0
M108 R10.26
M103
G1 X21.44 Y10.05 Z0.41 F6000.0
M108 R30.0
M101
G1 X21.25 Y11.64 Z0.41 F6000.0
M108 R10.26
G1 X37.75 Y11.64 Z0.41 F6000.0
G1 X37.75 Y11.17 Z0.41 F6000.0
G1 X22.91 Y11.17 Z0.41 F6000.0
M108 R30.0
M102
G1 X21.41 Y11.17 Z0.41 F6000.0
M108 R10.26
M103
G1 X20.52 Y12.26 Z0.41 F6000.0
M108 R30.0
M101
G1 X19.51 Y13.5 Z0.41 F6000.0
M108 R10.26
G1 X37.75 Y13.5 Z0.41 F6000.0
G1 X37.75 Y13.03 Z0.41 F6000.0
G1 X20.19 Y13.03 Z0.41 F6000.0
G1 X20.65 Y12.57 Z0.41 F6000.0
G1 X37.75 Y12.57 Z0.41 F6000.0
G1 X37.75 Y12.1 Z0.41 F6000.0
G1 X22.5 Y12.1 Z0.41 F6000.0
M108 R30.0
M102
G1 X21.0 Y12.1 Z0.41 F6000.0
M108 R10.26
M103
G1 X36.16 Y13.79 Z0.41 F6000.0
M108 R30.0
M101
G1 X37.75 Y13.96 Z0.41 F6000.0
M108 R10.26
G1 X18.03 Y13.96 Z0.41 F6000.0
M103
G1 X17.17 Y13.96 Z0.41 F6000.0
M101
G1 X-17.17 Y13.96 Z0.41 F6000.0
M103
G1 X-18.03 Y13.96 Z0.41 F6000.0
M101
G1 X-37.75 Y13.96 Z0.41 F6000.0
G1 X-37.75 Y13.5 Z0.41 F6000.0
G1 X-19.51 Y13.5 Z0.41 F6000.0
G1 X-20.19 Y13.03 Z0.41 F6000.0
G1 X-37.75 Y13.03 Z0.41 F6000.0
G1 X-37.75 Y12.57 Z0.41 F6000.0
G1 X-20.65 Y12.57 Z0.41 F6000.0
M103
G1 X-21.0 Y12.1 Z0.41 F6000.0
M101
G1 X-37.75 Y12.1 Z0.41 F6000.0
G1 X-37.75 Y11.64 Z0.41 F6000.0
G1 X-21.25 Y11.64 Z0.41 F6000.0
M103
G1 X-21.41 Y11.17 Z0.41 F6000.0
M101
G1 X-37.75 Y11.17 Z0.41 F6000.0
G1 X-37.75 Y10.71 Z0.41 F6000.0
G1 X-21.54 Y10.71 Z0.41 F6000.0
G1 X-21.58 Y10.24 Z0.41 F6000.0
G1 X-37.75 Y10.24 Z0.41 F6000.0
G1 X-37.75 Y9.77 Z0.41 F6000.0
G1 X-21.58 Y9.77 Z0.41 F6000.0
G1 X-21.54 Y9.31 Z0.41 F6000.0
G1 X-37.75 Y9.31 Z0.41 F6000.0
G1 X-37.75 Y8.84 Z0.41 F6000.0
G1 X-21.41 Y8.84 Z0.41 F6000.0
M103
G1 X-21.25 Y8.38 Z0.41 F6000.0
M101
G1 X-37.75 Y8.38 Z0.41 F6000.0
G1 X-37.75 Y7.91 Z0.41 F6000.0
G1 X-21.0 Y7.91 Z0.41 F6000.0
G1 X-20.66 Y7.45 Z0.41 F6000.0
G1 X-37.75 Y7.45 Z0.41 F6000.0
G1 X-37.75 Y6.98 Z0.41 F6000.0
G1 X-21.7 Y6.98 Z0.41 F6000.0
M108 R30.0
M102
G1 X-20.2 Y6.98 Z0.41 F6000.0
M108 R10.26
M103
G1 X-17.25 Y6.68 Z0.41 F6000.0
M108 R30.0
M101
G1 X-15.66 Y6.52 Z0.41 F6000.0
M108 R10.26
G1 X15.66 Y6.52 Z0.41 F6000.0
G1 X15.0 Y6.98 Z0.41 F6000.0
G1 X-15.0 Y6.98 Z0.41 F6000.0
G1 X-14.54 Y7.45 Z0.41 F6000.0
G1 X14.54 Y7.45 Z0.41 F6000.0
G1 X14.2 Y7.91 Z0.41 F6000.0
G1 X-14.2 Y7.91 Z0.41 F6000.0
G1 X-13.95 Y8.38 Z0.41 F6000.0
G1 X13.95 Y8.38 Z0.41 F6000.0
M103
G1 X13.79 Y8.84 Z0.41 F6000.0
M101
G1 X-13.79 Y8.84 Z0.41 F6000.0
M103
G1 X-13.66 Y9.31 Z0.41 F6000.0
M101
G1 X13.66 Y9.31 Z0.41 F6000.0
M103
G1 X13.62 Y9.77 Z0.41 F6000.0
M101
G1 X-13.62 Y9.77 Z0.41 F6000.0
M103
G1 X-13.62 Y10.24 Z0.41 F6000.0
M101
G1 X13.62 Y10.24 Z0.41 F6000.0
M103
G1 X13.66 Y10.71 Z0.41 F6000.0
M101
G1 X-13.66 Y10.71 Z0.41 F6000.0
M103
G1 X-13.79 Y11.17 Z0.41 F6000.0
M101
G1 X13.79 Y11.17 Z0.41 F6000.0
G1 X13.95 Y11.64 Z0.41 F6000.0
G1 X-13.95 Y11.64 Z0.41 F6000.0
M103
G1 X-14.2 Y12.1 Z0.41 F6000.0
M101
G1 X14.2 Y12.1 Z0.41 F6000.0
G1 X14.55 Y12.57 Z0.41 F6000.0
G1 X-14.55 Y12.57 Z0.41 F6000.0
G1 X-15.01 Y13.03 Z0.41 F6000.0
G1 X15.01 Y13.03 Z0.41 F6000.0
G1 X15.69 Y13.5 Z0.41 F6000.0
G1 X-14.19 Y13.5 Z0.41 F6000.0
M108 R30.0
M102
G1 X-15.69 Y13.5 Z0.41 F6000.0
M108 R10.26
M103
(</surroundingLoop>)
(</layer>)
(<operatingLayerEnd> </operatingLayerEnd>)
(<layer> 0.675 )
(<surroundingLoop>)
(<boundaryPerimeter>)
(<boundaryPoint> X38.75 Y15.0 Z0.675 </boundaryPoint>)
(<boundaryPoint> X-38.75 Y15.0 Z0.675 </boundaryPoint>)
(<boundaryPoint> X-38.75 Y-15.0 Z0.675 </boundaryPoint>)
(<boundaryPoint> X38.75 Y-15.0 Z0.675 </boundaryPoint>)
(<perimeter> outer )
M108 R30.0
M101
G1 X-16.02 Y14.77 Z0.68 F5026.374
M108 R10.26
G1 X-38.52 Y14.77 Z0.68 F6000.0
G1 X-38.52 Y-14.77 Z0.68 F6000.0
G1 X38.52 Y-14.77 Z0.68 F6000.0
G1 X38.52 Y14.77 Z0.68 F6000.0
G1 X-14.52 Y14.77 Z0.68 F6000.0
M108 R30.0
M102
G1 X-15.69 Y14.77 Z0.68 F6000.0
G1 X-16.02 Y14.77 Z0.68 F6000.0
M108 R10.26
M103
(</perimeter>)
(</boundaryPerimeter>)
(<surroundingLoop>)
(<boundaryPerimeter>)
(<boundaryPoint> X-14.6 Y10.0 Z0.675 </boundaryPoint>)
(<boundaryPoint> X-14.658 Y9.415 Z0.675 </boundaryPoint>)
(<boundaryPoint> X-14.828 Y8.852 Z0.675 </boundaryPoint>)
(<boundaryPoint> X-15.106 Y8.333 Z0.675 </boundaryPoint>)
(<boundaryPoint> X-15.479 Y7.879 Z0.675 </boundaryPoint>)
(<boundaryPoint> X-15.933 Y7.506 Z0.675 </boundaryPoint>)
(<boundaryPoint> X-16.452 Y7.228 Z0.675 </boundaryPoint>)
(<boundaryPoint> X-17.015 Y7.058 Z0.675 </boundaryPoint>)
(<boundaryPoint> X-17.6 Y7.0 Z0.675 </boundaryPoint>)
(<boundaryPoint> X-18.185 Y7.058 Z0.675 </boundaryPoint>)
(<boundaryPoint> X-18.748 Y7.228 Z0.675 </boundaryPoint>)
(<boundaryPoint> X-19.267 Y7.506 Z0.675 </boundaryPoint>)
(<boundaryPoint> X-19.721 Y7.879 Z0.675 </boundaryPoint>)
(<boundaryPoint> X-20.094 Y8.333 Z0.675 </boundaryPoint>)
(<boundaryPoint> X-20.372 Y8.852 Z0.675 </boundaryPoint>)
(<boundaryPoint> X-20.542 Y9.415 Z0.675 </boundaryPoint>)
(<boundaryPoint> X-20.6 Y10.0 Z0.675 </boundaryPoint>)
(<boundaryPoint> X-20.542 Y10.585 Z0.675 </boundaryPoint>)
(<boundaryPoint> X-20.372 Y11.148 Z0.675 </boundaryPoint>)
(<boundaryPoint> X-20.094 Y11.667 Z0.675 </boundaryPoint>)
(<boundaryPoint> X-19.721 Y12.121 Z0.675 </boundaryPoint>)
(<boundaryPoint> X-19.267 Y12.494 Z0.675 </boundaryPoint>)
(<boundaryPoint> X-18.748 Y12.772 Z0.675 </boundaryPoint>)
(<boundaryPoint> X-18.185 Y12.942 Z0.675 </boundaryPoint>)
(<boundaryPoint> X-17.6 Y13.0 Z0.675 </boundaryPoint>)
(<boundaryPoint> X-17.015 Y12.942 Z0.675 </boundaryPoint>)
(<boundaryPoint> X-16.452 Y12.772 Z0.675 </boundaryPoint>)
(<boundaryPoint> X-15.933 Y12.494 Z0.675 </boundaryPoint>)
(<boundaryPoint> X-15.479 Y12.121 Z0.675 </boundaryPoint>)
(<boundaryPoint> X-15.106 Y11.667 Z0.675 </boundaryPoint>)
(<boundaryPoint> X-14.828 Y11.148 Z0.675 </boundaryPoint>)
(<boundaryPoint> X-14.658 Y10.585 Z0.675 </boundaryPoint>)
(<perimeter> inner )
G1 X-16.04 Y14.67 Z0.68 F6000.0
M108 R30.0
M101
G1 X-16.32 Y13.09 Z0.68 F6000.0
M108 R10.26
G1 X-15.74 Y12.78 Z0.68 F6000.0
G1 X-15.23 Y12.37 Z0.68 F6000.0
G1 X-14.82 Y11.86 Z0.68 F6000.0
G1 X-14.51 Y11.28 Z0.68 F6000.0
G1 X-14.32 Y10.65 Z0.68 F6000.0
G1 X-14.25 Y10.0 Z0.68 F6000.0
G1 X-14.32 Y9.35 Z0.68 F6000.0
G1 X-14.51 Y8.72 Z0.68 F6000.0
G1 X-14.82 Y8.14 Z0.68 F6000.0
G1 X-15.23 Y7.63 Z0.68 F6000.0
G1 X-15.74 Y7.22 Z0.68 F6000.0
G1 X-16.32 Y6.91 Z0.68 F6000.0
G1 X-16.95 Y6.72 Z0.68 F6000.0
G1 X-17.6 Y6.65 Z0.68 F6000.0
G1 X-18.25 Y6.72 Z0.68 F6000.0
G1 X-18.88 Y6.91 Z0.68 F6000.0
G1 X-19.46 Y7.22 Z0.68 F6000.0
G1 X-19.96 Y7.63 Z0.68 F6000.0
G1 X-20.38 Y8.14 Z0.68 F6000.0
G1 X-20.69 Y8.72 Z0.68 F6000.0
G1 X-20.88 Y9.35 Z0.68 F6000.0
G1 X-20.95 Y10.0 Z0.68 F6000.0
G1 X-20.88 Y10.65 Z0.68 F6000.0
G1 X-20.69 Y11.28 Z0.68 F6000.0
G1 X-20.38 Y11.86 Z0.68 F6000.0
G1 X-19.96 Y12.37 Z0.68 F6000.0
G1 X-19.46 Y12.78 Z0.68 F6000.0
G1 X-18.88 Y13.09 Z0.68 F6000.0
G1 X-18.25 Y13.28 Z0.68 F6000.0
G1 X-17.79 Y13.33 Z0.68 F6000.0
M108 R30.0
M102
G1 X-17.6 Y13.35 Z0.68 F6000.0
G1 X-16.95 Y13.28 Z0.68 F6000.0
G1 X-16.32 Y13.09 Z0.68 F6000.0
M108 R10.26
M103
(</perimeter>)
(</boundaryPerimeter>)
(</surroundingLoop>)
(<surroundingLoop>)
(<boundaryPerimeter>)
(<boundaryPoint> X-14.6 Y-10.0 Z0.675 </boundaryPoint>)
(<boundaryPoint> X-14.658 Y-10.585 Z0.675 </boundaryPoint>)
(<boundaryPoint> X-14.828 Y-11.148 Z0.675 </boundaryPoint>)
(<boundaryPoint> X-15.106 Y-11.667 Z0.675 </boundaryPoint>)
(<boundaryPoint> X-15.479 Y-12.121 Z0.675 </boundaryPoint>)
(<boundaryPoint> X-15.933 Y-12.494 Z0.675 </boundaryPoint>)
(<boundaryPoint> X-16.452 Y-12.772 Z0.675 </boundaryPoint>)
(<boundaryPoint> X-17.015 Y-12.942 Z0.675 </boundaryPoint>)
(<boundaryPoint> X-17.6 Y-13.0 Z0.675 </boundaryPoint>)
(<boundaryPoint> X-18.185 Y-12.942 Z0.675 </boundaryPoint>)
(<boundaryPoint> X-18.748 Y-12.772 Z0.675 </boundaryPoint>)
(<boundaryPoint> X-19.267 Y-12.494 Z0.675 </boundaryPoint>)
(<boundaryPoint> X-19.721 Y-12.121 Z0.675 </boundaryPoint>)
(<boundaryPoint> X-20.094 Y-11.667 Z0.675 </boundaryPoint>)
(<boundaryPoint> X-20.372 Y-11.148 Z0.675 </boundaryPoint>)
(<boundaryPoint> X-20.542 Y-10.585 Z0.675 </boundaryPoint>)
(<boundaryPoint> X-20.6 Y-10.0 Z0.675 </boundaryPoint>)
(<boundaryPoint> X-20.542 Y-9.415 Z0.675 </boundaryPoint>)
(<boundaryPoint> X-20.372 Y-8.852 Z0.675 </boundaryPoint>)
(<boundaryPoint> X-20.094 Y-8.333 Z0.675 </boundaryPoint>)
(<boundaryPoint> X-19.721 Y-7.879 Z0.675 </boundaryPoint>)
(<boundaryPoint> X-19.267 Y-7.506 Z0.675 </boundaryPoint>)
(<boundaryPoint> X-18.748 Y-7.228 Z0.675 </boundaryPoint>)
(<boundaryPoint> X-18.185 Y-7.058 Z0.675 </boundaryPoint>)
(<boundaryPoint> X-17.6 Y-7.0 Z0.675 </boundaryPoint>)
(<boundaryPoint> X-17.015 Y-7.058 Z0.675 </boundaryPoint>)
(<boundaryPoint> X-16.452 Y-7.228 Z0.675 </boundaryPoint>)
(<boundaryPoint> X-15.933 Y-7.506 Z0.675 </boundaryPoint>)
(<boundaryPoint> X-15.479 Y-7.879 Z0.675 </boundaryPoint>)
(<boundaryPoint> X-15.106 Y-8.333 Z0.675 </boundaryPoint>)
(<boundaryPoint> X-14.828 Y-8.852 Z0.675 </boundaryPoint>)
(<boundaryPoint> X-14.658 Y-9.415 Z0.675 </boundaryPoint>)
(<perimeter> inner )
G1 X-14.84 Y11.85 Z0.68 F6000.0
G1 X-14.53 Y11.27 Z0.68 F6000.0
G1 X-14.34 Y10.65 Z0.68 F6000.0
G1 X-14.28 Y10.0 Z0.68 F6000.0
G1 X-17.29 Y-5.08 Z0.68 F6000.0
M108 R30.0
M101
G1 X-17.6 Y-6.65 Z0.68 F6000.0
M108 R10.26
G1 X-16.95 Y-6.72 Z0.68 F6000.0
G1 X-16.32 Y-6.91 Z0.68 F6000.0
G1 X-15.74 Y-7.22 Z0.68 F6000.0
G1 X-15.23 Y-7.63 Z0.68 F6000.0
G1 X-14.82 Y-8.14 Z0.68 F6000.0
G1 X-14.51 Y-8.72 Z0.68 F6000.0
G1 X-14.32 Y-9.35 Z0.68 F6000.0
G1 X-14.25 Y-10.0 Z0.68 F6000.0
G1 X-14.32 Y-10.65 Z0.68 F6000.0
G1 X-14.51 Y-11.28 Z0.68 F6000.0
G1 X-14.82 Y-11.86 Z0.68 F6000.0
G1 X-15.23 Y-12.37 Z0.68 F6000.0
G1 X-15.74 Y-12.78 Z0.68 F6000.0
G1 X-16.32 Y-13.09 Z0.68 F6000.0
G1 X-16.95 Y-13.28 Z0.68 F6000.0
G1 X-17.6 Y-13.35 Z0.68 F6000.0
G1 X-18.25 Y-13.28 Z0.68 F6000.0
G1 X-18.88 Y-13.09 Z0.68 F6000.0
G1 X-19.46 Y-12.78 Z0.68 F6000.0
G1 X-19.96 Y-12.37 Z0.68 F6000.0
G1 X-20.38 Y-11.86 Z0.68 F6000.0
G1 X-20.69 Y-11.28 Z0.68 F6000.0
G1 X-20.88 Y-10.65 Z0.68 F6000.0
G1 X-20.95 Y-10.0 Z0.68 F6000.0
G1 X-20.88 Y-9.35 Z0.68 F6000.0
G1 X-20.69 Y-8.72 Z0.68 F6000.0
G1 X-20.38 Y-8.14 Z0.68 F6000.0
G1 X-19.96 Y-7.63 Z0.68 F6000.0
G1 X-19.46 Y-7.22 Z0.68 F6000.0
G1 X-19.05 Y-7.0 Z0.68 F6000.0
M108 R30.0
M102
G1 X-18.88 Y-6.91 Z0.68 F6000.0
G1 X-18.25 Y-6.72 Z0.68 F6000.0
G1 X-17.6 Y-6.65 Z0.68 F6000.0
M108 R10.26
M103
(</perimeter>)
(</boundaryPerimeter>)
(</surroundingLoop>)
(<surroundingLoop>)
(<boundaryPerimeter>)
(<boundaryPoint> X20.6 Y-10.0 Z0.675 </boundaryPoint>)
(<boundaryPoint> X20.542 Y-10.585 Z0.675 </boundaryPoint>)
(<boundaryPoint> X20.372 Y-11.148 Z0.675 </boundaryPoint>)
(<boundaryPoint> X20.094 Y-11.667 Z0.675 </boundaryPoint>)
(<boundaryPoint> X19.721 Y-12.121 Z0.675 </boundaryPoint>)
(<boundaryPoint> X19.267 Y-12.494 Z0.675 </boundaryPoint>)
(<boundaryPoint> X18.748 Y-12.772 Z0.675 </boundaryPoint>)
(<boundaryPoint> X18.185 Y-12.942 Z0.675 </boundaryPoint>)
(<boundaryPoint> X17.6 Y-13.0 Z0.675 </boundaryPoint>)
(<boundaryPoint> X17.015 Y-12.942 Z0.675 </boundaryPoint>)
(<boundaryPoint> X16.452 Y-12.772 Z0.675 </boundaryPoint>)
(<boundaryPoint> X15.933 Y-12.494 Z0.675 </boundaryPoint>)
(<boundaryPoint> X15.479 Y-12.121 Z0.675 </boundaryPoint>)
(<boundaryPoint> X15.106 Y-11.667 Z0.675 </boundaryPoint>)
(<boundaryPoint> X14.828 Y-11.148 Z0.675 </boundaryPoint>)
(<boundaryPoint> X14.658 Y-10.585 Z0.675 </boundaryPoint>)
(<boundaryPoint> X14.6 Y-10.0 Z0.675 </boundaryPoint>)
(<boundaryPoint> X14.658 Y-9.415 Z0.675 </boundaryPoint>)
(<boundaryPoint> X14.828 Y-8.852 Z0.675 </boundaryPoint>)
(<boundaryPoint> X15.106 Y-8.333 Z0.675 </boundaryPoint>)
(<boundaryPoint> X15.479 Y-7.879 Z0.675 </boundaryPoint>)
(<boundaryPoint> X15.933 Y-7.506 Z0.675 </boundaryPoint>)
(<boundaryPoint> X16.452 Y-7.228 Z0.675 </boundaryPoint>)
(<boundaryPoint> X17.015 Y-7.058 Z0.675 </boundaryPoint>)
(<boundaryPoint> X17.6 Y-7.0 Z0.675 </boundaryPoint>)
(<boundaryPoint> X18.185 Y-7.058 Z0.675 </boundaryPoint>)
(<boundaryPoint> X18.748 Y-7.228 Z0.675 </boundaryPoint>)
(<boundaryPoint> X19.267 Y-7.506 Z0.675 </boundaryPoint>)
(<boundaryPoint> X19.721 Y-7.879 Z0.675 </boundaryPoint>)
(<boundaryPoint> X20.094 Y-8.333 Z0.675 </boundaryPoint>)
(<boundaryPoint> X20.372 Y-8.852 Z0.675 </boundaryPoint>)
(<boundaryPoint> X20.542 Y-9.415 Z0.675 </boundaryPoint>)
(<perimeter> inner )
G1 X12.66 Y-9.83 Z0.68 F6000.0
M108 R30.0
M101
G1 X14.25 Y-10.0 Z0.68 F6000.0
M108 R10.26
G1 X14.32 Y-9.35 Z0.68 F6000.0
G1 X14.51 Y-8.72 Z0.68 F6000.0
G1 X14.82 Y-8.14 Z0.68 F6000.0
G1 X15.23 Y-7.63 Z0.68 F6000.0
G1 X15.74 Y-7.22 Z0.68 F6000.0
G1 X16.32 Y-6.91 Z0.68 F6000.0
G1 X16.95 Y-6.72 Z0.68 F6000.0
G1 X17.6 Y-6.65 Z0.68 F6000.0
G1 X18.25 Y-6.72 Z0.68 F6000.0
G1 X18.88 Y-6.91 Z0.68 F6000.0
G1 X19.46 Y-7.22 Z0.68 F6000.0
G1 X19.96 Y-7.63 Z0.68 F6000.0
G1 X20.38 Y-8.14 Z0.68 F6000.0
G1 X20.69 Y-8.72 Z0.68 F6000.0
G1 X20.88 Y-9.35 Z0.68 F6000.0
G1 X20.95 Y-10.0 Z0.68 F6000.0
G1 X20.88 Y-10.65 Z0.68 F6000.0
G1 X20.69 Y-11.28 Z0.68 F6000.0
G1 X20.38 Y-11.86 Z0.68 F6000.0
G1 X19.96 Y-12.37 Z0.68 F6000.0
G1 X19.46 Y-12.78 Z0.68 F6000.0
G1 X18.88 Y-13.09 Z0.68 F6000.0
G1 X18.25 Y-13.28 Z0.68 F6000.0
G1 X17.6 Y-13.35 Z0.68 F6000.0
G1 X16.95 Y-13.28 Z0.68 F6000.0
G1 X16.32 Y-13.09 Z0.68 F6000.0
G1 X15.74 Y-12.78 Z0.68 F6000.0
G1 X15.23 Y-12.37 Z0.68 F6000.0
G1 X14.82 Y-11.86 Z0.68 F6000.0
G1 X14.6 Y-11.45 Z0.68 F6000.0
M108 R30.0
M102
G1 X14.51 Y-11.28 Z0.68 F6000.0
G1 X14.32 Y-10.65 Z0.68 F6000.0
G1 X14.25 Y-10.0 Z0.68 F6000.0
M108 R10.26
M103
(</perimeter>)
(</boundaryPerimeter>)
(</surroundingLoop>)
(<surroundingLoop>)
(<boundaryPerimeter>)
(<boundaryPoint> X20.372 Y8.852 Z0.675 </boundaryPoint>)
(<boundaryPoint> X20.094 Y8.333 Z0.675 </boundaryPoint>)
(<boundaryPoint> X19.721 Y7.879 Z0.675 </boundaryPoint>)
(<boundaryPoint> X19.267 Y7.506 Z0.675 </boundaryPoint>)
(<boundaryPoint> X18.748 Y7.228 Z0.675 </boundaryPoint>)
(<boundaryPoint> X18.185 Y7.058 Z0.675 </boundaryPoint>)
(<boundaryPoint> X17.6 Y7.0 Z0.675 </boundaryPoint>)
(<boundaryPoint> X17.015 Y7.058 Z0.675 </boundaryPoint>)
(<boundaryPoint> X16.452 Y7.228 Z0.675 </boundaryPoint>)
(<boundaryPoint> X15.933 Y7.506 Z0.675 </boundaryPoint>)
(<boundaryPoint> X15.479 Y7.879 Z0.675 </boundaryPoint>)
(<boundaryPoint> X15.106 Y8.333 Z0.675 </boundaryPoint>)
(<boundaryPoint> X14.828 Y8.852 Z0.675 </boundaryPoint>)
(<boundaryPoint> X14.658 Y9.415 Z0.675 </boundaryPoint>)
(<boundaryPoint> X14.6 Y10.0 Z0.675 </boundaryPoint>)
(<boundaryPoint> X14.658 Y10.585 Z0.675 </boundaryPoint>)
(<boundaryPoint> X14.828 Y11.148 Z0.675 </boundaryPoint>)
(<boundaryPoint> X15.106 Y11.667 Z0.675 </boundaryPoint>)
(<boundaryPoint> X15.479 Y12.121 Z0.675 </boundaryPoint>)
(<boundaryPoint> X15.933 Y12.494 Z0.675 </boundaryPoint>)
(<boundaryPoint> X16.452 Y12.772 Z0.675 </boundaryPoint>)
(<boundaryPoint> X17.015 Y12.942 Z0.675 </boundaryPoint>)
(<boundaryPoint> X17.6 Y13.0 Z0.675 </boundaryPoint>)
(<boundaryPoint> X18.185 Y12.942 Z0.675 </boundaryPoint>)
(<boundaryPoint> X18.748 Y12.772 Z0.675 </boundaryPoint>)
(<boundaryPoint> X19.267 Y12.494 Z0.675 </boundaryPoint>)
(<boundaryPoint> X19.721 Y12.121 Z0.675 </boundaryPoint>)
(<boundaryPoint> X20.094 Y11.667 Z0.675 </boundaryPoint>)
(<boundaryPoint> X20.372 Y11.148 Z0.675 </boundaryPoint>)
(<boundaryPoint> X20.542 Y10.585 Z0.675 </boundaryPoint>)
(<boundaryPoint> X20.6 Y10.0 Z0.675 </boundaryPoint>)
(<boundaryPoint> X20.542 Y9.415 Z0.675 </boundaryPoint>)
(<perimeter> inner )
G1 X16.69 Y5.14 Z0.68 F6000.0
M108 R30.0
M101
G1 X16.95 Y6.72 Z0.68 F6000.0
M108 R10.26
G1 X16.32 Y6.91 Z0.68 F6000.0
G1 X15.74 Y7.22 Z0.68 F6000.0
G1 X15.23 Y7.63 Z0.68 F6000.0
G1 X14.82 Y8.14 Z0.68 F6000.0
G1 X14.51 Y8.72 Z0.68 F6000.0
G1 X14.32 Y9.35 Z0.68 F6000.0
G1 X14.25 Y10.0 Z0.68 F6000.0
G1 X14.32 Y10.65 Z0.68 F6000.0
G1 X14.51 Y11.28 Z0.68 F6000.0
G1 X14.82 Y11.86 Z0.68 F6000.0
G1 X15.23 Y12.37 Z0.68 F6000.0
G1 X15.74 Y12.78 Z0.68 F6000.0
G1 X16.32 Y13.09 Z0.68 F6000.0
G1 X16.95 Y13.28 Z0.68 F6000.0
G1 X17.6 Y13.35 Z0.68 F6000.0
G1 X18.25 Y13.28 Z0.68 F6000.0
G1 X18.88 Y13.09 Z0.68 F6000.0
G1 X19.46 Y12.78 Z0.68 F6000.0
G1 X19.96 Y12.37 Z0.68 F6000.0
G1 X20.38 Y11.86 Z0.68 F6000.0
G1 X20.69 Y11.28 Z0.68 F6000.0
G1 X20.88 Y10.65 Z0.68 F6000.0
G1 X20.95 Y10.0 Z0.68 F6000.0
G1 X20.88 Y9.35 Z0.68 F6000.0
G1 X20.69 Y8.72 Z0.68 F6000.0
G1 X20.38 Y8.14 Z0.68 F6000.0
G1 X19.96 Y7.63 Z0.68 F6000.0
G1 X19.46 Y7.22 Z0.68 F6000.0
G1 X18.88 Y6.91 Z0.68 F6000.0
G1 X18.25 Y6.72 Z0.68 F6000.0
G1 X17.6 Y6.65 Z0.68 F6000.0
G1 X16.95 Y6.72 Z0.68 F6000.0
M103
(</perimeter>)
(</boundaryPerimeter>)
(</surroundingLoop>)
(<loop> inner )
G1 X16.87 Y6.33 Z0.68 F6000.0
M101
G1 X16.17 Y6.54 Z0.68 F6000.0
G1 X15.52 Y6.89 Z0.68 F6000.0
G1 X14.95 Y7.35 Z0.68 F6000.0
G1 X14.49 Y7.92 Z0.68 F6000.0
G1 X14.14 Y8.57 Z0.68 F6000.0
G1 X13.93 Y9.27 Z0.68 F6000.0
G1 X13.86 Y10.0 Z0.68 F6000.0
G1 X13.93 Y10.73 Z0.68 F6000.0
G1 X14.14 Y11.43 Z0.68 F6000.0
G1 X14.49 Y12.08 Z0.68 F6000.0
G1 X14.95 Y12.65 Z0.68 F6000.0
G1 X15.52 Y13.11 Z0.68 F6000.0
G1 X16.17 Y13.46 Z0.68 F6000.0
G1 X16.87 Y13.67 Z0.68 F6000.0
G1 X17.6 Y13.74 Z0.68 F6000.0
G1 X18.33 Y13.67 Z0.68 F6000.0
G1 X19.03 Y13.46 Z0.68 F6000.0
G1 X19.68 Y13.11 Z0.68 F6000.0
G1 X20.25 Y12.65 Z0.68 F6000.0
G1 X20.71 Y12.08 Z0.68 F6000.0
G1 X21.06 Y11.43 Z0.68 F6000.0
G1 X21.27 Y10.73 Z0.68 F6000.0
G1 X21.34 Y10.0 Z0.68 F6000.0
G1 X21.27 Y9.27 Z0.68 F6000.0
G1 X21.06 Y8.57 Z0.68 F6000.0
G1 X20.71 Y7.92 Z0.68 F6000.0
G1 X20.25 Y7.35 Z0.68 F6000.0
G1 X19.68 Y6.89 Z0.68 F6000.0
G1 X19.03 Y6.54 Z0.68 F6000.0
G1 X18.36 Y6.33 Z0.68 F6000.0
M108 R30.0
M102
G1 X18.33 Y6.33 Z0.68 F6000.0
G1 X17.6 Y6.25 Z0.68 F6000.0
G1 X16.87 Y6.33 Z0.68 F6000.0
M108 R10.26
M103
(</loop>)
(<loop> inner )
G1 X-12.33 Y9.12 Z0.68 F6000.0
M108 R30.0
M101
G1 X-13.93 Y9.27 Z0.68 F6000.0
M108 R10.26
G1 X-14.14 Y8.57 Z0.68 F6000.0
G1 X-14.49 Y7.92 Z0.68 F6000.0
G1 X-14.95 Y7.35 Z0.68 F6000.0
G1 X-15.52 Y6.89 Z0.68 F6000.0
G1 X-16.17 Y6.54 Z0.68 F6000.0
G1 X-16.87 Y6.33 Z0.68 F6000.0
G1 X-17.6 Y6.25 Z0.68 F6000.0
G1 X-18.33 Y6.33 Z0.68 F6000.0
G1 X-19.03 Y6.54 Z0.68 F6000.0
G1 X-19.68 Y6.89 Z0.68 F6000.0
G1 X-20.25 Y7.35 Z0.68 F6000.0
G1 X-20.71 Y7.92 Z0.68 F6000.0
G1 X-21.06 Y8.57 Z0.68 F6000.0
G1 X-21.27 Y9.27 Z0.68 F6000.0
G1 X-21.34 Y10.0 Z0.68 F6000.0
G1 X-21.27 Y10.73 Z0.68 F6000.0
G1 X-21.06 Y11.43 Z0.68 F6000.0
G1 X-20.71 Y12.08 Z0.68 F6000.0
G1 X-20.25 Y12.65 Z0.68 F6000.0
G1 X-19.68 Y13.11 Z0.68 F6000.0
G1 X-19.03 Y13.46 Z0.68 F6000.0
G1 X-18.33 Y13.67 Z0.68 F6000.0
G1 X-17.6 Y13.74 Z0.68 F6000.0
G1 X-16.87 Y13.67 Z0.68 F6000.0
G1 X-16.17 Y13.46 Z0.68 F6000.0
G1 X-15.52 Y13.11 Z0.68 F6000.0
G1 X-14.95 Y12.65 Z0.68 F6000.0
G1 X-14.49 Y12.08 Z0.68 F6000.0
G1 X-14.14 Y11.43 Z0.68 F6000.0
G1 X-13.94 Y10.76 Z0.68 F6000.0
M108 R30.0
M102
G1 X-13.93 Y10.73 Z0.68 F6000.0
G1 X-13.86 Y10.0 Z0.68 F6000.0
G1 X-13.93 Y9.27 Z0.68 F6000.0
M108 R10.26
M103
(</loop>)
(<loop> inner )
G1 X13.12 Y-7.09 Z0.68 F6000.0
M108 R30.0
M101
G1 X14.49 Y-7.92 Z0.68 F6000.0
M108 R10.26
G1 X14.95 Y-7.35 Z0.68 F6000.0
G1 X15.52 Y-6.89 Z0.68 F6000.0
G1 X16.17 Y-6.54 Z0.68 F6000.0
G1 X16.87 Y-6.33 Z0.68 F6000.0
G1 X17.6 Y-6.25 Z0.68 F6000.0
G1 X18.33 Y-6.33 Z0.68 F6000.0
G1 X19.03 Y-6.54 Z0.68 F6000.0
G1 X19.68 Y-6.89 Z0.68 F6000.0
G1 X20.25 Y-7.35 Z0.68 F6000.0
G1 X20.71 Y-7.92 Z0.68 F6000.0
G1 X21.06 Y-8.57 Z0.68 F6000.0
G1 X21.27 Y-9.27 Z0.68 F6000.0
G1 X21.34 Y-10.0 Z0.68 F6000.0
G1 X21.27 Y-10.73 Z0.68 F6000.0
G1 X21.06 Y-11.43 Z0.68 F6000.0
G1 X20.71 Y-12.08 Z0.68 F6000.0
G1 X20.25 Y-12.65 Z0.68 F6000.0
G1 X19.68 Y-13.11 Z0.68 F6000.0
G1 X19.03 Y-13.46 Z0.68 F6000.0
G1 X18.33 Y-13.67 Z0.68 F6000.0
G1 X17.6 Y-13.74 Z0.68 F6000.0
G1 X16.87 Y-13.67 Z0.68 F6000.0
G1 X16.17 Y-13.46 Z0.68 F6000.0
G1 X15.52 Y-13.11 Z0.68 F6000.0
G1 X14.95 Y-12.65 Z0.68 F6000.0
G1 X14.49 Y-12.08 Z0.68 F6000.0
G1 X14.14 Y-11.43 Z0.68 F6000.0
G1 X13.93 Y-10.73 Z0.68 F6000.0
G1 X13.86 Y-10.0 Z0.68 F6000.0
G1 X13.92 Y-9.3 Z0.68 F6000.0
M108 R30.0
M102
G1 X13.93 Y-9.27 Z0.68 F6000.0
G1 X14.14 Y-8.57 Z0.68 F6000.0
G1 X14.49 Y-7.92 Z0.68 F6000.0
M108 R10.26
M103
(</loop>)
(<loop> inner )
G1 X-12.26 Y-9.88 Z0.68 F6000.0
M108 R30.0
M101
G1 X-13.86 Y-10.0 Z0.68 F6000.0
M108 R10.26
G1 X-13.93 Y-10.73 Z0.68 F6000.0
G1 X-14.14 Y-11.43 Z0.68 F6000.0
G1 X-14.49 Y-12.08 Z0.68 F6000.0
G1 X-14.95 Y-12.65 Z0.68 F6000.0
G1 X-15.52 Y-13.11 Z0.68 F6000.0
G1 X-16.17 Y-13.46 Z0.68 F6000.0
G1 X-16.87 Y-13.67 Z0.68 F6000.0
G1 X-17.6 Y-13.74 Z0.68 F6000.0
G1 X-18.33 Y-13.67 Z0.68 F6000.0
G1 X-19.03 Y-13.46 Z0.68 F6000.0
G1 X-19.68 Y-13.11 Z0.68 F6000.0
G1 X-20.25 Y-12.65 Z0.68 F6000.0
G1 X-20.71 Y-12.08 Z0.68 F6000.0
G1 X-21.06 Y-11.43 Z0.68 F6000.0
G1 X-21.27 Y-10.73 Z0.68 F6000.0
G1 X-21.34 Y-10.0 Z0.68 F6000.0
G1 X-21.27 Y-9.27 Z0.68 F6000.0
G1 X-21.06 Y-8.57 Z0.68 F6000.0
G1 X-20.71 Y-7.92 Z0.68 F6000.0
G1 X-20.25 Y-7.35 Z0.68 F6000.0
G1 X-19.68 Y-6.89 Z0.68 F6000.0
G1 X-19.03 Y-6.54 Z0.68 F6000.0
G1 X-18.33 Y-6.33 Z0.68 F6000.0
G1 X-17.6 Y-6.25 Z0.68 F6000.0
G1 X-16.87 Y-6.33 Z0.68 F6000.0
G1 X-16.17 Y-6.54 Z0.68 F6000.0
G1 X-15.52 Y-6.89 Z0.68 F6000.0
G1 X-14.95 Y-7.35 Z0.68 F6000.0
G1 X-14.49 Y-7.92 Z0.68 F6000.0
G1 X-14.15 Y-8.54 Z0.68 F6000.0
M108 R30.0
M102
G1 X-14.14 Y-8.57 Z0.68 F6000.0
G1 X-13.93 Y-9.27 Z0.68 F6000.0
G1 X-13.86 Y-10.0 Z0.68 F6000.0
M108 R10.26
M103
(</loop>)
(<loop> outer )
G1 X-13.88 Y-12.7 Z0.68 F6000.0
M108 R30.0
M101
G1 X-13.9 Y-14.3 Z0.68 F6000.0
M108 R10.26
G1 X38.05 Y-14.3 Z0.68 F6000.0
G1 X38.05 Y14.3 Z0.68 F6000.0
G1 X-38.05 Y14.3 Z0.68 F6000.0
G1 X-38.05 Y-14.3 Z0.68 F6000.0
G1 X-15.4 Y-14.3 Z0.68 F6000.0
M108 R30.0
M102
G1 X-13.9 Y-14.3 Z0.68 F6000.0
M108 R10.26
M103
(</loop>)
G1 X-13.92 Y-13.25 Z0.68 F6000.0
M108 R30.0
M101
G1 X-13.96 Y-11.65 Z0.68 F6000.0
M108 R10.26
G1 X-13.96 Y-14.0 Z0.68 F6000.0
M103
G1 X-13.5 Y-14.0 Z0.68 F6000.0
M101
G1 X-13.5 Y14.0 Z0.68 F6000.0
M103
G1 X-13.96 Y14.0 Z0.68 F6000.0
M101
G1 X-13.96 Y11.65 Z0.68 F6000.0
M103
G1 X-14.43 Y12.42 Z0.68 F6000.0
M101
G1 X-14.43 Y14.0 Z0.68 F6000.0
M103
G1 X-14.89 Y14.0 Z0.68 F6000.0
M101
G1 X-14.89 Y12.93 Z0.68 F6000.0
G1 X-15.36 Y13.32 Z0.68 F6000.0
G1 X-15.36 Y14.0 Z0.68 F6000.0
G1 X-15.82 Y13.57 Z0.68 F6000.0
G1 X-15.82 Y14.0 Z0.68 F6000.0
G1 X-16.29 Y13.77 Z0.68 F6000.0
G1 X-16.29 Y14.0 Z0.68 F6000.0
M103
G1 X-16.75 Y14.0 Z0.68 F6000.0
M101
G1 X-16.75 Y13.91 Z0.68 F6000.0
M103
G1 X-17.22 Y13.97 Z0.68 F6000.0
M101
G1 X-17.22 Y14.0 Z0.68 F6000.0
M103
G1 X-18.15 Y14.0 Z0.68 F6000.0
M101
G1 X-18.15 Y13.95 Z0.68 F6000.0
M103
G1 X-18.62 Y14.0 Z0.68 F6000.0
M101
G1 X-18.62 Y13.86 Z0.68 F6000.0
M103
G1 X-19.08 Y13.72 Z0.68 F6000.0
M101
G1 X-19.08 Y14.0 Z0.68 F6000.0
G1 X-19.55 Y13.48 Z0.68 F6000.0
G1 X-19.55 Y14.0 Z0.68 F6000.0
G1 X-20.01 Y13.18 Z0.68 F6000.0
G1 X-20.01 Y14.0 Z0.68 F6000.0
M103
G1 X-20.48 Y14.0 Z0.68 F6000.0
M101
G1 X-20.48 Y12.78 Z0.68 F6000.0
G1 X-20.94 Y12.2 Z0.68 F6000.0
G1 X-20.94 Y14.0 Z0.68 F6000.0
M103
G1 X-21.41 Y14.0 Z0.68 F6000.0
M101
G1 X-21.41 Y12.67 Z0.68 F6000.0
M108 R30.0
M102
G1 X-21.41 Y11.17 Z0.68 F6000.0
M108 R10.26
M103
G1 X-21.41 Y10.43 Z0.68 F6000.0
M108 R30.0
M101
G1 X-21.41 Y8.83 Z0.68 F6000.0
M108 R10.26
G1 X-21.41 Y-7.33 Z0.68 F6000.0
M108 R30.0
M102
G1 X-21.41 Y-8.83 Z0.68 F6000.0
M108 R10.26
M103
M108 R30.0
M101
G1 X-20.94 Y-7.8 Z0.68 F4224.206
M108 R10.26
G1 X-20.94 Y7.8 Z0.68 F6000.0
G1 X-20.48 Y7.22 Z0.68 F6000.0
G1 X-20.48 Y-7.22 Z0.68 F6000.0
G1 X-20.01 Y-6.82 Z0.68 F6000.0
G1 X-20.01 Y6.82 Z0.68 F6000.0
M103
G1 X-19.55 Y6.52 Z0.68 F6000.0
M101
G1 X-19.55 Y-6.52 Z0.68 F6000.0
M103
G1 X-19.08 Y-6.28 Z0.68 F6000.0
M101
G1 X-19.08 Y6.28 Z0.68 F6000.0
M103
G1 X-18.62 Y6.14 Z0.68 F6000.0
M101
G1 X-18.62 Y-6.14 Z0.68 F6000.0
M103
G1 X-18.15 Y-6.05 Z0.68 F6000.0
M101
G1 X-18.15 Y6.05 Z0.68 F6000.0
G1 X-17.69 Y6.0 Z0.68 F6000.0
G1 X-17.69 Y-6.0 Z0.68 F6000.0
G1 X-17.22 Y-6.03 Z0.68 F6000.0
G1 X-17.22 Y6.03 Z0.68 F6000.0
M103
G1 X-16.75 Y6.09 Z0.68 F6000.0
M101
G1 X-16.75 Y-6.09 Z0.68 F6000.0
M103
G1 X-16.29 Y-6.23 Z0.68 F6000.0
M101
G1 X-16.29 Y6.23 Z0.68 F6000.0
G1 X-15.82 Y6.43 Z0.68 F6000.0
G1 X-15.82 Y-6.43 Z0.68 F6000.0
G1 X-15.36 Y-6.68 Z0.68 F6000.0
G1 X-15.36 Y6.68 Z0.68 F6000.0
G1 X-14.89 Y7.07 Z0.68 F6000.0
G1 X-14.89 Y-7.07 Z0.68 F6000.0
G1 X-14.43 Y-7.58 Z0.68 F6000.0
G1 X-14.43 Y7.58 Z0.68 F6000.0
M103
G1 X-13.96 Y8.35 Z0.68 F6000.0
M101
G1 X-13.96 Y-6.85 Z0.68 F6000.0
M108 R30.0
M102
G1 X-13.96 Y-8.35 Z0.68 F6000.0
M108 R10.26
M103
G1 X-14.3 Y-12.4 Z0.68 F6000.0
M108 R30.0
M101
G1 X-14.43 Y-14.0 Z0.68 F6000.0
M108 R10.26
G1 X-14.43 Y-12.42 Z0.68 F6000.0
G1 X-14.89 Y-12.93 Z0.68 F6000.0
G1 X-14.89 Y-14.0 Z0.68 F6000.0
G1 X-15.36 Y-13.32 Z0.68 F6000.0
G1 X-15.36 Y-14.0 Z0.68 F6000.0
G1 X-15.82 Y-13.57 Z0.68 F6000.0
G1 X-15.82 Y-14.0 Z0.68 F6000.0
G1 X-16.29 Y-13.77 Z0.68 F6000.0
G1 X-16.29 Y-14.0 Z0.68 F6000.0
M103
G1 X-16.75 Y-14.0 Z0.68 F6000.0
M101
G1 X-16.75 Y-13.91 Z0.68 F6000.0
M103
G1 X-17.22 Y-13.97 Z0.68 F6000.0
M101
G1 X-17.22 Y-14.0 Z0.68 F6000.0
M103
G1 X-18.15 Y-14.0 Z0.68 F6000.0
M101
G1 X-18.15 Y-13.95 Z0.68 F6000.0
M103
G1 X-18.62 Y-13.86 Z0.68 F6000.0
M101
G1 X-18.62 Y-14.0 Z0.68 F6000.0
G1 X-19.08 Y-13.72 Z0.68 F6000.0
G1 X-19.08 Y-14.0 Z0.68 F6000.0
G1 X-19.55 Y-13.48 Z0.68 F6000.0
G1 X-19.55 Y-14.0 Z0.68 F6000.0
G1 X-20.01 Y-13.18 Z0.68 F6000.0
G1 X-20.01 Y-14.0 Z0.68 F6000.0
M103
G1 X-20.48 Y-14.0 Z0.68 F6000.0
M101
G1 X-20.48 Y-12.78 Z0.68 F6000.0
G1 X-20.94 Y-12.2 Z0.68 F6000.0
G1 X-20.94 Y-14.0 Z0.68 F6000.0
M103
G1 X-21.41 Y-14.0 Z0.68 F6000.0
M101
G1 X-21.41 Y-12.67 Z0.68 F6000.0
M108 R30.0
M102
G1 X-21.41 Y-11.17 Z0.68 F6000.0
M108 R10.26
M103
G1 X-21.61 Y-12.42 Z0.68 F6000.0
M108 R30.0
M101
G1 X-21.88 Y-14.0 Z0.68 F6000.0
M108 R10.26
G1 X-21.88 Y14.0 Z0.68 F6000.0
M103
G1 X-22.34 Y14.0 Z0.68 F6000.0
M101
G1 X-22.34 Y-14.0 Z0.68 F6000.0
M103
G1 X-22.81 Y-14.0 Z0.68 F6000.0
M101
G1 X-22.81 Y14.0 Z0.68 F6000.0
M103
G1 X-23.27 Y14.0 Z0.68 F6000.0
M101
G1 X-23.27 Y-14.0 Z0.68 F6000.0
M103
G1 X-23.74 Y-14.0 Z0.68 F6000.0
M101
G1 X-23.74 Y14.0 Z0.68 F6000.0
M103
G1 X-24.2 Y14.0 Z0.68 F6000.0
M101
G1 X-24.2 Y-14.0 Z0.68 F6000.0
M103
G1 X-24.67 Y-14.0 Z0.68 F6000.0
M101
G1 X-24.67 Y14.0 Z0.68 F6000.0
M103
G1 X-25.13 Y14.0 Z0.68 F6000.0
M101
G1 X-25.13 Y-14.0 Z0.68 F6000.0
M103
G1 X-25.6 Y-14.0 Z0.68 F6000.0
M101
G1 X-25.6 Y14.0 Z0.68 F6000.0
M103
G1 X-26.06 Y14.0 Z0.68 F6000.0
M101
G1 X-26.06 Y-14.0 Z0.68 F6000.0
M103
G1 X-26.53 Y-14.0 Z0.68 F6000.0
M101
G1 X-26.53 Y14.0 Z0.68 F6000.0
M103
G1 X-26.99 Y14.0 Z0.68 F6000.0
M101
G1 X-26.99 Y-14.0 Z0.68 F6000.0
M103
G1 X-27.46 Y-14.0 Z0.68 F6000.0
M101
G1 X-27.46 Y14.0 Z0.68 F6000.0
M103
G1 X-27.93 Y14.0 Z0.68 F6000.0
M101
G1 X-27.93 Y-14.0 Z0.68 F6000.0
M103
G1 X-28.39 Y-14.0 Z0.68 F6000.0
M101
G1 X-28.39 Y14.0 Z0.68 F6000.0
M103
G1 X-28.86 Y14.0 Z0.68 F6000.0
M101
G1 X-28.86 Y-14.0 Z0.68 F6000.0
M103
G1 X-29.32 Y-14.0 Z0.68 F6000.0
M101
G1 X-29.32 Y14.0 Z0.68 F6000.0
M103
G1 X-29.79 Y14.0 Z0.68 F6000.0
M101
G1 X-29.79 Y-14.0 Z0.68 F6000.0
M103
G1 X-30.25 Y-14.0 Z0.68 F6000.0
M101
G1 X-30.25 Y14.0 Z0.68 F6000.0
M103
G1 X-30.72 Y14.0 Z0.68 F6000.0
M101
G1 X-30.72 Y-14.0 Z0.68 F6000.0
M103
G1 X-31.18 Y-14.0 Z0.68 F6000.0
M101
G1 X-31.18 Y14.0 Z0.68 F6000.0
M103
G1 X-31.65 Y14.0 Z0.68 F6000.0
M101
G1 X-31.65 Y-14.0 Z0.68 F6000.0
M103
G1 X-32.11 Y-14.0 Z0.68 F6000.0
M101
G1 X-32.11 Y14.0 Z0.68 F6000.0
M103
G1 X-32.58 Y14.0 Z0.68 F6000.0
M101
G1 X-32.58 Y-14.0 Z0.68 F6000.0
M103
G1 X-33.05 Y-14.0 Z0.68 F6000.0
M101
G1 X-33.05 Y14.0 Z0.68 F6000.0
M103
G1 X-33.51 Y14.0 Z0.68 F6000.0
M101
G1 X-33.51 Y-14.0 Z0.68 F6000.0
M103
G1 X-33.98 Y-14.0 Z0.68 F6000.0
M101
G1 X-33.98 Y14.0 Z0.68 F6000.0
M103
G1 X-34.44 Y14.0 Z0.68 F6000.0
M101
G1 X-34.44 Y-14.0 Z0.68 F6000.0
M103
G1 X-34.91 Y-14.0 Z0.68 F6000.0
M101
G1 X-34.91 Y14.0 Z0.68 F6000.0
M103
G1 X-35.37 Y14.0 Z0.68 F6000.0
M101
G1 X-35.37 Y-14.0 Z0.68 F6000.0
M103
G1 X-35.84 Y-14.0 Z0.68 F6000.0
M101
G1 X-35.84 Y14.0 Z0.68 F6000.0
M103
G1 X-36.3 Y14.0 Z0.68 F6000.0
M101
G1 X-36.3 Y-14.0 Z0.68 F6000.0
M103
G1 X-36.77 Y-14.0 Z0.68 F6000.0
M101
G1 X-36.77 Y14.0 Z0.68 F6000.0
M103
G1 X-37.23 Y14.0 Z0.68 F6000.0
M101
G1 X-37.23 Y-14.0 Z0.68 F6000.0
M103
G1 X-37.7 Y-14.0 Z0.68 F6000.0
M101
G1 X-37.7 Y12.5 Z0.68 F6000.0
M108 R30.0
M102
G1 X-37.7 Y14.0 Z0.68 F6000.0
M108 R10.26
M103
G1 X-14.63 Y14.0 Z0.68 F6000.0
M108 R30.0
M101
G1 X-13.03 Y14.0 Z0.68 F6000.0
M108 R10.26
G1 X-13.03 Y-14.0 Z0.68 F6000.0
M103
G1 X-12.57 Y-14.0 Z0.68 F6000.0
M101
G1 X-12.57 Y14.0 Z0.68 F6000.0
M103
G1 X-12.1 Y14.0 Z0.68 F6000.0
M101
G1 X-12.1 Y-14.0 Z0.68 F6000.0
M103
G1 X-11.64 Y-14.0 Z0.68 F6000.0
M101
G1 X-11.64 Y14.0 Z0.68 F6000.0
M103
G1 X-11.17 Y14.0 Z0.68 F6000.0
M101
G1 X-11.17 Y-14.0 Z0.68 F6000.0
M103
G1 X-10.71 Y-14.0 Z0.68 F6000.0
M101
G1 X-10.71 Y14.0 Z0.68 F6000.0
M103
G1 X-10.24 Y14.0 Z0.68 F6000.0
M101
G1 X-10.24 Y-14.0 Z0.68 F6000.0
M103
G1 X-9.77 Y-14.0 Z0.68 F6000.0
M101
G1 X-9.77 Y14.0 Z0.68 F6000.0
M103
G1 X-9.31 Y14.0 Z0.68 F6000.0
M101
G1 X-9.31 Y-14.0 Z0.68 F6000.0
M103
G1 X-8.84 Y-14.0 Z0.68 F6000.0
M101
G1 X-8.84 Y14.0 Z0.68 F6000.0
M103
G1 X-8.38 Y14.0 Z0.68 F6000.0
M101
G1 X-8.38 Y-14.0 Z0.68 F6000.0
M103
G1 X-7.91 Y-14.0 Z0.68 F6000.0
M101
G1 X-7.91 Y14.0 Z0.68 F6000.0
M103
G1 X-7.45 Y14.0 Z0.68 F6000.0
M101
G1 X-7.45 Y-14.0 Z0.68 F6000.0
M103
G1 X-6.98 Y-14.0 Z0.68 F6000.0
M101
G1 X-6.98 Y14.0 Z0.68 F6000.0
M103
G1 X-6.52 Y14.0 Z0.68 F6000.0
M101
G1 X-6.52 Y-14.0 Z0.68 F6000.0
M103
G1 X-6.05 Y-14.0 Z0.68 F6000.0
M101
G1 X-6.05 Y14.0 Z0.68 F6000.0
M103
G1 X-5.58 Y14.0 Z0.68 F6000.0
M101
G1 X-5.58 Y-14.0 Z0.68 F6000.0
M103
G1 X-5.12 Y-14.0 Z0.68 F6000.0
M101
G1 X-5.12 Y14.0 Z0.68 F6000.0
M103
G1 X-4.65 Y14.0 Z0.68 F6000.0
M101
G1 X-4.65 Y-14.0 Z0.68 F6000.0
M103
G1 X-4.19 Y-14.0 Z0.68 F6000.0
M101
G1 X-4.19 Y14.0 Z0.68 F6000.0
M103
G1 X-3.72 Y14.0 Z0.68 F6000.0
M101
G1 X-3.72 Y-14.0 Z0.68 F6000.0
M103
G1 X-3.26 Y-14.0 Z0.68 F6000.0
M101
G1 X-3.26 Y14.0 Z0.68 F6000.0
M103
G1 X-2.79 Y14.0 Z0.68 F6000.0
M101
G1 X-2.79 Y-14.0 Z0.68 F6000.0
M103
G1 X-2.33 Y-14.0 Z0.68 F6000.0
M101
G1 X-2.33 Y14.0 Z0.68 F6000.0
M103
G1 X-1.86 Y14.0 Z0.68 F6000.0
M101
G1 X-1.86 Y-14.0 Z0.68 F6000.0
M103
G1 X-1.4 Y-14.0 Z0.68 F6000.0
M101
G1 X-1.4 Y14.0 Z0.68 F6000.0
M103
G1 X-0.93 Y14.0 Z0.68 F6000.0
M101
G1 X-0.93 Y-14.0 Z0.68 F6000.0
M103
G1 X-0.47 Y-14.0 Z0.68 F6000.0
M101
G1 X-0.47 Y14.0 Z0.68 F6000.0
M103
G1 X0.0 Y14.0 Z0.68 F6000.0
M101
G1 X-0.0 Y-14.0 Z0.68 F6000.0
M103
G1 X0.47 Y-14.0 Z0.68 F6000.0
M101
G1 X0.47 Y14.0 Z0.68 F6000.0
M103
G1 X0.93 Y14.0 Z0.68 F6000.0
M101
G1 X0.93 Y-14.0 Z0.68 F6000.0
M103
G1 X1.4 Y-14.0 Z0.68 F6000.0
M101
G1 X1.4 Y14.0 Z0.68 F6000.0
M103
G1 X1.86 Y14.0 Z0.68 F6000.0
M101
G1 X1.86 Y-14.0 Z0.68 F6000.0
M103
G1 X2.33 Y-14.0 Z0.68 F6000.0
M101
G1 X2.33 Y14.0 Z0.68 F6000.0
M103
G1 X2.79 Y14.0 Z0.68 F6000.0
M101
G1 X2.79 Y-14.0 Z0.68 F6000.0
M103
G1 X3.26 Y-14.0 Z0.68 F6000.0
M101
G1 X3.26 Y14.0 Z0.68 F6000.0
M103
G1 X3.72 Y14.0 Z0.68 F6000.0
M101
G1 X3.72 Y-14.0 Z0.68 F6000.0
M103
G1 X4.19 Y-14.0 Z0.68 F6000.0
M101
G1 X4.19 Y14.0 Z0.68 F6000.0
M103
G1 X4.65 Y14.0 Z0.68 F6000.0
M101
G1 X4.65 Y-14.0 Z0.68 F6000.0
M103
G1 X5.12 Y-14.0 Z0.68 F6000.0
M101
G1 X5.12 Y14.0 Z0.68 F6000.0
M103
G1 X5.58 Y14.0 Z0.68 F6000.0
M101
G1 X5.58 Y-14.0 Z0.68 F6000.0
M103
G1 X6.05 Y-14.0 Z0.68 F6000.0
M101
G1 X6.05 Y14.0 Z0.68 F6000.0
M103
G1 X6.52 Y14.0 Z0.68 F6000.0
M101
G1 X6.52 Y-14.0 Z0.68 F6000.0
M103
G1 X6.98 Y-14.0 Z0.68 F6000.0
M101
G1 X6.98 Y14.0 Z0.68 F6000.0
M103
G1 X7.45 Y14.0 Z0.68 F6000.0
M101
G1 X7.45 Y-14.0 Z0.68 F6000.0
M103
G1 X7.91 Y-14.0 Z0.68 F6000.0
M101
G1 X7.91 Y14.0 Z0.68 F6000.0
M103
G1 X8.38 Y14.0 Z0.68 F6000.0
M101
G1 X8.38 Y-14.0 Z0.68 F6000.0
M103
G1 X8.84 Y-14.0 Z0.68 F6000.0
M101
G1 X8.84 Y14.0 Z0.68 F6000.0
M103
G1 X9.31 Y14.0 Z0.68 F6000.0
M101
G1 X9.31 Y-14.0 Z0.68 F6000.0
M103
G1 X9.77 Y-14.0 Z0.68 F6000.0
M101
G1 X9.77 Y14.0 Z0.68 F6000.0
M103
G1 X10.24 Y14.0 Z0.68 F6000.0
M101
G1 X10.24 Y-14.0 Z0.68 F6000.0
M103
G1 X10.71 Y-14.0 Z0.68 F6000.0
M101
G1 X10.71 Y14.0 Z0.68 F6000.0
M103
G1 X11.17 Y14.0 Z0.68 F6000.0
M101
G1 X11.17 Y-14.0 Z0.68 F6000.0
M103
G1 X11.64 Y-14.0 Z0.68 F6000.0
M101
G1 X11.64 Y14.0 Z0.68 F6000.0
M103
G1 X12.1 Y14.0 Z0.68 F6000.0
M101
G1 X12.1 Y-14.0 Z0.68 F6000.0
M103
G1 X12.57 Y-14.0 Z0.68 F6000.0
M101
G1 X12.57 Y14.0 Z0.68 F6000.0
M103
G1 X13.03 Y14.0 Z0.68 F6000.0
M101
G1 X13.03 Y-12.5 Z0.68 F6000.0
M108 R30.0
M102
G1 X13.03 Y-14.0 Z0.68 F6000.0
M108 R10.26
M103
G1 X13.47 Y12.4 Z0.68 F6000.0
M108 R30.0
M101
G1 X13.5 Y14.0 Z0.68 F6000.0
M108 R10.26
G1 X13.5 Y-14.0 Z0.68 F6000.0
M103
G1 X13.96 Y-14.0 Z0.68 F6000.0
M101
G1 X13.96 Y-11.65 Z0.68 F6000.0
M103
G1 X14.43 Y-12.42 Z0.68 F6000.0
M101
G1 X14.43 Y-14.0 Z0.68 F6000.0
M103
G1 X14.89 Y-14.0 Z0.68 F6000.0
M101
G1 X14.89 Y-12.93 Z0.68 F6000.0
G1 X15.36 Y-13.32 Z0.68 F6000.0
G1 X15.36 Y-14.0 Z0.68 F6000.0
G1 X15.82 Y-13.57 Z0.68 F6000.0
G1 X15.82 Y-14.0 Z0.68 F6000.0
G1 X16.29 Y-13.77 Z0.68 F6000.0
G1 X16.29 Y-14.0 Z0.68 F6000.0
M103
G1 X16.75 Y-14.0 Z0.68 F6000.0
M101
G1 X16.75 Y-13.91 Z0.68 F6000.0
M103
G1 X17.22 Y-13.97 Z0.68 F6000.0
M101
G1 X17.22 Y-14.0 Z0.68 F6000.0
M103
G1 X18.15 Y-14.0 Z0.68 F6000.0
M101
G1 X18.15 Y-13.95 Z0.68 F6000.0
M103
G1 X18.62 Y-14.0 Z0.68 F6000.0
M101
G1 X18.62 Y-13.86 Z0.68 F6000.0
M103
G1 X19.08 Y-13.72 Z0.68 F6000.0
M101
G1 X19.08 Y-14.0 Z0.68 F6000.0
G1 X19.55 Y-13.48 Z0.68 F6000.0
G1 X19.55 Y-14.0 Z0.68 F6000.0
G1 X20.01 Y-13.18 Z0.68 F6000.0
G1 X20.01 Y-14.0 Z0.68 F6000.0
M103
G1 X20.48 Y-14.0 Z0.68 F6000.0
M101
G1 X20.48 Y-12.78 Z0.68 F6000.0
G1 X20.94 Y-12.2 Z0.68 F6000.0
G1 X20.94 Y-14.0 Z0.68 F6000.0
M103
G1 X21.41 Y-14.0 Z0.68 F6000.0
M101
G1 X21.41 Y-12.67 Z0.68 F6000.0
M108 R30.0
M102
G1 X21.41 Y-11.17 Z0.68 F6000.0
M108 R10.26
M103
G1 X21.41 Y-10.43 Z0.68 F6000.0
M108 R30.0
M101
G1 X21.41 Y-8.83 Z0.68 F6000.0
M108 R10.26
G1 X21.41 Y7.33 Z0.68 F6000.0
M108 R30.0
M102
G1 X21.41 Y8.83 Z0.68 F6000.0
M108 R10.26
M103
M108 R30.0
M101
G1 X20.94 Y7.8 Z0.68 F4224.206
M108 R10.26
G1 X20.94 Y-7.8 Z0.68 F6000.0
G1 X20.48 Y-7.22 Z0.68 F6000.0
G1 X20.48 Y7.22 Z0.68 F6000.0
G1 X20.01 Y6.82 Z0.68 F6000.0
G1 X20.01 Y-6.82 Z0.68 F6000.0
M103
G1 X19.55 Y-6.52 Z0.68 F6000.0
M101
G1 X19.55 Y6.52 Z0.68 F6000.0
M103
G1 X19.08 Y6.28 Z0.68 F6000.0
M101
G1 X19.08 Y-6.28 Z0.68 F6000.0
M103
G1 X18.62 Y-6.14 Z0.68 F6000.0
M101
G1 X18.62 Y6.14 Z0.68 F6000.0
M103
G1 X18.15 Y6.05 Z0.68 F6000.0
M101
G1 X18.15 Y-6.05 Z0.68 F6000.0
G1 X17.69 Y-6.0 Z0.68 F6000.0
G1 X17.69 Y6.0 Z0.68 F6000.0
G1 X17.22 Y6.03 Z0.68 F6000.0
G1 X17.22 Y-6.03 Z0.68 F6000.0
M103
G1 X16.75 Y-6.09 Z0.68 F6000.0
M101
G1 X16.75 Y6.09 Z0.68 F6000.0
M103
G1 X16.29 Y6.23 Z0.68 F6000.0
M101
G1 X16.29 Y-6.23 Z0.68 F6000.0
G1 X15.82 Y-6.43 Z0.68 F6000.0
G1 X15.82 Y6.43 Z0.68 F6000.0
G1 X15.36 Y6.68 Z0.68 F6000.0
G1 X15.36 Y-6.68 Z0.68 F6000.0
G1 X14.89 Y-7.07 Z0.68 F6000.0
G1 X14.89 Y7.07 Z0.68 F6000.0
G1 X14.43 Y7.58 Z0.68 F6000.0
G1 X14.43 Y-7.58 Z0.68 F6000.0
M103
G1 X13.96 Y-8.35 Z0.68 F6000.0
M101
G1 X13.96 Y6.85 Z0.68 F6000.0
M108 R30.0
M102
G1 X13.96 Y8.35 Z0.68 F6000.0
M108 R10.26
M103
G1 X13.96 Y12.4 Z0.68 F6000.0
M108 R30.0
M101
G1 X13.96 Y14.0 Z0.68 F6000.0
M108 R10.26
G1 X13.96 Y13.15 Z0.68 F6000.0
M108 R30.0
M102
G1 X13.96 Y11.65 Z0.68 F6000.0
M108 R10.26
M103
G1 X14.3 Y12.51 Z0.68 F6000.0
M108 R30.0
M101
G1 X14.89 Y14.0 Z0.68 F6000.0
M108 R10.26
G1 X14.89 Y12.93 Z0.68 F6000.0
G1 X14.43 Y12.42 Z0.68 F6000.0
G1 X14.43 Y12.5 Z0.68 F6000.0
M108 R30.0
M102
G1 X14.43 Y14.0 Z0.68 F6000.0
M108 R10.26
M103
G1 X14.69 Y14.0 Z0.68 F6000.0
M108 R30.0
M101
G1 X16.29 Y14.0 Z0.68 F6000.0
M108 R10.26
G1 X16.29 Y13.77 Z0.68 F6000.0
G1 X15.82 Y13.57 Z0.68 F6000.0
G1 X15.82 Y14.0 Z0.68 F6000.0
G1 X15.82 Y13.99 Z0.68 F6000.0
M108 R30.0
M102
G1 X15.36 Y13.32 Z0.68 F6000.0
G1 X15.36 Y14.0 Z0.68 F6000.0
M108 R10.26
M103
G1 X16.75 Y14.0 Z0.68 F6000.0
M101
G1 X16.75 Y13.91 Z0.68 F6000.0
M103
G1 X17.22 Y14.0 Z0.68 F6000.0
M101
G1 X17.22 Y13.97 Z0.68 F6000.0
M103
G1 X18.15 Y13.95 Z0.68 F6000.0
M101
G1 X18.15 Y14.0 Z0.68 F6000.0
M103
G1 X18.62 Y14.0 Z0.68 F6000.0
M101
G1 X18.62 Y13.86 Z0.68 F6000.0
M103
