; generated by Slic3r 0.7.1 on 2012-05-19 at 15:34:44

; layer_height = .21
; perimeters = 2
; solid_layers = 3
; fill_density = .25
; nozzle_diameter = .35
; filament_diameter = 1.75
; extrusion_multiplier = 1
; perimeter_speed = 50
; infill_speed = 100
; travel_speed = 130
; extrusion_width_ratio = 0
; scale = 1
; single wall width = 0.49mm

M190 S100 ; set bed temperature
M104 S225 ; set temperature
G28 ; home all axes
M109 S225 ; wait for temperature to be reached
G90 ; use absolute coordinates
G21 ; set units to millimeters
G92 E0 ; reset extrusion distance
M82 ; use absolute distances for extrusion
G1 Z0.210 F7800.000
G1 X80.696 Y74.190
G1 F1800.000 E1.50000
G1 X85.046 Y73.250 F2100.000 E1.67802
G1 X86.546 Y73.040 E1.73860
G1 X91.276 Y72.730 E1.92821
G1 X92.056 Y72.730 E1.95941
G1 X96.786 Y73.040 E2.14901
G1 X97.576 Y73.150 E2.18092
G1 X102.216 Y74.080 E2.37021
G1 X102.986 Y74.290 E2.40213
G1 X107.466 Y75.830 E2.59163
G1 X108.196 Y76.130 E2.62320
G1 X112.436 Y78.250 E2.81281
G1 X113.136 Y78.660 E2.84526
G1 X117.056 Y81.330 E3.03498
G1 X117.676 Y81.820 E3.06659
G1 X121.446 Y85.210 E3.26939
G1 X121.846 Y85.630 E3.29259
G1 X122.306 Y86.270 E3.32412
G1 X122.446 Y86.490 E3.33455
G1 X122.686 Y86.950 E3.35530
G1 X122.886 Y87.440 E3.37647
G1 X123.046 Y87.940 E3.39747
G1 X123.156 Y88.450 E3.41834
G1 X123.226 Y88.970 E3.43933
G1 X123.236 Y136.280 E5.33173
G1 X123.186 Y136.840 E5.35422
G1 X123.006 Y137.680 E5.38858
G1 X122.816 Y138.220 E5.41148
G1 X122.706 Y138.480 E5.42277
G1 X110.736 Y159.230 E6.38097
G1 X106.196 Y165.700 E6.69713
G1 X106.146 Y165.760 E6.70025
G1 X106.016 Y165.940 E6.70913
G1 X105.536 Y166.530 E6.73956
G1 X104.946 Y167.120 E6.77293
G1 X104.356 Y167.600 E6.80336
G1 X103.676 Y168.060 E6.83620
G1 X102.956 Y168.450 E6.86895
G1 X102.176 Y168.770 E6.90267
G1 X101.506 Y168.980 E6.93076
G1 X100.666 Y169.150 E6.96504
G1 X99.896 Y169.230 E6.99601
G1 X99.406 Y169.250 E7.01562
G1 X83.426 Y169.230 E7.65482
G1 X82.656 Y169.150 E7.68579
G1 X81.816 Y168.980 E7.72007
G1 X81.146 Y168.770 E7.74816
G1 X80.366 Y168.450 E7.78188
G1 X79.646 Y168.060 E7.81463
G1 X78.966 Y167.600 E7.84747
G1 X78.376 Y167.120 E7.87790
G1 X77.786 Y166.530 E7.91127
G1 X77.306 Y165.940 E7.94169
G1 X76.846 Y165.260 E7.97453
G1 X76.456 Y164.540 E8.00729
G1 X76.136 Y163.760 E8.04101
G1 X75.926 Y163.090 E8.06910
G1 X75.756 Y162.250 E8.10338
G1 X75.676 Y161.490 E8.13395
G1 X76.016 Y79.730 E11.40437
G1 X76.066 Y79.220 E11.42487
G1 X76.156 Y78.710 E11.44559
G1 X76.216 Y78.460 E11.45587
G1 X76.376 Y77.970 E11.47649
G1 X76.576 Y77.490 E11.49729
G1 X76.816 Y77.030 E11.51804
G1 X77.246 Y76.390 E11.54888
G1 X77.766 Y75.810 E11.58004
G1 X77.946 Y75.630 E11.59023
G1 X78.556 Y75.140 E11.62152
G1 X78.766 Y75.000 E11.63162
G1 X79.446 Y74.620 E11.66278
G1 X79.916 Y74.420 E11.68321
G1 X80.626 Y74.209 E11.71281
G1 F1800.000 E10.21281
G92 E0
G1 X82.444 Y80.389 F7800.000
G1 F1800.000 E1.50000
G1 X86.070 Y79.611 F2100.000 E1.64834
G1 X86.989 Y79.469 E1.68553
G1 X91.673 Y79.156 E1.87333
G1 X96.343 Y79.464 E2.06053
G1 X100.931 Y80.387 E2.24774
G1 X105.357 Y81.910 E2.43496
G1 X109.543 Y84.004 E2.62217
G1 X113.414 Y86.634 E2.80939
G1 X116.705 Y89.576 E2.98596
G1 X105.543 Y108.909 E3.87893
G1 X100.343 Y110.309 E4.09434
G1 X100.868 Y111.865 E4.16002
G1 X101.073 Y112.731 E4.19560
G1 X101.197 Y113.611 E4.23118
G1 X101.238 Y114.499 E4.26672
G1 X101.229 Y114.679 E4.27391
G1 X101.203 Y114.855 E4.28106
G1 X101.160 Y115.029 E4.28821
G1 X101.099 Y115.197 E4.29536
G1 X101.023 Y115.359 E4.30252
G1 X100.931 Y115.512 E4.30967
G1 X100.824 Y115.656 E4.31682
G1 X100.704 Y115.788 E4.32397
G1 X100.572 Y115.908 E4.33112
G1 X100.428 Y116.015 E4.33827
G1 X100.275 Y116.107 E4.34542
G1 X100.113 Y116.183 E4.35257
G1 X99.945 Y116.243 E4.35972
G1 X99.772 Y116.287 E4.36687
G1 X99.595 Y116.313 E4.37402
G1 X99.416 Y116.322 E4.38118
G1 X99.238 Y116.313 E4.38833
G1 X99.061 Y116.287 E4.39548
G1 X98.887 Y116.243 E4.40263
G1 X98.719 Y116.183 E4.40978
G1 X98.557 Y116.107 E4.41693
G1 X98.404 Y116.015 E4.42408
G1 X98.261 Y115.908 E4.43123
G1 X98.128 Y115.788 E4.43838
G1 X98.008 Y115.656 E4.44553
G1 X97.902 Y115.512 E4.45269
G1 X97.810 Y115.359 E4.45984
G1 X97.733 Y115.197 E4.46699
G1 X97.673 Y115.029 E4.47414
G1 X97.630 Y114.855 E4.48129
G1 X97.603 Y114.679 E4.48844
G1 X97.566 Y113.919 E4.51886
G1 X97.481 Y113.343 E4.54213
G1 X97.339 Y112.779 E4.56540
G1 X97.143 Y112.231 E4.58868
G1 X96.895 Y111.705 E4.61195
G1 X96.595 Y111.206 E4.63522
G1 X96.249 Y110.739 E4.65849
G1 X95.858 Y110.308 E4.68176
G1 X95.427 Y109.917 E4.70503
G1 X94.960 Y109.571 E4.72830
G1 X94.461 Y109.272 E4.75157
G1 X93.935 Y109.023 E4.77484
G1 X93.387 Y108.827 E4.79811
G1 X92.823 Y108.686 E4.82139
G1 X92.247 Y108.600 E4.84466
G1 X91.666 Y108.572 E4.86793
G1 X91.085 Y108.600 E4.89120
G1 X90.510 Y108.686 E4.91447
G1 X89.945 Y108.827 E4.93774
G1 X89.398 Y109.023 E4.96101
G1 X88.872 Y109.272 E4.98428
G1 X88.373 Y109.571 E5.00755
G1 X87.905 Y109.917 E5.03082
G1 X87.474 Y110.308 E5.05409
G1 X87.084 Y110.739 E5.07737
G1 X86.737 Y111.206 E5.10064
G1 X86.438 Y111.705 E5.12391
G1 X86.189 Y112.231 E5.14718
G1 X85.993 Y112.779 E5.17045
G1 X85.852 Y113.343 E5.19372
G1 X85.766 Y113.919 E5.21699
G1 X85.729 Y114.679 E5.24741
G1 X85.703 Y114.855 E5.25456
G1 X85.660 Y115.029 E5.26172
G1 X85.599 Y115.197 E5.26887
G1 X85.523 Y115.359 E5.27602
G1 X85.431 Y115.512 E5.28317
G1 X85.324 Y115.656 E5.29032
G1 X85.204 Y115.788 E5.29747
G1 X85.072 Y115.908 E5.30462
G1 X84.928 Y116.015 E5.31177
G1 X84.775 Y116.107 E5.31892
G1 X84.613 Y116.183 E5.32607
G1 X84.445 Y116.243 E5.33323
G1 X84.272 Y116.287 E5.34038
G1 X84.095 Y116.313 E5.34753
G1 X83.916 Y116.322 E5.35468
G1 X83.738 Y116.313 E5.36183
G1 X83.561 Y116.287 E5.36898
G1 X83.387 Y116.243 E5.37613
G1 X83.219 Y116.183 E5.38328
G1 X83.058 Y116.107 E5.39043
G1 X82.904 Y116.015 E5.39758
G1 X82.761 Y115.908 E5.40474
G1 X82.628 Y115.788 E5.41189
G1 X82.508 Y115.656 E5.41904
G1 X82.402 Y115.512 E5.42619
G1 X82.310 Y115.359 E5.43334
G1 X82.233 Y115.197 E5.44049
G1 X82.173 Y115.029 E5.44764
G1 X82.130 Y114.855 E5.45479
G1 X82.103 Y114.679 E5.46194
G1 X82.095 Y114.502 E5.46900
G1 X82.155 Y113.431 E5.51192
G1 X82.334 Y112.375 E5.55476
G1 X82.629 Y111.346 E5.59759
G1 X83.038 Y110.356 E5.64042
G1 X83.555 Y109.419 E5.68325
G1 X84.173 Y108.544 E5.72608
G1 X84.885 Y107.745 E5.76891
G1 X86.242 Y106.527 E5.84183
G1 X82.444 Y102.720 E6.05696
G1 X82.444 Y80.462 E6.94728
G1 X82.298 Y79.976 F7800.000
G1 X85.991 Y79.185 F2100.000 E7.09835
G1 X86.941 Y79.037 E7.13679
G1 X91.673 Y78.721 E7.32650
G1 X96.400 Y79.033 E7.51601
G1 X101.045 Y79.968 E7.70552
G1 X105.525 Y81.509 E7.89504
G1 X109.762 Y83.629 E8.08456
G1 X113.682 Y86.292 E8.27408
G1 X117.215 Y89.450 E8.46366
G1 X117.254 Y89.493 E8.46597
G1 X105.829 Y109.281 E9.37994
G1 X100.902 Y110.608 E9.58406
G1 X101.286 Y111.746 E9.63209
G1 X101.500 Y112.650 E9.66928
G1 X101.629 Y113.571 E9.70647
G1 X101.672 Y114.500 E9.74365
G1 X101.661 Y114.721 E9.75252
G1 X101.629 Y114.940 E9.76138
G1 X101.575 Y115.155 E9.77023
G1 X101.500 Y115.363 E9.77909
G1 X101.406 Y115.563 E9.78794
G1 X101.292 Y115.753 E9.79680
G1 X101.160 Y115.931 E9.80565
G1 X101.011 Y116.095 E9.81451
G1 X100.847 Y116.244 E9.82336
G1 X100.670 Y116.376 E9.83222
G1 X100.480 Y116.489 E9.84107
G1 X100.280 Y116.584 E9.84993
G1 X100.071 Y116.659 E9.85878
G1 X99.856 Y116.713 E9.86764
G1 X99.637 Y116.745 E9.87649
G1 X99.416 Y116.756 E9.88535
G1 X99.195 Y116.745 E9.89420
G1 X98.976 Y116.713 E9.90306
G1 X98.761 Y116.659 E9.91191
G1 X98.553 Y116.584 E9.92077
G1 X98.353 Y116.489 E9.92962
G1 X98.163 Y116.376 E9.93848
G1 X97.985 Y116.244 E9.94733
G1 X97.821 Y116.095 E9.95619
G1 X97.672 Y115.931 E9.96504
G1 X97.541 Y115.753 E9.97390
G1 X97.427 Y115.563 E9.98276
G1 X97.332 Y115.363 E9.99161
G1 X97.258 Y115.155 E10.00047
G1 X97.204 Y114.940 E10.00932
G1 X97.171 Y114.721 E10.01818
G1 X97.134 Y113.961 E10.04860
G1 X97.055 Y113.428 E10.07016
G1 X96.924 Y112.905 E10.09173
G1 X96.742 Y112.397 E10.11330
G1 X96.512 Y111.910 E10.13486
G1 X96.234 Y111.448 E10.15643
G1 X95.913 Y111.015 E10.17800
G1 X95.551 Y110.615 E10.19957
G1 X95.152 Y110.253 E10.22113
G1 X94.719 Y109.932 E10.24270
G1 X94.256 Y109.655 E10.26427
G1 X93.769 Y109.424 E10.28583
G1 X93.261 Y109.242 E10.30740
G1 X92.738 Y109.111 E10.32897
G1 X92.205 Y109.032 E10.35053
G1 X91.666 Y109.006 E10.37210
G1 X91.128 Y109.032 E10.39367
G1 X90.594 Y109.111 E10.41523
G1 X90.071 Y109.242 E10.43680
G1 X89.564 Y109.424 E10.45837
G1 X89.076 Y109.655 E10.47993
G1 X88.614 Y109.932 E10.50150
G1 X88.181 Y110.253 E10.52307
G1 X87.781 Y110.615 E10.54463
G1 X87.419 Y111.015 E10.56620
G1 X87.098 Y111.448 E10.58777
G1 X86.821 Y111.910 E10.60933
G1 X86.590 Y112.397 E10.63090
G1 X86.409 Y112.905 E10.65247
G1 X86.278 Y113.428 E10.67403
G1 X86.199 Y113.961 E10.69560
G1 X86.161 Y114.721 E10.72602
G1 X86.129 Y114.940 E10.73488
G1 X86.075 Y115.155 E10.74373
G1 X86.000 Y115.363 E10.75259
G1 X85.906 Y115.563 E10.76144
G1 X85.792 Y115.753 E10.77030
G1 X85.660 Y115.931 E10.77915
G1 X85.511 Y116.095 E10.78801
G1 X85.347 Y116.244 E10.79686
G1 X85.170 Y116.376 E10.80572
G1 X84.980 Y116.489 E10.81458
G1 X84.780 Y116.584 E10.82343
G1 X84.571 Y116.659 E10.83229
G1 X84.356 Y116.713 E10.84114
G1 X84.137 Y116.745 E10.85000
G1 X83.916 Y116.756 E10.85885
G1 X83.695 Y116.745 E10.86771
G1 X83.476 Y116.713 E10.87656
G1 X83.261 Y116.659 E10.88542
G1 X83.053 Y116.584 E10.89427
G1 X82.853 Y116.489 E10.90313
G1 X82.663 Y116.376 E10.91198
G1 X82.485 Y116.244 E10.92084
G1 X82.321 Y116.095 E10.92969
G1 X82.172 Y115.931 E10.93855
G1 X82.041 Y115.753 E10.94740
G1 X81.927 Y115.563 E10.95626
G1 X81.832 Y115.363 E10.96511
G1 X81.758 Y115.155 E10.97397
G1 X81.704 Y114.940 E10.98282
G1 X81.671 Y114.721 E10.99168
G1 X81.660 Y114.501 E11.00050
G1 X81.723 Y113.382 E11.04531
G1 X81.910 Y112.279 E11.09008
G1 X82.219 Y111.203 E11.13486
G1 X82.647 Y110.168 E11.17963
G1 X83.187 Y109.188 E11.22441
G1 X83.833 Y108.274 E11.26918
G1 X84.578 Y107.438 E11.31396
G1 X85.612 Y106.510 E11.36956
G1 X82.010 Y102.899 E11.57358
G1 X82.010 Y80.059 E12.48720
G1 X82.228 Y79.997 E12.49626
G1 F1800.000 E10.99626
G92 E0
G1 X86.602 Y106.525 F7800.000
G1 F1800.000 E1.50000
G1 X89.008 Y108.931 F4200.000 E1.63652
G1 X88.607 Y109.145 E1.65475
G1 X86.278 Y106.816 E1.78694
G1 X85.954 Y107.107 E1.80440
G1 X88.227 Y109.379 E1.93338
G1 X87.874 Y109.641 E1.95101
G1 X85.630 Y107.397 E2.07835
G1 X85.306 Y107.688 E2.09582
G1 X87.543 Y109.924 E2.22272
G1 X87.228 Y110.224 F7800.000
G1 X84.990 Y107.986 F4200.000 E2.34973
G1 X84.701 Y108.311 E2.36720
G1 X86.936 Y110.547 E2.49405
G1 X86.669 Y110.894 E2.51164
G1 X84.411 Y108.636 E2.63977
G1 X84.152 Y108.992 E2.65743
G1 X86.420 Y111.260 E2.78613
G1 X86.190 Y111.645 E2.80412
G1 X83.898 Y109.352 E2.93422
G1 X83.663 Y109.732 E2.95215
G1 X85.993 Y112.062 E3.08436
G1 X85.819 Y112.502 E3.10337
G1 X83.445 Y110.128 E3.23810
G1 X83.238 Y110.536 E3.25645
G1 X85.671 Y112.969 E3.39453
G1 X85.554 Y113.466 E3.41503
G1 X83.058 Y110.971 E3.55664
G1 X82.884 Y111.411 E3.57564
G1 X85.474 Y114.002 E3.72263
G1 X85.444 Y114.586 E3.74612
G1 X82.747 Y111.889 E3.89921
G1 X82.613 Y112.369 E3.91923
G1 X85.356 Y115.113 E4.07491
G1 X85.136 Y115.506 E4.09303
G1 X82.524 Y112.895 E4.24124
G1 X82.443 Y113.429 E4.26291
G1 X84.813 Y115.799 E4.39741
G1 X84.384 Y115.984 E4.41617
G1 X82.411 Y114.011 E4.52815
G1 X82.417 Y114.632 E4.55307
G1 X83.784 Y115.999 E4.63065
G1 F1800.000 E3.13065
G92 E0
G1 X89.430 Y108.738 F7800.000
G1 F1800.000 E1.50000
G1 X82.739 Y102.048 F4200.000 E1.87969
G1 X82.739 Y101.433 E1.90435
G1 X89.882 Y108.576 E2.30973
G1 X90.367 Y108.447 E2.32988
G1 X82.739 Y100.819 E2.76278
G1 X82.739 Y100.204 E2.78744
G1 X90.885 Y108.350 E3.24973
G1 X91.443 Y108.293 E3.27223
G1 X82.739 Y99.590 E3.76618
G1 X82.739 Y98.975 E3.79085
G1 X92.052 Y108.288 E4.31936
G1 X92.730 Y108.351 E4.34668
G1 X82.739 Y98.360 E4.91366
G1 X82.739 Y97.746 E4.93832
G1 X93.507 Y108.513 E5.54940
G1 X94.484 Y108.876 E5.59120
G1 X82.739 Y97.131 E6.25771
G1 X82.739 Y96.517 E6.28237
G1 X100.938 Y114.715 E7.31518
G1 X100.817 Y115.209 F7800.000
G1 X97.291 Y111.683 F4200.000 E7.51531
G1 X97.653 Y112.659 F7800.000
G1 X100.572 Y115.579 F4200.000 E7.68098
G1 X100.228 Y115.850 F7800.000
G1 X97.815 Y113.436 F4200.000 E7.81794
G1 X97.879 Y114.114 F7800.000
G1 X99.771 Y116.007 F4200.000 E7.92534
G1 X99.096 Y115.946 F7800.000
G1 X97.970 Y114.821 F4200.000 E7.98919
G1 X100.916 Y114.079 F7800.000
G1 X82.739 Y95.902 F4200.000 E9.02075
G1 X82.739 Y95.288 E9.04541
G1 X100.847 Y113.395 E10.07307
G1 X100.713 Y112.647 E10.10359
G1 X82.739 Y94.673 E11.12363
G1 X82.739 Y94.058 E11.14829
G1 X100.480 Y111.799 E12.15509
G1 X100.167 Y110.871 E12.19437
G1 X82.739 Y93.444 E13.18341
G1 X82.739 Y92.829 E13.20807
G1 X100.030 Y110.120 E14.18933
G1 X100.514 Y109.989 E14.20945
G1 X82.739 Y92.215 E15.21819
G1 X82.739 Y91.600 E15.24286
G1 X100.998 Y109.859 E16.27908
G1 X101.482 Y109.728 E16.29920
G1 X82.739 Y90.986 E17.36290
G1 X82.739 Y90.371 E17.38757
G1 X101.967 Y109.598 E18.47875
G1 X102.451 Y109.468 E18.49887
G1 X82.739 Y89.756 E19.61754
G1 X82.739 Y89.142 E19.64220
G1 X102.935 Y109.337 E20.78835
G1 X103.419 Y109.207 E20.80847
G1 X82.739 Y88.527 E21.98210
G1 X82.739 Y87.913 E22.00676
G1 X103.903 Y109.077 E23.20787
G1 X104.388 Y108.946 E23.22799
G1 X82.739 Y87.298 E24.45658
G1 X82.739 Y86.684 E24.48125
G1 X104.872 Y108.816 E25.73732
G1 X105.356 Y108.686 E25.75744
G1 X82.739 Y86.069 E27.04099
G1 X82.739 Y85.454 E27.06566
G1 X105.602 Y108.317 E28.36317
G1 X105.827 Y107.927 E28.38122
G1 X82.739 Y84.840 E29.69150
G1 X82.739 Y84.225 E29.71616
G1 X106.052 Y107.538 E31.03920
G1 X106.277 Y107.148 E31.05726
G1 X82.739 Y83.611 E32.39307
G1 X82.739 Y82.996 E32.41773
G1 X106.502 Y106.759 E33.76630
G1 X106.727 Y106.369 E33.78436
G1 X82.739 Y82.381 E35.14570
G1 X82.739 Y81.767 E35.17036
G1 X106.952 Y105.979 E36.54447
G1 X107.177 Y105.590 E36.56253
G1 X82.739 Y81.152 E37.94940
G1 X82.792 Y80.590 E37.97206
G1 X107.402 Y105.200 E39.36873
G1 X107.627 Y104.810 E39.38678
G1 X83.298 Y80.482 E40.76750
G1 X83.804 Y80.373 E40.78827
G1 X107.852 Y104.421 E42.15303
G1 X108.077 Y104.031 E42.17109
G1 X84.310 Y80.265 E43.51989
G1 X84.816 Y80.156 E43.54066
G1 X108.302 Y103.642 E44.87351
G1 X108.526 Y103.252 E44.89157
G1 X85.322 Y80.048 E46.20846
G1 X85.828 Y79.939 E46.22923
G1 X108.751 Y102.862 E47.53018
G1 X108.976 Y102.473 E47.54823
G1 X86.351 Y79.847 E48.83228
G1 X86.883 Y79.765 E48.85388
G1 X109.201 Y102.083 E50.12050
G1 X109.426 Y101.693 E50.13856
G1 X87.458 Y79.725 E51.38533
G1 X88.034 Y79.686 E51.40849
G1 X109.651 Y101.304 E52.63534
G1 X109.876 Y100.914 E52.65339
G1 X88.610 Y79.648 E53.86031
G1 X89.186 Y79.609 E53.88348
G1 X110.101 Y100.525 E55.07047
G1 X110.326 Y100.135 E55.08852
G1 X89.762 Y79.571 E56.25558
G1 X90.338 Y79.532 E56.27875
G1 X110.551 Y99.745 E57.42589
G1 X110.776 Y99.356 E57.44395
G1 X90.914 Y79.494 E58.57116
G1 X91.490 Y79.455 E58.59433
G1 X111.001 Y98.966 E59.70161
G1 X111.226 Y98.576 E59.71967
G1 X92.142 Y79.492 E60.80274
G1 X92.800 Y79.536 E60.82921
G1 X111.451 Y98.187 E61.88770
G1 X111.676 Y97.797 E61.90576
G1 X93.458 Y79.579 E62.93968
G1 X94.116 Y79.622 E62.96614
G1 X111.901 Y97.408 E63.97548
G1 X112.126 Y97.018 E63.99354
G1 X94.774 Y79.666 E64.97830
G1 X95.432 Y79.709 E65.00477
G1 X112.351 Y96.628 E65.96495
G1 X112.576 Y96.239 E65.98301
G1 X96.090 Y79.753 E66.91862
G1 X96.849 Y79.898 E66.94965
G1 X112.801 Y95.849 E67.85492
G1 X113.025 Y95.459 E67.87297
G1 X97.619 Y80.053 E68.74734
G1 X98.388 Y80.208 E68.77883
G1 X113.250 Y95.070 E69.62230
G1 X113.475 Y94.680 E69.64035
G1 X99.158 Y80.362 E70.45292
G1 X99.927 Y80.517 E70.48441
G1 X113.700 Y94.291 E71.26608
G1 X113.925 Y93.901 E71.28413
G1 X100.700 Y80.676 E72.03468
G1 X101.637 Y80.998 E72.07444
G1 X114.150 Y93.511 E72.78459
G1 X114.375 Y93.122 E72.80265
G1 X102.574 Y81.320 E73.47240
G1 X103.511 Y81.643 E73.51215
G1 X114.600 Y92.732 E74.14150
G1 X114.825 Y92.342 E74.15956
G1 X104.448 Y81.965 E74.74850
G1 X105.489 Y82.392 E74.79366
G1 X115.050 Y91.953 E75.33628
G1 X115.275 Y91.563 E75.35434
G1 X106.719 Y83.007 E75.83991
G1 X107.949 Y83.623 E75.89511
G1 X115.500 Y91.174 E76.32363
