(** This GCode was generated by ReplicatorG 0034 **)
(*  using Skeinforge (35)  *)
(*  for a Single headed Thing-O-Matic  *)
(*  on 2012/05/19 09:21:44 (-0400) *)
(<alteration>)
(**** beginning of start.gcode ****)
(This file is for a MakerBot Thing-O-Matic)
(**** begin initialization commands ****)
G21 (set units to mm)
G90 (set positioning to absolute)
M108 R5.0 (set extruder speed)
M103 (Make sure extruder is off)
M104 S225 T0 (set extruder temperature)
M109 S100 T0 (set heated-build-platform temperature)
(**** end initialization commands ****)
(**** begin homing ****)
G162 Z F1000 (home Z axis maximum)
G92 Z10 (set Z to 0)
G1 Z0.0 (move z down 10)
G162 Z F150 (home Z axis maximum)
G161 X Y F2500 (home XY axes minimum)
M132 X Y Z A B (Recall stored home offsets for XYZAB axis)
(**** end homing ****)
(**** begin pre-wipe commands ****)
( Some people have had problems with the nozzle hitting )
( bolts or wipers during this pre-extrusion warmup.     )
( If this happens to you, you can change the values for )
( the X and Y positions in the following code.          )
( The goal is to have the toolhead wipe its initial     )
( extrusion near the edge of the platform, [anchor it]  )
( so as not to have it interfere with the print.        )
( This file can be found in:                            )
( replicatorg/skein_engines/skeinforge-##/skeinforge_application/ )
( prefs/<profile name [e.g. Thingomatic-ABP-Mk7]>/alterations )
G1 X25.0 Y-60.0 Z10.0 F3300.0 (move to waiting position)
M6 T0 (wait for toolhead parts, nozzle, HBP, etc., to reach temperature)
G0 X25 Y-57 (Position Nozzle)
G0 Z0.6     (Position Height)
M108 R4.0   (Set Extruder Speed)
M101        (Start Extruder)
G4 P1500    (Create Anchor)
(**** end pre-wipe commands ****)
(**** end of start.gcode ****)
(</alteration>)
(<creation> skeinforge </creation>)
(<version> 10.11.05 </version>)
(<extruderInitialization>)
(<craftTypeName> extrusion </craftTypeName>)
M105
(<bridgeWidthMultiplier> 1.0 </bridgeWidthMultiplier>)
(<decimalPlacesCarried> 3 </decimalPlacesCarried>)
(<layerThickness> 0.27 </layerThickness>)
(<threadSequenceString> perimeter loops infill </threadSequenceString>)
(<operatingFeedRatePerSecond> 100.0 </operatingFeedRatePerSecond>)
(<operatingFlowRate> 10.2582668195 </operatingFlowRate>)
(<orbitalFeedRatePerSecond> 50.0 </orbitalFeedRatePerSecond>)
(<travelFeedRatePerSecond> 100.0 </travelFeedRatePerSecond>)
(<perimeterWidth> 0.465 </perimeterWidth>)
(<profileName> ABS </profileName>)
(<procedureDone> carve </procedureDone>)
(<procedureDone> preface </procedureDone>)
(<procedureDone> inset </procedureDone>)
(<procedureDone> fill </procedureDone>)
(<procedureDone> speed </procedureDone>)
(<procedureDone> raft </procedureDone>)
(<procedureDone> jitter </procedureDone>)
(<procedureDone> stretch </procedureDone>)
(<procedureDone> comb </procedureDone>)
(<procedureDone> cool </procedureDone>)
(<procedureDone> outline </procedureDone>)
(<procedureDone> reversal </procedureDone>)
(<procedureDone> export </procedureDone>)
(</extruderInitialization>)
(<extrusion>)
;M113 S1.0
M108 R10.26
(<layer> 0.135 )
(<surroundingLoop>)
(<boundaryPerimeter>)
(<boundaryPoint> X23.098 Y-15.611 Z0.135 </boundaryPoint>)
(<boundaryPoint> X23.885 Y14.378 Z0.135 </boundaryPoint>)
(<boundaryPoint> X-23.098 Y15.611 Z0.135 </boundaryPoint>)
(<boundaryPoint> X-23.885 Y-14.378 Z0.135 </boundaryPoint>)
M108 R6.155
G1 X25.65 Y-17.37 Z0.14 F3600.0
M101
G1 X-25.65 Y-17.37 Z0.14 F3600.0
G1 X-25.65 Y17.37 Z0.14 F3600.0
G1 X25.65 Y17.37 Z0.14 F3600.0
G1 X25.65 Y-16.47 Z0.14 F3600.0
M108 R30.0
M102
G1 X25.65 Y-17.37 Z0.14 F3600.0
M108 R6.155
M103
G1 X19.81 Y13.31 Z0.14 F3600.0
M108 R30.0
M101
G1 X19.63 Y14.26 Z0.14 F3600.0
M108 R6.155
G1 X-17.95 Y15.24 Z0.14 F3600.0
M108 R30.0
M102
G1 X-18.85 Y15.27 Z0.14 F3600.0
M108 R6.155
M103
G1 X-19.39 Y15.28 Z0.14 F3600.0
M108 R30.0
M101
G1 X-20.36 Y15.31 Z0.14 F3600.0
M108 R6.155
G1 X-22.87 Y15.37 Z0.14 F3600.0
G1 X-22.91 Y13.76 Z0.14 F3600.0
M108 R30.0
M102
G1 X-22.94 Y12.86 Z0.14 F3600.0
M108 R6.155
M103
G1 X-22.95 Y12.31 Z0.14 F3600.0
M108 R30.0
M101
G1 X-22.98 Y11.36 Z0.14 F3600.0
M108 R6.155
G1 X-23.52 Y-9.23 Z0.14 F3600.0
M108 R30.0
M102
G1 X-23.54 Y-10.13 Z0.14 F3600.0
M108 R6.155
M103
G1 X-23.55 Y-10.68 Z0.14 F3600.0
M108 R30.0
M101
G1 X-23.58 Y-11.63 Z0.14 F3600.0
M108 R6.155
G1 X-23.65 Y-14.15 Z0.14 F3600.0
G1 X-22.03 Y-14.19 Z0.14 F3600.0
M108 R30.0
M102
G1 X-21.13 Y-14.22 Z0.14 F3600.0
M108 R6.155
M103
G1 X-20.59 Y-14.23 Z0.14 F3600.0
M108 R30.0
M101
G1 X-19.63 Y-14.26 Z0.14 F3600.0
M108 R6.155
G1 X17.95 Y-15.24 Z0.14 F3600.0
M108 R30.0
M102
G1 X18.85 Y-15.27 Z0.14 F3600.0
M108 R6.155
M103
G1 X19.39 Y-15.28 Z0.14 F3600.0
M108 R30.0
M101
G1 X20.36 Y-15.31 Z0.14 F3600.0
M108 R6.155
G1 X22.87 Y-15.37 Z0.14 F3600.0
G1 X22.91 Y-13.76 Z0.14 F3600.0
M108 R30.0
M102
G1 X22.94 Y-12.86 Z0.14 F3600.0
M108 R6.155
M103
G1 X22.95 Y-12.31 Z0.14 F3600.0
M108 R30.0
M101
G1 X22.98 Y-11.36 Z0.14 F3600.0
M108 R6.155
G1 X23.52 Y9.23 Z0.14 F3600.0
M108 R30.0
M102
G1 X23.54 Y10.13 Z0.14 F3600.0
M108 R6.155
M103
G1 X23.55 Y10.68 Z0.14 F3600.0
M108 R30.0
M101
G1 X23.58 Y11.63 Z0.14 F3600.0
M108 R6.155
G1 X23.65 Y14.15 Z0.14 F3600.0
G1 X21.13 Y14.22 Z0.14 F3600.0
M103
(</boundaryPerimeter>)
(<surroundingLoop>)
(<boundaryPerimeter>)
(<boundaryPoint> X22.853 Y9.832 Z0.135 </boundaryPoint>)
(<boundaryPoint> X22.581 Y9.355 Z0.135 </boundaryPoint>)
(<boundaryPoint> X22.222 Y8.94 Z0.135 </boundaryPoint>)
(<boundaryPoint> X21.789 Y8.603 Z0.135 </boundaryPoint>)
(<boundaryPoint> X21.298 Y8.357 Z0.135 </boundaryPoint>)
(<boundaryPoint> X20.769 Y8.212 Z0.135 </boundaryPoint>)
(<boundaryPoint> X20.221 Y8.172 Z0.135 </boundaryPoint>)
(<boundaryPoint> X19.677 Y8.24 Z0.135 </boundaryPoint>)
(<boundaryPoint> X19.156 Y8.414 Z0.135 </boundaryPoint>)
(<boundaryPoint> X18.679 Y8.685 Z0.135 </boundaryPoint>)
(<boundaryPoint> X18.264 Y9.044 Z0.135 </boundaryPoint>)
(<boundaryPoint> X17.927 Y9.477 Z0.135 </boundaryPoint>)
(<boundaryPoint> X17.681 Y9.968 Z0.135 </boundaryPoint>)
(<boundaryPoint> X17.535 Y10.497 Z0.135 </boundaryPoint>)
(<boundaryPoint> X17.496 Y11.045 Z0.135 </boundaryPoint>)
(<boundaryPoint> X17.564 Y11.589 Z0.135 </boundaryPoint>)
(<boundaryPoint> X17.737 Y12.11 Z0.135 </boundaryPoint>)
(<boundaryPoint> X18.008 Y12.588 Z0.135 </boundaryPoint>)
(<boundaryPoint> X18.368 Y13.003 Z0.135 </boundaryPoint>)
(<boundaryPoint> X18.801 Y13.339 Z0.135 </boundaryPoint>)
(<boundaryPoint> X19.292 Y13.585 Z0.135 </boundaryPoint>)
(<boundaryPoint> X19.821 Y13.731 Z0.135 </boundaryPoint>)
(<boundaryPoint> X20.368 Y13.77 Z0.135 </boundaryPoint>)
(<boundaryPoint> X20.913 Y13.702 Z0.135 </boundaryPoint>)
(<boundaryPoint> X21.434 Y13.529 Z0.135 </boundaryPoint>)
(<boundaryPoint> X21.911 Y13.258 Z0.135 </boundaryPoint>)
(<boundaryPoint> X22.326 Y12.899 Z0.135 </boundaryPoint>)
(<boundaryPoint> X22.663 Y12.465 Z0.135 </boundaryPoint>)
(<boundaryPoint> X22.909 Y11.975 Z0.135 </boundaryPoint>)
(<boundaryPoint> X23.054 Y11.445 Z0.135 </boundaryPoint>)
(<boundaryPoint> X23.094 Y10.898 Z0.135 </boundaryPoint>)
(<boundaryPoint> X23.026 Y10.353 Z0.135 </boundaryPoint>)
(<perimeter> inner )
G1 X21.1 Y14.01 Z0.14 F6000.0
M101
G1 X21.58 Y13.85 Z0.14 F3600.0
G1 X22.12 Y13.55 Z0.14 F3600.0
G1 X22.58 Y13.14 Z0.14 F3600.0
G1 X22.96 Y12.65 Z0.14 F3600.0
G1 X23.24 Y12.1 Z0.14 F3600.0
G1 X23.4 Y11.51 Z0.14 F3600.0
G1 X23.45 Y10.89 Z0.14 F3600.0
G1 X23.37 Y10.27 Z0.14 F3600.0
G1 X23.18 Y9.69 Z0.14 F3600.0
G1 X22.87 Y9.15 Z0.14 F3600.0
G1 X22.47 Y8.68 Z0.14 F3600.0
G1 X21.98 Y8.3 Z0.14 F3600.0
G1 X21.43 Y8.03 Z0.14 F3600.0
G1 X20.83 Y7.86 Z0.14 F3600.0
G1 X20.21 Y7.82 Z0.14 F3600.0
G1 X19.6 Y7.89 Z0.14 F3600.0
G1 X19.01 Y8.09 Z0.14 F3600.0
G1 X18.48 Y8.4 Z0.14 F3600.0
G1 X18.01 Y8.8 Z0.14 F3600.0
G1 X17.63 Y9.29 Z0.14 F3600.0
G1 X17.35 Y9.84 Z0.14 F3600.0
G1 X17.19 Y10.44 Z0.14 F3600.0
G1 X17.14 Y11.05 Z0.14 F3600.0
G1 X17.22 Y11.67 Z0.14 F3600.0
G1 X17.41 Y12.25 Z0.14 F3600.0
G1 X17.72 Y12.79 Z0.14 F3600.0
G1 X18.12 Y13.26 Z0.14 F3600.0
G1 X18.61 Y13.64 Z0.14 F3600.0
G1 X19.16 Y13.91 Z0.14 F3600.0
G1 X19.76 Y14.08 Z0.14 F3600.0
G1 X20.21 Y14.11 Z0.14 F3600.0
M108 R30.0
M102
G1 X20.38 Y14.12 Z0.14 F3600.0
G1 X20.99 Y14.05 Z0.14 F3600.0
G1 X21.1 Y14.01 Z0.14 F3600.0
M108 R6.155
M103
(</perimeter>)
(</boundaryPerimeter>)
(</surroundingLoop>)
(<surroundingLoop>)
(<boundaryPerimeter>)
(<boundaryPoint> X22.49 Y-12.094 Z0.135 </boundaryPoint>)
(<boundaryPoint> X22.422 Y-12.639 Z0.135 </boundaryPoint>)
(<boundaryPoint> X22.249 Y-13.16 Z0.135 </boundaryPoint>)
(<boundaryPoint> X21.978 Y-13.637 Z0.135 </boundaryPoint>)
(<boundaryPoint> X21.619 Y-14.052 Z0.135 </boundaryPoint>)
(<boundaryPoint> X21.185 Y-14.389 Z0.135 </boundaryPoint>)
(<boundaryPoint> X20.695 Y-14.635 Z0.135 </boundaryPoint>)
(<boundaryPoint> X20.165 Y-14.78 Z0.135 </boundaryPoint>)
(<boundaryPoint> X19.618 Y-14.82 Z0.135 </boundaryPoint>)
(<boundaryPoint> X19.073 Y-14.752 Z0.135 </boundaryPoint>)
(<boundaryPoint> X18.552 Y-14.579 Z0.135 </boundaryPoint>)
(<boundaryPoint> X18.075 Y-14.307 Z0.135 </boundaryPoint>)
(<boundaryPoint> X17.66 Y-13.948 Z0.135 </boundaryPoint>)
(<boundaryPoint> X17.323 Y-13.515 Z0.135 </boundaryPoint>)
(<boundaryPoint> X17.077 Y-13.024 Z0.135 </boundaryPoint>)
(<boundaryPoint> X16.932 Y-12.495 Z0.135 </boundaryPoint>)
(<boundaryPoint> X16.892 Y-11.947 Z0.135 </boundaryPoint>)
(<boundaryPoint> X16.961 Y-11.403 Z0.135 </boundaryPoint>)
(<boundaryPoint> X17.134 Y-10.882 Z0.135 </boundaryPoint>)
(<boundaryPoint> X17.405 Y-10.405 Z0.135 </boundaryPoint>)
(<boundaryPoint> X17.764 Y-9.99 Z0.135 </boundaryPoint>)
(<boundaryPoint> X18.197 Y-9.653 Z0.135 </boundaryPoint>)
(<boundaryPoint> X18.688 Y-9.407 Z0.135 </boundaryPoint>)
(<boundaryPoint> X19.217 Y-9.261 Z0.135 </boundaryPoint>)
(<boundaryPoint> X19.765 Y-9.222 Z0.135 </boundaryPoint>)
(<boundaryPoint> X20.31 Y-9.29 Z0.135 </boundaryPoint>)
(<boundaryPoint> X20.83 Y-9.463 Z0.135 </boundaryPoint>)
(<boundaryPoint> X21.308 Y-9.734 Z0.135 </boundaryPoint>)
(<boundaryPoint> X21.723 Y-10.093 Z0.135 </boundaryPoint>)
(<boundaryPoint> X22.06 Y-10.527 Z0.135 </boundaryPoint>)
(<boundaryPoint> X22.306 Y-11.017 Z0.135 </boundaryPoint>)
(<boundaryPoint> X22.451 Y-11.547 Z0.135 </boundaryPoint>)
(<perimeter> inner )
G1 X22.56 Y13.12 Z0.14 F6000.0
G1 X22.94 Y12.64 Z0.14 F6000.0
G1 X23.21 Y12.09 Z0.14 F6000.0
G1 X23.37 Y11.5 Z0.14 F6000.0
G1 X23.42 Y10.89 Z0.14 F6000.0
G1 X20.06 Y-7.29 Z0.14 F6000.0
M108 R30.0
M101
G1 X19.77 Y-8.87 Z0.14 F6000.0
M108 R6.155
G1 X20.39 Y-8.95 Z0.14 F3600.0
G1 X20.97 Y-9.14 Z0.14 F3600.0
G1 X21.51 Y-9.45 Z0.14 F3600.0
G1 X21.98 Y-9.85 Z0.14 F3600.0
G1 X22.36 Y-10.34 Z0.14 F3600.0
G1 X22.64 Y-10.89 Z0.14 F3600.0
G1 X22.8 Y-11.49 Z0.14 F3600.0
G1 X22.84 Y-12.1 Z0.14 F3600.0
G1 X22.77 Y-12.72 Z0.14 F3600.0
G1 X22.57 Y-13.3 Z0.14 F3600.0
G1 X22.27 Y-13.84 Z0.14 F3600.0
G1 X21.86 Y-14.31 Z0.14 F3600.0
G1 X21.37 Y-14.69 Z0.14 F3600.0
G1 X20.82 Y-14.96 Z0.14 F3600.0
G1 X20.23 Y-15.13 Z0.14 F3600.0
G1 X19.61 Y-15.17 Z0.14 F3600.0
G1 X18.99 Y-15.1 Z0.14 F3600.0
G1 X18.41 Y-14.9 Z0.14 F3600.0
G1 X17.87 Y-14.6 Z0.14 F3600.0
G1 X17.4 Y-14.19 Z0.14 F3600.0
G1 X17.02 Y-13.7 Z0.14 F3600.0
G1 X16.75 Y-13.15 Z0.14 F3600.0
G1 X16.58 Y-12.55 Z0.14 F3600.0
G1 X16.54 Y-11.94 Z0.14 F3600.0
G1 X16.62 Y-11.32 Z0.14 F3600.0
G1 X16.81 Y-10.74 Z0.14 F3600.0
G1 X17.12 Y-10.2 Z0.14 F3600.0
G1 X17.52 Y-9.73 Z0.14 F3600.0
G1 X18.01 Y-9.35 Z0.14 F3600.0
G1 X18.56 Y-9.08 Z0.14 F3600.0
G1 X18.89 Y-8.99 Z0.14 F3600.0
M108 R30.0
M102
G1 X19.16 Y-8.91 Z0.14 F3600.0
G1 X19.77 Y-8.87 Z0.14 F3600.0
M108 R6.155
M103
(</perimeter>)
(</boundaryPerimeter>)
(</surroundingLoop>)
(<surroundingLoop>)
(<boundaryPerimeter>)
(<boundaryPoint> X-17.496 Y-11.045 Z0.135 </boundaryPoint>)
(<boundaryPoint> X-17.564 Y-11.589 Z0.135 </boundaryPoint>)
(<boundaryPoint> X-17.737 Y-12.11 Z0.135 </boundaryPoint>)
(<boundaryPoint> X-18.008 Y-12.588 Z0.135 </boundaryPoint>)
(<boundaryPoint> X-18.368 Y-13.003 Z0.135 </boundaryPoint>)
(<boundaryPoint> X-18.801 Y-13.339 Z0.135 </boundaryPoint>)
(<boundaryPoint> X-19.292 Y-13.585 Z0.135 </boundaryPoint>)
(<boundaryPoint> X-19.821 Y-13.731 Z0.135 </boundaryPoint>)
(<boundaryPoint> X-20.368 Y-13.77 Z0.135 </boundaryPoint>)
(<boundaryPoint> X-20.913 Y-13.702 Z0.135 </boundaryPoint>)
(<boundaryPoint> X-21.434 Y-13.529 Z0.135 </boundaryPoint>)
(<boundaryPoint> X-21.911 Y-13.258 Z0.135 </boundaryPoint>)
(<boundaryPoint> X-22.326 Y-12.899 Z0.135 </boundaryPoint>)
(<boundaryPoint> X-22.663 Y-12.465 Z0.135 </boundaryPoint>)
(<boundaryPoint> X-22.909 Y-11.975 Z0.135 </boundaryPoint>)
(<boundaryPoint> X-23.054 Y-11.445 Z0.135 </boundaryPoint>)
(<boundaryPoint> X-23.094 Y-10.898 Z0.135 </boundaryPoint>)
(<boundaryPoint> X-23.026 Y-10.353 Z0.135 </boundaryPoint>)
(<boundaryPoint> X-22.853 Y-9.832 Z0.135 </boundaryPoint>)
(<boundaryPoint> X-22.581 Y-9.355 Z0.135 </boundaryPoint>)
(<boundaryPoint> X-22.222 Y-8.94 Z0.135 </boundaryPoint>)
(<boundaryPoint> X-21.789 Y-8.603 Z0.135 </boundaryPoint>)
(<boundaryPoint> X-21.298 Y-8.357 Z0.135 </boundaryPoint>)
(<boundaryPoint> X-20.769 Y-8.212 Z0.135 </boundaryPoint>)
(<boundaryPoint> X-20.221 Y-8.172 Z0.135 </boundaryPoint>)
(<boundaryPoint> X-19.677 Y-8.24 Z0.135 </boundaryPoint>)
(<boundaryPoint> X-19.156 Y-8.414 Z0.135 </boundaryPoint>)
(<boundaryPoint> X-18.679 Y-8.685 Z0.135 </boundaryPoint>)
(<boundaryPoint> X-18.264 Y-9.044 Z0.135 </boundaryPoint>)
(<boundaryPoint> X-17.927 Y-9.477 Z0.135 </boundaryPoint>)
(<boundaryPoint> X-17.681 Y-9.968 Z0.135 </boundaryPoint>)
(<boundaryPoint> X-17.535 Y-10.497 Z0.135 </boundaryPoint>)
(<perimeter> inner )
G1 X-15.54 Y-10.96 Z0.14 F6000.0
M108 R30.0
M101
G1 X-17.14 Y-11.05 Z0.14 F6000.0
M108 R6.155
G1 X-17.22 Y-11.67 Z0.14 F3600.0
G1 X-17.41 Y-12.25 Z0.14 F3600.0
G1 X-17.72 Y-12.79 Z0.14 F3600.0
G1 X-18.12 Y-13.26 Z0.14 F3600.0
G1 X-18.61 Y-13.64 Z0.14 F3600.0
G1 X-19.16 Y-13.91 Z0.14 F3600.0
G1 X-19.76 Y-14.08 Z0.14 F3600.0
G1 X-20.38 Y-14.12 Z0.14 F3600.0
G1 X-20.99 Y-14.05 Z0.14 F3600.0
G1 X-21.58 Y-13.85 Z0.14 F3600.0
G1 X-22.12 Y-13.55 Z0.14 F3600.0
G1 X-22.58 Y-13.14 Z0.14 F3600.0
G1 X-22.96 Y-12.65 Z0.14 F3600.0
G1 X-23.24 Y-12.1 Z0.14 F3600.0
G1 X-23.4 Y-11.51 Z0.14 F3600.0
G1 X-23.45 Y-10.89 Z0.14 F3600.0
G1 X-23.37 Y-10.27 Z0.14 F3600.0
G1 X-23.18 Y-9.69 Z0.14 F3600.0
G1 X-22.87 Y-9.15 Z0.14 F3600.0
G1 X-22.47 Y-8.68 Z0.14 F3600.0
G1 X-21.98 Y-8.3 Z0.14 F3600.0
G1 X-21.43 Y-8.03 Z0.14 F3600.0
G1 X-20.83 Y-7.86 Z0.14 F3600.0
G1 X-20.21 Y-7.82 Z0.14 F3600.0
G1 X-19.6 Y-7.89 Z0.14 F3600.0
G1 X-19.01 Y-8.09 Z0.14 F3600.0
G1 X-18.48 Y-8.4 Z0.14 F3600.0
G1 X-18.01 Y-8.8 Z0.14 F3600.0
G1 X-17.63 Y-9.29 Z0.14 F3600.0
G1 X-17.35 Y-9.84 Z0.14 F3600.0
G1 X-17.26 Y-10.17 Z0.14 F3600.0
M108 R30.0
M102
G1 X-17.19 Y-10.44 Z0.14 F3600.0
G1 X-17.14 Y-11.05 Z0.14 F3600.0
M108 R6.155
M103
(</perimeter>)
(</boundaryPerimeter>)
(</surroundingLoop>)
(<surroundingLoop>)
(<boundaryPerimeter>)
(<boundaryPoint> X-16.892 Y11.947 Z0.135 </boundaryPoint>)
(<boundaryPoint> X-16.961 Y11.403 Z0.135 </boundaryPoint>)
(<boundaryPoint> X-17.134 Y10.882 Z0.135 </boundaryPoint>)
(<boundaryPoint> X-17.405 Y10.405 Z0.135 </boundaryPoint>)
(<boundaryPoint> X-17.764 Y9.99 Z0.135 </boundaryPoint>)
(<boundaryPoint> X-18.197 Y9.653 Z0.135 </boundaryPoint>)
(<boundaryPoint> X-18.688 Y9.407 Z0.135 </boundaryPoint>)
(<boundaryPoint> X-19.217 Y9.261 Z0.135 </boundaryPoint>)
(<boundaryPoint> X-19.765 Y9.222 Z0.135 </boundaryPoint>)
(<boundaryPoint> X-20.31 Y9.29 Z0.135 </boundaryPoint>)
(<boundaryPoint> X-20.83 Y9.463 Z0.135 </boundaryPoint>)
(<boundaryPoint> X-21.308 Y9.734 Z0.135 </boundaryPoint>)
(<boundaryPoint> X-21.723 Y10.093 Z0.135 </boundaryPoint>)
(<boundaryPoint> X-22.06 Y10.527 Z0.135 </boundaryPoint>)
(<boundaryPoint> X-22.306 Y11.017 Z0.135 </boundaryPoint>)
(<boundaryPoint> X-22.451 Y11.547 Z0.135 </boundaryPoint>)
(<boundaryPoint> X-22.49 Y12.094 Z0.135 </boundaryPoint>)
(<boundaryPoint> X-22.422 Y12.639 Z0.135 </boundaryPoint>)
(<boundaryPoint> X-22.249 Y13.16 Z0.135 </boundaryPoint>)
(<boundaryPoint> X-21.978 Y13.637 Z0.135 </boundaryPoint>)
(<boundaryPoint> X-21.619 Y14.052 Z0.135 </boundaryPoint>)
(<boundaryPoint> X-21.185 Y14.389 Z0.135 </boundaryPoint>)
(<boundaryPoint> X-20.695 Y14.635 Z0.135 </boundaryPoint>)
(<boundaryPoint> X-20.165 Y14.78 Z0.135 </boundaryPoint>)
(<boundaryPoint> X-19.618 Y14.82 Z0.135 </boundaryPoint>)
(<boundaryPoint> X-19.073 Y14.752 Z0.135 </boundaryPoint>)
(<boundaryPoint> X-18.552 Y14.579 Z0.135 </boundaryPoint>)
(<boundaryPoint> X-18.075 Y14.307 Z0.135 </boundaryPoint>)
(<boundaryPoint> X-17.66 Y13.948 Z0.135 </boundaryPoint>)
(<boundaryPoint> X-17.323 Y13.515 Z0.135 </boundaryPoint>)
(<boundaryPoint> X-17.077 Y13.024 Z0.135 </boundaryPoint>)
(<boundaryPoint> X-16.932 Y12.495 Z0.135 </boundaryPoint>)
(<perimeter> inner )
G1 X-19.0 Y7.32 Z0.14 F6000.0
M108 R30.0
M101
G1 X-19.16 Y8.91 Z0.14 F6000.0
M108 R6.155
G1 X-19.77 Y8.87 Z0.14 F3600.0
G1 X-20.39 Y8.95 Z0.14 F3600.0
G1 X-20.97 Y9.14 Z0.14 F3600.0
G1 X-21.51 Y9.45 Z0.14 F3600.0
G1 X-21.98 Y9.85 Z0.14 F3600.0
G1 X-22.36 Y10.34 Z0.14 F3600.0
G1 X-22.64 Y10.89 Z0.14 F3600.0
G1 X-22.8 Y11.49 Z0.14 F3600.0
G1 X-22.84 Y12.1 Z0.14 F3600.0
G1 X-22.77 Y12.72 Z0.14 F3600.0
G1 X-22.57 Y13.3 Z0.14 F3600.0
G1 X-22.27 Y13.84 Z0.14 F3600.0
G1 X-21.86 Y14.31 Z0.14 F3600.0
G1 X-21.37 Y14.69 Z0.14 F3600.0
G1 X-20.82 Y14.96 Z0.14 F3600.0
G1 X-20.23 Y15.13 Z0.14 F3600.0
G1 X-19.61 Y15.17 Z0.14 F3600.0
G1 X-18.99 Y15.1 Z0.14 F3600.0
G1 X-18.41 Y14.9 Z0.14 F3600.0
G1 X-17.87 Y14.6 Z0.14 F3600.0
G1 X-17.4 Y14.19 Z0.14 F3600.0
G1 X-17.02 Y13.7 Z0.14 F3600.0
G1 X-16.75 Y13.15 Z0.14 F3600.0
G1 X-16.58 Y12.55 Z0.14 F3600.0
G1 X-16.54 Y11.94 Z0.14 F3600.0
G1 X-16.62 Y11.32 Z0.14 F3600.0
G1 X-16.81 Y10.74 Z0.14 F3600.0
G1 X-17.12 Y10.2 Z0.14 F3600.0
G1 X-17.52 Y9.73 Z0.14 F3600.0
G1 X-18.01 Y9.35 Z0.14 F3600.0
G1 X-18.56 Y9.08 Z0.14 F3600.0
G1 X-19.16 Y8.91 Z0.14 F3600.0
M103
(</perimeter>)
(</boundaryPerimeter>)
(</surroundingLoop>)
(<loop> outer )
G1 X-19.09 Y8.52 Z0.14 F6000.0
M101
G1 X-19.79 Y8.47 Z0.14 F3600.0
G1 X-20.48 Y8.56 Z0.14 F3600.0
G1 X-21.13 Y8.8 Z0.14 F3600.0
G1 X-21.75 Y9.24 Z0.14 F3600.0
G1 X-22.07 Y9.57 Z0.14 F3600.0
G1 X-22.56 Y9.46 Z0.14 F3600.0
G1 X-23.03 Y-8.26 Z0.14 F3600.0
G1 X-22.55 Y-8.4 Z0.14 F3600.0
G1 X-22.2 Y-8.09 Z0.14 F3600.0
G1 X-21.56 Y-7.68 Z0.14 F3600.0
G1 X-20.9 Y-7.47 Z0.14 F3600.0
G1 X-20.2 Y-7.42 Z0.14 F3600.0
G1 X-19.51 Y-7.51 Z0.14 F3600.0
G1 X-18.85 Y-7.73 Z0.14 F3600.0
G1 X-18.25 Y-8.07 Z0.14 F3600.0
G1 X-17.72 Y-8.53 Z0.14 F3600.0
G1 X-17.29 Y-9.08 Z0.14 F3600.0
G1 X-16.98 Y-9.7 Z0.14 F3600.0
G1 X-16.8 Y-10.37 Z0.14 F3600.0
G1 X-16.75 Y-11.06 Z0.14 F3600.0
G1 X-16.83 Y-11.76 Z0.14 F3600.0
G1 X-17.08 Y-12.41 Z0.14 F3600.0
G1 X-17.52 Y-13.03 Z0.14 F3600.0
G1 X-17.83 Y-13.33 Z0.14 F3600.0
G1 X-17.64 Y-13.84 Z0.14 F3600.0
G1 X16.89 Y-14.75 Z0.14 F3600.0
G1 X17.11 Y-14.25 Z0.14 F3600.0
G1 X16.81 Y-13.93 Z0.14 F3600.0
G1 X16.41 Y-13.29 Z0.14 F3600.0
G1 X16.19 Y-12.62 Z0.14 F3600.0
G1 X16.14 Y-11.93 Z0.14 F3600.0
G1 X16.23 Y-11.24 Z0.14 F3600.0
G1 X16.45 Y-10.58 Z0.14 F3600.0
G1 X16.79 Y-9.97 Z0.14 F3600.0
G1 X17.25 Y-9.45 Z0.14 F3600.0
G1 X17.8 Y-9.02 Z0.14 F3600.0
G1 X18.42 Y-8.71 Z0.14 F3600.0
G1 X19.09 Y-8.52 Z0.14 F3600.0
G1 X19.79 Y-8.47 Z0.14 F3600.0
G1 X20.48 Y-8.56 Z0.14 F3600.0
G1 X21.13 Y-8.8 Z0.14 F3600.0
G1 X21.75 Y-9.24 Z0.14 F3600.0
G1 X22.07 Y-9.57 Z0.14 F3600.0
G1 X22.56 Y-9.46 Z0.14 F3600.0
G1 X23.03 Y8.26 Z0.14 F3600.0
G1 X22.55 Y8.4 Z0.14 F3600.0
G1 X22.2 Y8.09 Z0.14 F3600.0
G1 X21.56 Y7.68 Z0.14 F3600.0
G1 X20.9 Y7.47 Z0.14 F3600.0
G1 X20.2 Y7.42 Z0.14 F3600.0
G1 X19.51 Y7.51 Z0.14 F3600.0
G1 X18.85 Y7.73 Z0.14 F3600.0
G1 X18.25 Y8.07 Z0.14 F3600.0
G1 X17.72 Y8.53 Z0.14 F3600.0
G1 X17.29 Y9.08 Z0.14 F3600.0
G1 X16.98 Y9.7 Z0.14 F3600.0
G1 X16.8 Y10.37 Z0.14 F3600.0
G1 X16.75 Y11.06 Z0.14 F3600.0
G1 X16.83 Y11.76 Z0.14 F3600.0
G1 X17.08 Y12.41 Z0.14 F3600.0
G1 X17.52 Y13.03 Z0.14 F3600.0
G1 X17.83 Y13.33 Z0.14 F3600.0
G1 X17.64 Y13.84 Z0.14 F3600.0
G1 X-16.89 Y14.75 Z0.14 F3600.0
G1 X-17.11 Y14.25 Z0.14 F3600.0
G1 X-16.81 Y13.93 Z0.14 F3600.0
G1 X-16.41 Y13.29 Z0.14 F3600.0
G1 X-16.19 Y12.62 Z0.14 F3600.0
G1 X-16.14 Y11.93 Z0.14 F3600.0
G1 X-16.23 Y11.24 Z0.14 F3600.0
G1 X-16.45 Y10.58 Z0.14 F3600.0
G1 X-16.79 Y9.97 Z0.14 F3600.0
G1 X-17.25 Y9.45 Z0.14 F3600.0
G1 X-17.8 Y9.02 Z0.14 F3600.0
G1 X-18.42 Y8.71 Z0.14 F3600.0
G1 X-19.09 Y8.52 Z0.14 F3600.0
M103
(</loop>)
G1 X-19.08 Y8.27 Z0.14 F3600.0
M101
G1 X-19.08 Y-7.38 Z0.14 F3600.0
M103
G1 X-19.55 Y-7.25 Z0.14 F3600.0
M101
G1 X-19.55 Y8.23 Z0.14 F3600.0
G1 X-20.01 Y8.24 Z0.14 F3600.0
G1 X-20.01 Y-7.19 Z0.14 F3600.0
G1 X-20.48 Y-7.19 Z0.14 F3600.0
G1 X-20.48 Y8.3 Z0.14 F3600.0
M103
G1 X-20.94 Y8.45 Z0.14 F3600.0
M101
G1 X-20.94 Y-7.22 Z0.14 F3600.0
G1 X-21.41 Y-7.35 Z0.14 F3600.0
G1 X-21.41 Y8.64 Z0.14 F3600.0
G1 X-21.88 Y8.91 Z0.14 F3600.0
G1 X-21.88 Y-7.53 Z0.14 F3600.0
M103
G1 X-22.34 Y-7.76 Z0.14 F3600.0
M101
G1 X-22.34 Y5.46 Z0.14 F3600.0
M108 R30.0
M102
G1 X-22.34 Y6.36 Z0.14 F3600.0
M108 R6.155
M103
G1 X-19.0 Y8.11 Z0.14 F3600.0
M108 R30.0
M101
G1 X-18.15 Y8.56 Z0.14 F3600.0
M108 R6.155
G1 X-18.15 Y-7.83 Z0.14 F3600.0
G1 X-18.62 Y-7.57 Z0.14 F3600.0
G1 X-18.62 Y7.49 Z0.14 F3600.0
M108 R30.0
M102
G1 X-18.62 Y8.39 Z0.14 F3600.0
M108 R6.155
M103
G1 X-16.85 Y-8.63 Z0.14 F3600.0
M108 R30.0
M101
G1 X-16.75 Y-9.58 Z0.14 F3600.0
M108 R6.155
G1 X-16.75 Y9.63 Z0.14 F3600.0
G1 X-17.22 Y9.14 Z0.14 F3600.0
G1 X-17.22 Y-8.76 Z0.14 F3600.0
G1 X-17.69 Y-8.22 Z0.14 F3600.0
G1 X-17.69 Y7.89 Z0.14 F3600.0
M108 R30.0
M102
G1 X-17.69 Y8.79 Z0.14 F3600.0
M108 R6.155
M103
G1 X-16.93 Y9.63 Z0.14 F3600.0
M108 R30.0
M101
G1 X-16.29 Y10.34 Z0.14 F3600.0
M108 R6.155
G1 X-16.29 Y-13.58 Z0.14 F3600.0
G1 X-16.75 Y-13.56 Z0.14 F3600.0
G1 X-16.75 Y-12.33 Z0.14 F3600.0
M103
G1 X-17.22 Y-13.21 Z0.14 F3600.0
M101
M108 R30.0
M102
G1 X-17.22 Y-13.55 Z0.14 F1380.0
M108 R6.155
M103
G1 X-15.85 Y-13.59 Z0.14 F3600.0
M108 R30.0
M101
G1 X-14.89 Y-13.61 Z0.14 F3600.0
M108 R6.155
G1 X-14.89 Y14.39 Z0.14 F3600.0
G1 X-15.36 Y14.41 Z0.14 F3600.0
G1 X-15.36 Y-13.6 Z0.14 F3600.0
G1 X-15.82 Y-13.59 Z0.14 F3600.0
G1 X-15.82 Y14.42 Z0.14 F3600.0
G1 X-16.21 Y13.82 Z0.14 F3600.0
M108 R30.0
M102
G1 X-16.29 Y13.69 Z0.14 F3600.0
G1 X-16.29 Y14.43 Z0.14 F3600.0
M108 R6.155
M103
G1 X-14.46 Y14.38 Z0.14 F3600.0
M108 R30.0
M101
G1 X-13.5 Y14.36 Z0.14 F3600.0
M108 R6.155
G1 X-13.5 Y-13.65 Z0.14 F3600.0
M103
G1 X-13.96 Y-13.64 Z0.14 F3600.0
M101
G1 X-13.96 Y14.37 Z0.14 F3600.0
G1 X-14.43 Y14.38 Z0.14 F3600.0
G1 X-14.43 Y-12.73 Z0.14 F3600.0
M108 R30.0
M102
G1 X-14.43 Y-13.63 Z0.14 F3600.0
M108 R6.155
M103
G1 X-11.2 Y-13.71 Z0.14 F3600.0
M108 R30.0
M101
G1 X-10.24 Y-13.74 Z0.14 F3600.0
M108 R6.155
G1 X-10.24 Y14.27 Z0.14 F3600.0
G1 X-10.71 Y14.29 Z0.14 F3600.0
G1 X-10.71 Y-13.72 Z0.14 F3600.0
G1 X-11.17 Y-13.71 Z0.14 F3600.0
G1 X-11.17 Y14.3 Z0.14 F3600.0
G1 X-11.64 Y14.31 Z0.14 F3600.0
G1 X-11.64 Y-13.7 Z0.14 F3600.0
G1 X-12.1 Y-13.69 Z0.14 F3600.0
G1 X-12.1 Y14.32 Z0.14 F3600.0
M103
G1 X-12.57 Y14.33 Z0.14 F3600.0
M101
G1 X-12.57 Y-13.67 Z0.14 F3600.0
G1 X-13.03 Y-13.66 Z0.14 F3600.0
G1 X-13.03 Y13.45 Z0.14 F3600.0
M108 R30.0
M102
G1 X-13.03 Y14.35 Z0.14 F3600.0
M108 R6.155
M103
G1 X-9.8 Y14.26 Z0.14 F3600.0
M108 R30.0
M101
G1 X-8.84 Y14.24 Z0.14 F3600.0
M108 R6.155
G1 X-8.84 Y-13.77 Z0.14 F3600.0
M103
G1 X-9.31 Y-13.76 Z0.14 F3600.0
M101
G1 X-9.31 Y14.25 Z0.14 F3600.0
G1 X-9.77 Y14.26 Z0.14 F3600.0
G1 X-9.77 Y-12.85 Z0.14 F3600.0
M108 R30.0
M102
G1 X-9.77 Y-13.75 Z0.14 F3600.0
M108 R6.155
M103
G1 X-6.54 Y-13.83 Z0.14 F3600.0
M108 R30.0
M101
G1 X-5.58 Y-13.86 Z0.14 F3600.0
M108 R6.155
G1 X-5.58 Y14.15 Z0.14 F3600.0
G1 X-6.05 Y14.16 Z0.14 F3600.0
G1 X-6.05 Y-13.85 Z0.14 F3600.0
G1 X-6.52 Y-13.83 Z0.14 F3600.0
G1 X-6.52 Y14.18 Z0.14 F3600.0
G1 X-6.98 Y14.19 Z0.14 F3600.0
G1 X-6.98 Y-13.82 Z0.14 F3600.0
G1 X-7.45 Y-13.81 Z0.14 F3600.0
G1 X-7.45 Y14.2 Z0.14 F3600.0
M103
G1 X-7.91 Y14.21 Z0.14 F3600.0
M101
G1 X-7.91 Y-13.8 Z0.14 F3600.0
G1 X-8.38 Y-13.78 Z0.14 F3600.0
G1 X-8.38 Y13.32 Z0.14 F3600.0
M108 R30.0
M102
G1 X-8.38 Y14.22 Z0.14 F3600.0
M108 R6.155
M103
G1 X-5.15 Y14.14 Z0.14 F3600.0
M108 R30.0
M101
G1 X-4.19 Y14.11 Z0.14 F3600.0
M108 R6.155
G1 X-4.19 Y-13.89 Z0.14 F3600.0
M103
G1 X-4.65 Y-13.88 Z0.14 F3600.0
M101
G1 X-4.65 Y14.13 Z0.14 F3600.0
G1 X-5.12 Y14.14 Z0.14 F3600.0
G1 X-5.12 Y-12.97 Z0.14 F3600.0
M108 R30.0
M102
G1 X-5.12 Y-13.87 Z0.14 F3600.0
M108 R6.155
M103
G1 X-2.82 Y-13.93 Z0.14 F3600.0
M108 R30.0
M101
G1 X-1.86 Y-13.96 Z0.14 F3600.0
M108 R6.155
G1 X-1.86 Y14.05 Z0.14 F3600.0
G1 X-2.33 Y14.06 Z0.14 F3600.0
G1 X-2.33 Y-13.94 Z0.14 F3600.0
G1 X-2.79 Y-13.93 Z0.14 F3600.0
G1 X-2.79 Y14.08 Z0.14 F3600.0
M103
G1 X-3.26 Y14.09 Z0.14 F3600.0
M101
G1 X-3.26 Y-13.92 Z0.14 F3600.0
G1 X-3.72 Y-13.91 Z0.14 F3600.0
G1 X-3.72 Y13.2 Z0.14 F3600.0
M108 R30.0
M102
G1 X-3.72 Y14.1 Z0.14 F3600.0
M108 R6.155
M103
G1 X-1.43 Y14.04 Z0.14 F3600.0
M108 R30.0
M101
G1 X-0.47 Y14.02 Z0.14 F3600.0
M108 R6.155
G1 X-0.47 Y-13.99 Z0.14 F3600.0
M103
G1 X-0.0 Y-14.0 Z0.14 F3600.0
M101
G1 X0.0 Y14.0 Z0.14 F3600.0
M103
G1 X0.47 Y13.99 Z0.14 F3600.0
M101
G1 X0.47 Y-13.12 Z0.14 F3600.0
M108 R30.0
M102
G1 X0.47 Y-14.02 Z0.14 F3600.0
M108 R6.155
M103
G1 X0.03 Y-14.01 Z0.14 F3600.0
M108 R30.0
M101
G1 X-0.93 Y-13.98 Z0.14 F3600.0
M108 R6.155
G1 X-0.93 Y14.03 Z0.14 F3600.0
G1 X-1.4 Y14.04 Z0.14 F3600.0
G1 X-1.4 Y-13.07 Z0.14 F3600.0
M108 R30.0
M102
G1 X-1.4 Y-13.97 Z0.14 F3600.0
M108 R6.155
M103
G1 X1.83 Y-14.05 Z0.14 F3600.0
M108 R30.0
M101
G1 X2.79 Y-14.08 Z0.14 F3600.0
M108 R6.155
G1 X2.79 Y13.93 Z0.14 F3600.0
G1 X2.33 Y13.94 Z0.14 F3600.0
G1 X2.33 Y-14.06 Z0.14 F3600.0
G1 X1.86 Y-14.05 Z0.14 F3600.0
G1 X1.86 Y13.96 Z0.14 F3600.0
M103
G1 X1.4 Y13.97 Z0.14 F3600.0
M101
G1 X1.4 Y-14.04 Z0.14 F3600.0
G1 X0.93 Y-14.03 Z0.14 F3600.0
G1 X0.93 Y13.08 Z0.14 F3600.0
M108 R30.0
M102
G1 X0.93 Y13.98 Z0.14 F3600.0
M108 R6.155
M103
G1 X3.23 Y13.92 Z0.14 F3600.0
M108 R30.0
M101
G1 X4.19 Y13.89 Z0.14 F3600.0
M108 R6.155
G1 X4.19 Y-14.11 Z0.14 F3600.0
M103
G1 X3.72 Y-14.1 Z0.14 F3600.0
M101
G1 X3.72 Y13.91 Z0.14 F3600.0
G1 X3.26 Y13.92 Z0.14 F3600.0
G1 X3.26 Y-13.19 Z0.14 F3600.0
M108 R30.0
M102
G1 X3.26 Y-14.09 Z0.14 F3600.0
M108 R6.155
M103
G1 X6.49 Y-14.18 Z0.14 F3600.0
M108 R30.0
M101
G1 X7.45 Y-14.2 Z0.14 F3600.0
M108 R6.155
G1 X7.45 Y13.81 Z0.14 F3600.0
G1 X6.98 Y13.82 Z0.14 F3600.0
G1 X6.98 Y-14.19 Z0.14 F3600.0
G1 X6.52 Y-14.18 Z0.14 F3600.0
G1 X6.52 Y13.83 Z0.14 F3600.0
G1 X6.05 Y13.85 Z0.14 F3600.0
G1 X6.05 Y-14.16 Z0.14 F3600.0
G1 X5.58 Y-14.15 Z0.14 F3600.0
G1 X5.58 Y13.86 Z0.14 F3600.0
M103
G1 X5.12 Y13.87 Z0.14 F3600.0
M101
G1 X5.12 Y-14.14 Z0.14 F3600.0
G1 X4.65 Y-14.13 Z0.14 F3600.0
G1 X4.65 Y12.98 Z0.14 F3600.0
M108 R30.0
M102
G1 X4.65 Y13.88 Z0.14 F3600.0
M108 R6.155
M103
G1 X7.88 Y13.8 Z0.14 F3600.0
M108 R30.0
M101
G1 X8.84 Y13.77 Z0.14 F3600.0
M108 R6.155
G1 X8.84 Y-14.24 Z0.14 F3600.0
M103
G1 X8.38 Y-14.22 Z0.14 F3600.0
M101
G1 X8.38 Y13.78 Z0.14 F3600.0
G1 X7.91 Y13.8 Z0.14 F3600.0
G1 X7.91 Y-13.31 Z0.14 F3600.0
M108 R30.0
M102
G1 X7.91 Y-14.21 Z0.14 F3600.0
M108 R6.155
M103
G1 X11.14 Y-14.3 Z0.14 F3600.0
M108 R30.0
M101
G1 X12.1 Y-14.32 Z0.14 F3600.0
M108 R6.155
G1 X12.1 Y13.69 Z0.14 F3600.0
G1 X11.64 Y13.7 Z0.14 F3600.0
G1 X11.64 Y-14.31 Z0.14 F3600.0
G1 X11.17 Y-14.3 Z0.14 F3600.0
G1 X11.17 Y13.71 Z0.14 F3600.0
G1 X10.71 Y13.72 Z0.14 F3600.0
G1 X10.71 Y-14.29 Z0.14 F3600.0
G1 X10.24 Y-14.27 Z0.14 F3600.0
G1 X10.24 Y13.74 Z0.14 F3600.0
M103
G1 X9.77 Y13.75 Z0.14 F3600.0
M101
G1 X9.77 Y-14.26 Z0.14 F3600.0
G1 X9.31 Y-14.25 Z0.14 F3600.0
G1 X9.31 Y12.86 Z0.14 F3600.0
M108 R30.0
M102
G1 X9.31 Y13.76 Z0.14 F3600.0
M108 R6.155
M103
G1 X12.54 Y13.68 Z0.14 F3600.0
M108 R30.0
M101
G1 X13.5 Y13.65 Z0.14 F3600.0
M108 R6.155
G1 X13.5 Y-14.36 Z0.14 F3600.0
M103
G1 X13.03 Y-14.35 Z0.14 F3600.0
M101
G1 X13.03 Y13.66 Z0.14 F3600.0
G1 X12.57 Y13.67 Z0.14 F3600.0
G1 X12.57 Y-13.43 Z0.14 F3600.0
M108 R30.0
M102
G1 X12.57 Y-14.33 Z0.14 F3600.0
M108 R6.155
M103
G1 X14.86 Y-14.39 Z0.14 F3600.0
M108 R30.0
M101
G1 X15.82 Y-14.42 Z0.14 F3600.0
M108 R6.155
G1 X15.82 Y13.59 Z0.14 F3600.0
G1 X15.36 Y13.6 Z0.14 F3600.0
G1 X15.36 Y-14.41 Z0.14 F3600.0
G1 X14.89 Y-14.39 Z0.14 F3600.0
G1 X14.89 Y13.61 Z0.14 F3600.0
M103
G1 X14.43 Y13.63 Z0.14 F3600.0
M101
G1 X14.43 Y-14.38 Z0.14 F3600.0
G1 X13.96 Y-14.37 Z0.14 F3600.0
G1 X13.96 Y12.74 Z0.14 F3600.0
M108 R30.0
M102
G1 X13.96 Y13.64 Z0.14 F3600.0
M108 R6.155
M103
G1 X15.33 Y13.6 Z0.14 F3600.0
M108 R30.0
M101
G1 X16.29 Y13.58 Z0.14 F3600.0
M108 R6.155
G1 X16.29 Y-9.44 Z0.14 F3600.0
M108 R30.0
M102
G1 X16.29 Y-10.34 Z0.14 F3600.0
M108 R6.155
M103
G1 X17.04 Y-9.5 Z0.14 F3600.0
M108 R30.0
M101
G1 X17.69 Y-8.79 Z0.14 F3600.0
M108 R6.155
G1 X17.69 Y8.22 Z0.14 F3600.0
G1 X17.22 Y8.76 Z0.14 F3600.0
G1 X17.22 Y-9.14 Z0.14 F3600.0
G1 X16.75 Y-9.63 Z0.14 F3600.0
G1 X16.75 Y8.68 Z0.14 F3600.0
M108 R30.0
M102
G1 X16.75 Y9.58 Z0.14 F3600.0
M108 R6.155
M103
G1 X16.75 Y11.37 Z0.14 F3600.0
M108 R30.0
M101
G1 X16.75 Y12.33 Z0.14 F3600.0
M108 R6.155
G1 X16.75 Y13.48 Z0.14 F3600.0
M108 R30.0
M102
G1 X16.75 Y13.56 Z0.14 F3600.0
G1 X17.22 Y13.55 Z0.14 F3600.0
G1 X17.22 Y13.21 Z0.14 F3600.0
M108 R6.155
M103
G1 X17.22 Y10.44 Z0.14 F6000.0
G1 X17.38 Y9.85 Z0.14 F6000.0
G1 X18.54 Y8.17 Z0.14 F3600.0
M108 R30.0
M101
G1 X19.08 Y7.38 Z0.14 F3600.0
M108 R6.155
G1 X19.08 Y-8.27 Z0.14 F3600.0
M103
G1 X18.62 Y-8.39 Z0.14 F3600.0
M101
G1 X18.62 Y7.57 Z0.14 F3600.0
G1 X18.15 Y7.83 Z0.14 F3600.0
G1 X18.15 Y-7.66 Z0.14 F3600.0
M108 R30.0
M102
G1 X18.15 Y-8.56 Z0.14 F3600.0
M108 R6.155
M103
G1 X19.52 Y-8.41 Z0.14 F3600.0
M108 R30.0
M101
G1 X20.48 Y-8.3 Z0.14 F3600.0
M108 R6.155
G1 X20.48 Y7.19 Z0.14 F3600.0
G1 X20.01 Y7.19 Z0.14 F3600.0
G1 X20.01 Y-8.24 Z0.14 F3600.0
G1 X19.55 Y-8.23 Z0.14 F3600.0
G1 X19.55 Y6.35 Z0.14 F3600.0
M108 R30.0
M102
G1 X19.55 Y7.25 Z0.14 F3600.0
M108 R6.155
M103
G1 X20.92 Y7.41 Z0.14 F3600.0
M108 R30.0
M101
G1 X21.88 Y7.53 Z0.14 F3600.0
M108 R6.155
G1 X21.88 Y-8.91 Z0.14 F3600.0
G1 X21.41 Y-8.64 Z0.14 F3600.0
G1 X21.41 Y7.35 Z0.14 F3600.0
G1 X20.94 Y7.22 Z0.14 F3600.0
G1 X20.94 Y-7.55 Z0.14 F3600.0
M108 R30.0
M102
G1 X20.94 Y-8.45 Z0.14 F3600.0
M108 R6.155
M103
G1 X21.81 Y-7.16 Z0.14 F3600.0
M108 R30.0
M101
G1 X22.34 Y-6.36 Z0.14 F3600.0
M108 R6.155
G1 X22.34 Y6.87 Z0.14 F3600.0
M108 R30.0
M102
G1 X22.34 Y7.76 Z0.14 F3600.0
M108 R6.155
M103
G1 X16.29 Y-13.69 Z0.14 F3600.0
M101
G1 X16.29 Y-14.43 Z0.14 F3600.0
M103
(</surroundingLoop>)
(</layer>)
(<layer> 0.405 )
(<surroundingLoop>)
(<boundaryPerimeter>)
(<boundaryPoint> X23.098 Y-15.611 Z0.405 </boundaryPoint>)
(<boundaryPoint> X23.885 Y14.378 Z0.405 </boundaryPoint>)
(<boundaryPoint> X-23.098 Y15.611 Z0.405 </boundaryPoint>)
(<boundaryPoint> X-23.885 Y-14.378 Z0.405 </boundaryPoint>)
M108 R10.26
G1 X-18.03 Y-14.27 Z0.39 F6000.0
M108 R30.0
M101
G1 X-19.63 Y-14.26 Z0.41 F6000.0
M108 R10.26
G1 X17.35 Y-15.23 Z0.41 F6000.0
M108 R30.0
M102
G1 X18.85 Y-15.27 Z0.41 F6000.0
M108 R10.26
M103
M108 R30.0
M101
G1 X20.36 Y-15.31 Z0.41 F5634.398
M108 R10.26
G1 X22.87 Y-15.37 Z0.41 F6000.0
G1 X22.9 Y-14.36 Z0.41 F6000.0
M108 R30.0
M102
G1 X22.94 Y-12.86 Z0.41 F6000.0
M108 R10.26
M103
M108 R30.0
M101
G1 X22.98 Y-11.36 Z0.41 F5634.398
M108 R10.26
G1 X23.5 Y8.63 Z0.41 F6000.0
M108 R30.0
M102
G1 X23.54 Y10.13 Z0.41 F6000.0
M108 R10.26
M103
M108 R30.0
M101
G1 X23.58 Y11.63 Z0.41 F5634.398
M108 R10.26
G1 X23.65 Y14.15 Z0.41 F6000.0
G1 X22.63 Y14.18 Z0.41 F6000.0
M108 R30.0
M102
G1 X21.13 Y14.22 Z0.41 F6000.0
M108 R10.26
M103
M108 R30.0
M101
G1 X19.63 Y14.26 Z0.41 F5630.65
M108 R10.26
G1 X-17.35 Y15.23 Z0.41 F6000.0
M108 R30.0
M102
G1 X-18.85 Y15.27 Z0.41 F6000.0
M108 R10.26
M103
M108 R30.0
M101
G1 X-20.36 Y15.31 Z0.41 F5634.398
M108 R10.26
G1 X-22.87 Y15.37 Z0.41 F6000.0
G1 X-22.9 Y14.36 Z0.41 F6000.0
M108 R30.0
M102
G1 X-22.94 Y12.86 Z0.41 F6000.0
M108 R10.26
M103
M108 R30.0
M101
G1 X-22.98 Y11.36 Z0.41 F5634.398
M108 R10.26
G1 X-23.5 Y-8.63 Z0.41 F6000.0
M108 R30.0
M102
G1 X-23.54 Y-10.13 Z0.41 F6000.0
M108 R10.26
M103
M108 R30.0
M101
G1 X-23.58 Y-11.63 Z0.41 F5634.398
M108 R10.26
G1 X-23.65 Y-14.15 Z0.41 F6000.0
G1 X-21.13 Y-14.22 Z0.41 F6000.0
M103
(</boundaryPerimeter>)
(<surroundingLoop>)
(<boundaryPerimeter>)
(<boundaryPoint> X-17.496 Y-11.045 Z0.405 </boundaryPoint>)
(<boundaryPoint> X-17.564 Y-11.589 Z0.405 </boundaryPoint>)
(<boundaryPoint> X-17.737 Y-12.11 Z0.405 </boundaryPoint>)
(<boundaryPoint> X-18.008 Y-12.588 Z0.405 </boundaryPoint>)
(<boundaryPoint> X-18.368 Y-13.003 Z0.405 </boundaryPoint>)
(<boundaryPoint> X-18.801 Y-13.339 Z0.405 </boundaryPoint>)
(<boundaryPoint> X-19.292 Y-13.585 Z0.405 </boundaryPoint>)
(<boundaryPoint> X-19.821 Y-13.731 Z0.405 </boundaryPoint>)
(<boundaryPoint> X-20.368 Y-13.77 Z0.405 </boundaryPoint>)
(<boundaryPoint> X-20.913 Y-13.702 Z0.405 </boundaryPoint>)
(<boundaryPoint> X-21.434 Y-13.529 Z0.405 </boundaryPoint>)
(<boundaryPoint> X-21.911 Y-13.258 Z0.405 </boundaryPoint>)
(<boundaryPoint> X-22.326 Y-12.899 Z0.405 </boundaryPoint>)
(<boundaryPoint> X-22.663 Y-12.465 Z0.405 </boundaryPoint>)
(<boundaryPoint> X-22.909 Y-11.975 Z0.405 </boundaryPoint>)
(<boundaryPoint> X-23.054 Y-11.445 Z0.405 </boundaryPoint>)
(<boundaryPoint> X-23.094 Y-10.898 Z0.405 </boundaryPoint>)
(<boundaryPoint> X-23.026 Y-10.353 Z0.405 </boundaryPoint>)
(<boundaryPoint> X-22.853 Y-9.832 Z0.405 </boundaryPoint>)
(<boundaryPoint> X-22.581 Y-9.355 Z0.405 </boundaryPoint>)
(<boundaryPoint> X-22.222 Y-8.94 Z0.405 </boundaryPoint>)
(<boundaryPoint> X-21.789 Y-8.603 Z0.405 </boundaryPoint>)
(<boundaryPoint> X-21.298 Y-8.357 Z0.405 </boundaryPoint>)
(<boundaryPoint> X-20.769 Y-8.212 Z0.405 </boundaryPoint>)
(<boundaryPoint> X-20.221 Y-8.172 Z0.405 </boundaryPoint>)
(<boundaryPoint> X-19.677 Y-8.24 Z0.405 </boundaryPoint>)
(<boundaryPoint> X-19.156 Y-8.414 Z0.405 </boundaryPoint>)
(<boundaryPoint> X-18.679 Y-8.685 Z0.405 </boundaryPoint>)
(<boundaryPoint> X-18.264 Y-9.044 Z0.405 </boundaryPoint>)
(<boundaryPoint> X-17.927 Y-9.477 Z0.405 </boundaryPoint>)
(<boundaryPoint> X-17.681 Y-9.968 Z0.405 </boundaryPoint>)
(<boundaryPoint> X-17.535 Y-10.497 Z0.405 </boundaryPoint>)
(<perimeter> inner )
G1 X-20.74 Y-14.07 Z0.41 F6000.0
M101
G1 X-20.99 Y-14.05 Z0.41 F6000.0
G1 X-21.58 Y-13.85 Z0.41 F6000.0
G1 X-22.12 Y-13.55 Z0.41 F6000.0
G1 X-22.58 Y-13.14 Z0.41 F6000.0
G1 X-22.96 Y-12.65 Z0.41 F6000.0
G1 X-23.24 Y-12.1 Z0.41 F6000.0
G1 X-23.4 Y-11.51 Z0.41 F6000.0
G1 X-23.45 Y-10.89 Z0.41 F6000.0
G1 X-23.37 Y-10.27 Z0.41 F6000.0
G1 X-23.18 Y-9.69 Z0.41 F6000.0
G1 X-22.87 Y-9.15 Z0.41 F6000.0
G1 X-22.47 Y-8.68 Z0.41 F6000.0
G1 X-21.98 Y-8.3 Z0.41 F6000.0
G1 X-21.43 Y-8.03 Z0.41 F6000.0
G1 X-20.83 Y-7.86 Z0.41 F6000.0
G1 X-20.21 Y-7.82 Z0.41 F6000.0
G1 X-19.6 Y-7.89 Z0.41 F6000.0
G1 X-19.01 Y-8.09 Z0.41 F6000.0
G1 X-18.48 Y-8.4 Z0.41 F6000.0
G1 X-18.01 Y-8.8 Z0.41 F6000.0
G1 X-17.63 Y-9.29 Z0.41 F6000.0
G1 X-17.35 Y-9.84 Z0.41 F6000.0
G1 X-17.19 Y-10.44 Z0.41 F6000.0
G1 X-17.14 Y-11.05 Z0.41 F6000.0
G1 X-17.22 Y-11.67 Z0.41 F6000.0
G1 X-17.41 Y-12.25 Z0.41 F6000.0
G1 X-17.72 Y-12.79 Z0.41 F6000.0
G1 X-18.12 Y-13.26 Z0.41 F6000.0
G1 X-18.61 Y-13.64 Z0.41 F6000.0
G1 X-19.16 Y-13.91 Z0.41 F6000.0
G1 X-19.26 Y-13.94 Z0.41 F6000.0
M108 R30.0
M102
G1 X-19.76 Y-14.08 Z0.41 F6000.0
G1 X-20.38 Y-14.12 Z0.41 F6000.0
G1 X-20.74 Y-14.07 Z0.41 F6000.0
M108 R10.26
M103
(</perimeter>)
(</boundaryPerimeter>)
(</surroundingLoop>)
(<surroundingLoop>)
(<boundaryPerimeter>)
(<boundaryPoint> X-16.892 Y11.947 Z0.405 </boundaryPoint>)
(<boundaryPoint> X-16.961 Y11.403 Z0.405 </boundaryPoint>)
(<boundaryPoint> X-17.134 Y10.882 Z0.405 </boundaryPoint>)
(<boundaryPoint> X-17.405 Y10.405 Z0.405 </boundaryPoint>)
(<boundaryPoint> X-17.764 Y9.99 Z0.405 </boundaryPoint>)
(<boundaryPoint> X-18.197 Y9.653 Z0.405 </boundaryPoint>)
(<boundaryPoint> X-18.688 Y9.407 Z0.405 </boundaryPoint>)
(<boundaryPoint> X-19.217 Y9.261 Z0.405 </boundaryPoint>)
(<boundaryPoint> X-19.765 Y9.222 Z0.405 </boundaryPoint>)
(<boundaryPoint> X-20.31 Y9.29 Z0.405 </boundaryPoint>)
(<boundaryPoint> X-20.83 Y9.463 Z0.405 </boundaryPoint>)
(<boundaryPoint> X-21.308 Y9.734 Z0.405 </boundaryPoint>)
(<boundaryPoint> X-21.723 Y10.093 Z0.405 </boundaryPoint>)
(<boundaryPoint> X-22.06 Y10.527 Z0.405 </boundaryPoint>)
(<boundaryPoint> X-22.306 Y11.017 Z0.405 </boundaryPoint>)
(<boundaryPoint> X-22.451 Y11.547 Z0.405 </boundaryPoint>)
(<boundaryPoint> X-22.49 Y12.094 Z0.405 </boundaryPoint>)
(<boundaryPoint> X-22.422 Y12.639 Z0.405 </boundaryPoint>)
(<boundaryPoint> X-22.249 Y13.16 Z0.405 </boundaryPoint>)
(<boundaryPoint> X-21.978 Y13.637 Z0.405 </boundaryPoint>)
(<boundaryPoint> X-21.619 Y14.052 Z0.405 </boundaryPoint>)
(<boundaryPoint> X-21.185 Y14.389 Z0.405 </boundaryPoint>)
(<boundaryPoint> X-20.695 Y14.635 Z0.405 </boundaryPoint>)
(<boundaryPoint> X-20.165 Y14.78 Z0.405 </boundaryPoint>)
(<boundaryPoint> X-19.618 Y14.82 Z0.405 </boundaryPoint>)
(<boundaryPoint> X-19.073 Y14.752 Z0.405 </boundaryPoint>)
(<boundaryPoint> X-18.552 Y14.579 Z0.405 </boundaryPoint>)
(<boundaryPoint> X-18.075 Y14.307 Z0.405 </boundaryPoint>)
(<boundaryPoint> X-17.66 Y13.948 Z0.405 </boundaryPoint>)
(<boundaryPoint> X-17.323 Y13.515 Z0.405 </boundaryPoint>)
(<boundaryPoint> X-17.077 Y13.024 Z0.405 </boundaryPoint>)
(<boundaryPoint> X-16.932 Y12.495 Z0.405 </boundaryPoint>)
(<perimeter> inner )
G1 X-22.1 Y-13.52 Z0.41 F6000.0
G1 X-22.56 Y-13.12 Z0.41 F6000.0
G1 X-22.94 Y-12.64 Z0.41 F6000.0
G1 X-23.21 Y-12.09 Z0.41 F6000.0
G1 X-23.37 Y-11.5 Z0.41 F6000.0
G1 X-23.42 Y-10.89 Z0.41 F6000.0
G1 X-20.06 Y7.29 Z0.41 F6000.0
M108 R30.0
M101
G1 X-19.77 Y8.87 Z0.41 F6000.0
M108 R10.26
G1 X-20.39 Y8.95 Z0.41 F6000.0
G1 X-20.97 Y9.14 Z0.41 F6000.0
G1 X-21.51 Y9.45 Z0.41 F6000.0
G1 X-21.98 Y9.85 Z0.41 F6000.0
G1 X-22.36 Y10.34 Z0.41 F6000.0
G1 X-22.64 Y10.89 Z0.41 F6000.0
G1 X-22.8 Y11.49 Z0.41 F6000.0
G1 X-22.84 Y12.1 Z0.41 F6000.0
G1 X-22.77 Y12.72 Z0.41 F6000.0
G1 X-22.57 Y13.3 Z0.41 F6000.0
G1 X-22.27 Y13.84 Z0.41 F6000.0
G1 X-21.86 Y14.31 Z0.41 F6000.0
G1 X-21.37 Y14.69 Z0.41 F6000.0
G1 X-20.82 Y14.96 Z0.41 F6000.0
G1 X-20.23 Y15.13 Z0.41 F6000.0
G1 X-19.61 Y15.17 Z0.41 F6000.0
G1 X-18.99 Y15.1 Z0.41 F6000.0
G1 X-18.41 Y14.9 Z0.41 F6000.0
G1 X-17.87 Y14.6 Z0.41 F6000.0
G1 X-17.4 Y14.19 Z0.41 F6000.0
G1 X-17.02 Y13.7 Z0.41 F6000.0
G1 X-16.75 Y13.15 Z0.41 F6000.0
G1 X-16.58 Y12.55 Z0.41 F6000.0
G1 X-16.54 Y11.94 Z0.41 F6000.0
G1 X-16.62 Y11.32 Z0.41 F6000.0
G1 X-16.81 Y10.74 Z0.41 F6000.0
G1 X-17.12 Y10.2 Z0.41 F6000.0
G1 X-17.52 Y9.73 Z0.41 F6000.0
G1 X-18.01 Y9.35 Z0.41 F6000.0
G1 X-18.33 Y9.19 Z0.41 F6000.0
M108 R30.0
M102
G1 X-18.56 Y9.08 Z0.41 F6000.0
G1 X-19.16 Y8.91 Z0.41 F6000.0
G1 X-19.77 Y8.87 Z0.41 F6000.0
M108 R10.26
M103
(</perimeter>)
(</boundaryPerimeter>)
(</surroundingLoop>)
(<surroundingLoop>)
(<boundaryPerimeter>)
(<boundaryPoint> X22.853 Y9.832 Z0.405 </boundaryPoint>)
(<boundaryPoint> X22.581 Y9.355 Z0.405 </boundaryPoint>)
(<boundaryPoint> X22.222 Y8.94 Z0.405 </boundaryPoint>)
(<boundaryPoint> X21.789 Y8.603 Z0.405 </boundaryPoint>)
(<boundaryPoint> X21.298 Y8.357 Z0.405 </boundaryPoint>)
(<boundaryPoint> X20.769 Y8.212 Z0.405 </boundaryPoint>)
(<boundaryPoint> X20.221 Y8.172 Z0.405 </boundaryPoint>)
(<boundaryPoint> X19.677 Y8.24 Z0.405 </boundaryPoint>)
(<boundaryPoint> X19.156 Y8.414 Z0.405 </boundaryPoint>)
(<boundaryPoint> X18.679 Y8.685 Z0.405 </boundaryPoint>)
(<boundaryPoint> X18.264 Y9.044 Z0.405 </boundaryPoint>)
(<boundaryPoint> X17.927 Y9.477 Z0.405 </boundaryPoint>)
(<boundaryPoint> X17.681 Y9.968 Z0.405 </boundaryPoint>)
(<boundaryPoint> X17.535 Y10.497 Z0.405 </boundaryPoint>)
(<boundaryPoint> X17.496 Y11.045 Z0.405 </boundaryPoint>)
(<boundaryPoint> X17.564 Y11.589 Z0.405 </boundaryPoint>)
(<boundaryPoint> X17.737 Y12.11 Z0.405 </boundaryPoint>)
(<boundaryPoint> X18.008 Y12.588 Z0.405 </boundaryPoint>)
(<boundaryPoint> X18.368 Y13.003 Z0.405 </boundaryPoint>)
(<boundaryPoint> X18.801 Y13.339 Z0.405 </boundaryPoint>)
(<boundaryPoint> X19.292 Y13.585 Z0.405 </boundaryPoint>)
(<boundaryPoint> X19.821 Y13.731 Z0.405 </boundaryPoint>)
(<boundaryPoint> X20.368 Y13.77 Z0.405 </boundaryPoint>)
(<boundaryPoint> X20.913 Y13.702 Z0.405 </boundaryPoint>)
(<boundaryPoint> X21.434 Y13.529 Z0.405 </boundaryPoint>)
(<boundaryPoint> X21.911 Y13.258 Z0.405 </boundaryPoint>)
(<boundaryPoint> X22.326 Y12.899 Z0.405 </boundaryPoint>)
(<boundaryPoint> X22.663 Y12.465 Z0.405 </boundaryPoint>)
(<boundaryPoint> X22.909 Y11.975 Z0.405 </boundaryPoint>)
(<boundaryPoint> X23.054 Y11.445 Z0.405 </boundaryPoint>)
(<boundaryPoint> X23.094 Y10.898 Z0.405 </boundaryPoint>)
(<boundaryPoint> X23.026 Y10.353 Z0.405 </boundaryPoint>)
(<perimeter> inner )
G1 X15.54 Y10.96 Z0.41 F6000.0
M108 R30.0
M101
G1 X17.14 Y11.05 Z0.41 F6000.0
M108 R10.26
G1 X17.22 Y11.67 Z0.41 F6000.0
G1 X17.41 Y12.25 Z0.41 F6000.0
G1 X17.72 Y12.79 Z0.41 F6000.0
G1 X18.12 Y13.26 Z0.41 F6000.0
G1 X18.61 Y13.64 Z0.41 F6000.0
G1 X19.16 Y13.91 Z0.41 F6000.0
G1 X19.76 Y14.08 Z0.41 F6000.0
G1 X20.38 Y14.12 Z0.41 F6000.0
G1 X20.99 Y14.05 Z0.41 F6000.0
G1 X21.58 Y13.85 Z0.41 F6000.0
G1 X22.12 Y13.55 Z0.41 F6000.0
G1 X22.58 Y13.14 Z0.41 F6000.0
G1 X22.96 Y12.65 Z0.41 F6000.0
G1 X23.24 Y12.1 Z0.41 F6000.0
G1 X23.4 Y11.51 Z0.41 F6000.0
G1 X23.45 Y10.89 Z0.41 F6000.0
G1 X23.37 Y10.27 Z0.41 F6000.0
G1 X23.18 Y9.69 Z0.41 F6000.0
G1 X22.87 Y9.15 Z0.41 F6000.0
G1 X22.47 Y8.68 Z0.41 F6000.0
G1 X21.98 Y8.3 Z0.41 F6000.0
G1 X21.43 Y8.03 Z0.41 F6000.0
G1 X20.83 Y7.86 Z0.41 F6000.0
G1 X20.21 Y7.82 Z0.41 F6000.0
G1 X19.6 Y7.89 Z0.41 F6000.0
G1 X19.01 Y8.09 Z0.41 F6000.0
G1 X18.48 Y8.4 Z0.41 F6000.0
G1 X18.01 Y8.8 Z0.41 F6000.0
G1 X17.63 Y9.29 Z0.41 F6000.0
G1 X17.47 Y9.61 Z0.41 F6000.0
M108 R30.0
M102
G1 X17.35 Y9.84 Z0.41 F6000.0
G1 X17.19 Y10.44 Z0.41 F6000.0
G1 X17.14 Y11.05 Z0.41 F6000.0
M108 R10.26
M103
(</perimeter>)
(</boundaryPerimeter>)
(</surroundingLoop>)
(<surroundingLoop>)
(<boundaryPerimeter>)
(<boundaryPoint> X22.49 Y-12.094 Z0.405 </boundaryPoint>)
(<boundaryPoint> X22.422 Y-12.639 Z0.405 </boundaryPoint>)
(<boundaryPoint> X22.249 Y-13.16 Z0.405 </boundaryPoint>)
(<boundaryPoint> X21.978 Y-13.637 Z0.405 </boundaryPoint>)
(<boundaryPoint> X21.619 Y-14.052 Z0.405 </boundaryPoint>)
(<boundaryPoint> X21.185 Y-14.389 Z0.405 </boundaryPoint>)
(<boundaryPoint> X20.695 Y-14.635 Z0.405 </boundaryPoint>)
(<boundaryPoint> X20.165 Y-14.78 Z0.405 </boundaryPoint>)
(<boundaryPoint> X19.618 Y-14.82 Z0.405 </boundaryPoint>)
(<boundaryPoint> X19.073 Y-14.752 Z0.405 </boundaryPoint>)
(<boundaryPoint> X18.552 Y-14.579 Z0.405 </boundaryPoint>)
(<boundaryPoint> X18.075 Y-14.307 Z0.405 </boundaryPoint>)
(<boundaryPoint> X17.66 Y-13.948 Z0.405 </boundaryPoint>)
(<boundaryPoint> X17.323 Y-13.515 Z0.405 </boundaryPoint>)
(<boundaryPoint> X17.077 Y-13.024 Z0.405 </boundaryPoint>)
(<boundaryPoint> X16.932 Y-12.495 Z0.405 </boundaryPoint>)
(<boundaryPoint> X16.892 Y-11.947 Z0.405 </boundaryPoint>)
(<boundaryPoint> X16.961 Y-11.403 Z0.405 </boundaryPoint>)
(<boundaryPoint> X17.134 Y-10.882 Z0.405 </boundaryPoint>)
(<boundaryPoint> X17.405 Y-10.405 Z0.405 </boundaryPoint>)
(<boundaryPoint> X17.764 Y-9.99 Z0.405 </boundaryPoint>)
(<boundaryPoint> X18.197 Y-9.653 Z0.405 </boundaryPoint>)
(<boundaryPoint> X18.688 Y-9.407 Z0.405 </boundaryPoint>)
(<boundaryPoint> X19.217 Y-9.261 Z0.405 </boundaryPoint>)
(<boundaryPoint> X19.765 Y-9.222 Z0.405 </boundaryPoint>)
(<boundaryPoint> X20.31 Y-9.29 Z0.405 </boundaryPoint>)
(<boundaryPoint> X20.83 Y-9.463 Z0.405 </boundaryPoint>)
(<boundaryPoint> X21.308 Y-9.734 Z0.405 </boundaryPoint>)
(<boundaryPoint> X21.723 Y-10.093 Z0.405 </boundaryPoint>)
(<boundaryPoint> X22.06 Y-10.527 Z0.405 </boundaryPoint>)
(<boundaryPoint> X22.306 Y-11.017 Z0.405 </boundaryPoint>)
(<boundaryPoint> X22.451 Y-11.547 Z0.405 </boundaryPoint>)
(<perimeter> inner )
G1 X19.0 Y-7.32 Z0.41 F6000.0
M108 R30.0
M101
G1 X19.16 Y-8.91 Z0.41 F6000.0
M108 R10.26
G1 X19.77 Y-8.87 Z0.41 F6000.0
G1 X20.39 Y-8.95 Z0.41 F6000.0
G1 X20.97 Y-9.14 Z0.41 F6000.0
G1 X21.51 Y-9.45 Z0.41 F6000.0
G1 X21.98 Y-9.85 Z0.41 F6000.0
G1 X22.36 Y-10.34 Z0.41 F6000.0
G1 X22.64 Y-10.89 Z0.41 F6000.0
G1 X22.8 Y-11.49 Z0.41 F6000.0
G1 X22.84 Y-12.1 Z0.41 F6000.0
G1 X22.77 Y-12.72 Z0.41 F6000.0
G1 X22.57 Y-13.3 Z0.41 F6000.0
G1 X22.27 Y-13.84 Z0.41 F6000.0
G1 X21.86 Y-14.31 Z0.41 F6000.0
G1 X21.37 Y-14.69 Z0.41 F6000.0
G1 X20.82 Y-14.96 Z0.41 F6000.0
G1 X20.23 Y-15.13 Z0.41 F6000.0
G1 X19.61 Y-15.17 Z0.41 F6000.0
G1 X18.99 Y-15.1 Z0.41 F6000.0
G1 X18.41 Y-14.9 Z0.41 F6000.0
G1 X17.87 Y-14.6 Z0.41 F6000.0
G1 X17.4 Y-14.19 Z0.41 F6000.0
G1 X17.02 Y-13.7 Z0.41 F6000.0
G1 X16.75 Y-13.15 Z0.41 F6000.0
G1 X16.58 Y-12.55 Z0.41 F6000.0
G1 X16.54 Y-11.94 Z0.41 F6000.0
G1 X16.62 Y-11.32 Z0.41 F6000.0
G1 X16.81 Y-10.74 Z0.41 F6000.0
G1 X17.12 Y-10.2 Z0.41 F6000.0
G1 X17.52 Y-9.73 Z0.41 F6000.0
G1 X18.01 Y-9.35 Z0.41 F6000.0
G1 X18.56 Y-9.08 Z0.41 F6000.0
G1 X19.16 Y-8.91 Z0.41 F6000.0
M103
(</perimeter>)
(</boundaryPerimeter>)
(</surroundingLoop>)
(<loop> outer )
G1 X19.09 Y-8.52 Z0.41 F6000.0
M101
G1 X19.79 Y-8.47 Z0.41 F6000.0
G1 X20.48 Y-8.56 Z0.41 F6000.0
G1 X21.13 Y-8.8 Z0.41 F6000.0
G1 X21.75 Y-9.24 Z0.41 F6000.0
G1 X22.07 Y-9.57 Z0.41 F6000.0
G1 X22.56 Y-9.46 Z0.41 F6000.0
G1 X23.03 Y8.26 Z0.41 F6000.0
G1 X22.55 Y8.4 Z0.41 F6000.0
G1 X22.2 Y8.09 Z0.41 F6000.0
G1 X21.56 Y7.68 Z0.41 F6000.0
G1 X20.9 Y7.47 Z0.41 F6000.0
G1 X20.2 Y7.42 Z0.41 F6000.0
G1 X19.51 Y7.51 Z0.41 F6000.0
G1 X18.85 Y7.73 Z0.41 F6000.0
G1 X18.25 Y8.07 Z0.41 F6000.0
G1 X17.72 Y8.53 Z0.41 F6000.0
G1 X17.29 Y9.08 Z0.41 F6000.0
G1 X16.98 Y9.7 Z0.41 F6000.0
G1 X16.8 Y10.37 Z0.41 F6000.0
G1 X16.75 Y11.06 Z0.41 F6000.0
G1 X16.83 Y11.76 Z0.41 F6000.0
G1 X17.08 Y12.41 Z0.41 F6000.0
G1 X17.52 Y13.03 Z0.41 F6000.0
G1 X17.83 Y13.33 Z0.41 F6000.0
G1 X17.64 Y13.84 Z0.41 F6000.0
G1 X-16.89 Y14.75 Z0.41 F6000.0
G1 X-17.11 Y14.25 Z0.41 F6000.0
G1 X-16.81 Y13.93 Z0.41 F6000.0
G1 X-16.41 Y13.29 Z0.41 F6000.0
G1 X-16.19 Y12.62 Z0.41 F6000.0
G1 X-16.14 Y11.93 Z0.41 F6000.0
G1 X-16.23 Y11.24 Z0.41 F6000.0
G1 X-16.45 Y10.58 Z0.41 F6000.0
G1 X-16.79 Y9.97 Z0.41 F6000.0
G1 X-17.25 Y9.45 Z0.41 F6000.0
G1 X-17.8 Y9.02 Z0.41 F6000.0
G1 X-18.42 Y8.71 Z0.41 F6000.0
G1 X-19.09 Y8.52 Z0.41 F6000.0
G1 X-19.79 Y8.47 Z0.41 F6000.0
G1 X-20.48 Y8.56 Z0.41 F6000.0
G1 X-21.13 Y8.8 Z0.41 F6000.0
G1 X-21.75 Y9.24 Z0.41 F6000.0
G1 X-22.07 Y9.57 Z0.41 F6000.0
G1 X-22.56 Y9.46 Z0.41 F6000.0
G1 X-23.03 Y-8.26 Z0.41 F6000.0
G1 X-22.55 Y-8.4 Z0.41 F6000.0
G1 X-22.2 Y-8.09 Z0.41 F6000.0
G1 X-21.56 Y-7.68 Z0.41 F6000.0
G1 X-20.9 Y-7.47 Z0.41 F6000.0
G1 X-20.2 Y-7.42 Z0.41 F6000.0
G1 X-19.51 Y-7.51 Z0.41 F6000.0
G1 X-18.85 Y-7.73 Z0.41 F6000.0
G1 X-18.25 Y-8.07 Z0.41 F6000.0
G1 X-17.72 Y-8.53 Z0.41 F6000.0
G1 X-17.29 Y-9.08 Z0.41 F6000.0
G1 X-16.98 Y-9.7 Z0.41 F6000.0
G1 X-16.8 Y-10.37 Z0.41 F6000.0
G1 X-16.75 Y-11.06 Z0.41 F6000.0
G1 X-16.83 Y-11.76 Z0.41 F6000.0
G1 X-17.08 Y-12.41 Z0.41 F6000.0
G1 X-17.52 Y-13.03 Z0.41 F6000.0
G1 X-17.83 Y-13.33 Z0.41 F6000.0
G1 X-17.64 Y-13.84 Z0.41 F6000.0
G1 X16.89 Y-14.75 Z0.41 F6000.0
G1 X17.11 Y-14.25 Z0.41 F6000.0
G1 X16.81 Y-13.93 Z0.41 F6000.0
G1 X16.41 Y-13.29 Z0.41 F6000.0
G1 X16.19 Y-12.62 Z0.41 F6000.0
G1 X16.14 Y-11.93 Z0.41 F6000.0
G1 X16.23 Y-11.24 Z0.41 F6000.0
G1 X16.45 Y-10.58 Z0.41 F6000.0
G1 X16.79 Y-9.97 Z0.41 F6000.0
G1 X17.25 Y-9.45 Z0.41 F6000.0
G1 X17.71 Y-9.08 Z0.41 F6000.0
M108 R30.0
M102
G1 X17.8 Y-9.02 Z0.41 F6000.0
G1 X18.42 Y-8.71 Z0.41 F6000.0
G1 X19.09 Y-8.52 Z0.41 F6000.0
M108 R10.26
M103
(</loop>)
G1 X-17.3 Y-7.49 Z0.41 F6000.0
M108 R30.0
M101
G1 X-18.89 Y-7.45 Z0.41 F6000.0
M108 R10.26
G1 X22.31 Y-7.45 Z0.41 F6000.0
G1 X22.3 Y-7.91 Z0.41 F6000.0
G1 X-18.04 Y-7.91 Z0.41 F6000.0
G1 X-17.52 Y-8.38 Z0.41 F6000.0
G1 X17.16 Y-8.38 Z0.41 F6000.0
M108 R30.0
M102
G1 X18.66 Y-8.38 Z0.41 F6000.0
M108 R10.26
M103
M108 R30.0
M101
G1 X17.61 Y-8.84 Z0.41 F4302.912
M108 R10.26
G1 X-17.15 Y-8.84 Z0.41 F6000.0
G1 X-16.89 Y-9.31 Z0.41 F6000.0
G1 X17.03 Y-9.31 Z0.41 F6000.0
G1 X16.63 Y-9.77 Z0.41 F6000.0
G1 X-16.7 Y-9.77 Z0.41 F6000.0
M103
G1 X-16.57 Y-10.24 Z0.41 F6000.0
M101
G1 X16.35 Y-10.24 Z0.41 F6000.0
M103
G1 X16.14 Y-10.71 Z0.41 F6000.0
M101
G1 X-16.52 Y-10.71 Z0.41 F6000.0
G1 X-16.5 Y-11.17 Z0.41 F6000.0
G1 X15.98 Y-11.17 Z0.41 F6000.0
M103
G1 X15.92 Y-11.64 Z0.41 F6000.0
M101
G1 X-16.56 Y-11.64 Z0.41 F6000.0
M103
G1 X-16.68 Y-12.1 Z0.41 F6000.0
M101
G1 X15.9 Y-12.1 Z0.41 F6000.0
G1 X15.93 Y-12.57 Z0.41 F6000.0
G1 X-16.85 Y-12.57 Z0.41 F6000.0
G1 X-17.11 Y-13.03 Z0.41 F6000.0
G1 X16.04 Y-13.03 Z0.41 F6000.0
M103
G1 X16.2 Y-13.5 Z0.41 F6000.0
M101
G1 X-15.79 Y-13.5 Z0.41 F6000.0
M108 R30.0
M102
G1 X-17.29 Y-13.5 Z0.41 F6000.0
M108 R10.26
M103
G1 X-17.22 Y-10.44 Z0.41 F6000.0
G1 X-17.38 Y-9.85 Z0.41 F6000.0
G1 X-17.65 Y-9.3 Z0.41 F6000.0
G1 X-18.03 Y-8.82 Z0.41 F6000.0
G1 X-18.49 Y-8.42 Z0.41 F6000.0
G1 X-19.02 Y-8.12 Z0.41 F6000.0
G1 X-20.16 Y-7.83 Z0.41 F6000.0
M108 R30.0
M101
G1 X-21.71 Y-7.45 Z0.41 F6000.0
M108 R10.26
G1 X-21.74 Y-7.45 Z0.41 F6000.0
M108 R30.0
M102
G1 X-22.7 Y-7.45 Z0.41 F6000.0
G1 X-22.59 Y-7.91 Z0.41 F6000.0
G1 X-22.53 Y-7.91 Z0.41 F6000.0
M108 R10.26
M103
G1 X20.75 Y-6.12 Z0.41 F6000.0
M108 R30.0
M101
G1 X22.35 Y-6.05 Z0.41 F6000.0
M108 R10.26
G1 X-22.67 Y-6.05 Z0.41 F6000.0
G1 X-22.68 Y-6.52 Z0.41 F6000.0
G1 X22.34 Y-6.52 Z0.41 F6000.0
G1 X22.32 Y-6.98 Z0.41 F6000.0
G1 X-21.19 Y-6.98 Z0.41 F6000.0
M108 R30.0
M102
G1 X-22.69 Y-6.98 Z0.41 F6000.0
M108 R10.26
M103
G1 X-22.65 Y-5.32 Z0.41 F6000.0
M108 R30.0
M101
G1 X-22.61 Y-3.72 Z0.41 F6000.0
M108 R10.26
G1 X22.41 Y-3.72 Z0.41 F6000.0
G1 X22.4 Y-4.19 Z0.41 F6000.0
G1 X-22.62 Y-4.19 Z0.41 F6000.0
G1 X-22.63 Y-4.65 Z0.41 F6000.0
G1 X22.39 Y-4.65 Z0.41 F6000.0
M103
G1 X22.37 Y-5.12 Z0.41 F6000.0
M101
G1 X-22.64 Y-5.12 Z0.41 F6000.0
G1 X-22.65 Y-5.58 Z0.41 F6000.0
G1 X20.86 Y-5.58 Z0.41 F6000.0
M108 R30.0
M102
G1 X22.36 Y-5.58 Z0.41 F6000.0
M108 R10.26
M103
G1 X21.54 Y-7.0 Z0.41 F6000.0
M108 R30.0
M101
G1 X20.74 Y-8.38 Z0.41 F6000.0
M108 R10.26
G1 X21.76 Y-8.38 Z0.41 F6000.0
M108 R30.0
M102
G1 X22.29 Y-8.38 Z0.41 F6000.0
G1 X22.27 Y-8.84 Z0.41 F6000.0
G1 X21.76 Y-8.84 Z0.41 F6000.0
M108 R10.26
M103
G1 X22.32 Y-2.99 Z0.41 F6000.0
M108 R30.0
M101
G1 X22.47 Y-1.4 Z0.41 F6000.0
M108 R10.26
G1 X-22.54 Y-1.4 Z0.41 F6000.0
G1 X-22.56 Y-1.86 Z0.41 F6000.0
G1 X22.46 Y-1.86 Z0.41 F6000.0
G1 X22.45 Y-2.33 Z0.41 F6000.0
G1 X-22.57 Y-2.33 Z0.41 F6000.0
M103
G1 X-22.58 Y-2.79 Z0.41 F6000.0
M101
G1 X22.43 Y-2.79 Z0.41 F6000.0
G1 X22.42 Y-3.26 Z0.41 F6000.0
G1 X-21.09 Y-3.26 Z0.41 F6000.0
M108 R30.0
M102
G1 X-22.59 Y-3.26 Z0.41 F6000.0
M108 R10.26
M103
G1 X-22.55 Y-1.6 Z0.41 F6000.0
M108 R30.0
M101
G1 X-22.51 Y0.0 Z0.41 F6000.0
M108 R10.26
G1 X22.51 Y-0.0 Z0.41 F6000.0
M103
G1 X22.5 Y-0.47 Z0.41 F6000.0
M101
G1 X-22.52 Y-0.47 Z0.41 F6000.0
G1 X-22.53 Y-0.93 Z0.41 F6000.0
G1 X20.98 Y-0.93 Z0.41 F6000.0
M108 R30.0
M102
G1 X22.48 Y-0.93 Z0.41 F6000.0
M108 R10.26
M103
G1 X22.53 Y0.73 Z0.41 F6000.0
M108 R30.0
M101
G1 X22.57 Y2.33 Z0.41 F6000.0
M108 R10.26
G1 X-22.45 Y2.33 Z0.41 F6000.0
G1 X-22.46 Y1.86 Z0.41 F6000.0
G1 X22.56 Y1.86 Z0.41 F6000.0
G1 X22.54 Y1.4 Z0.41 F6000.0
G1 X-22.47 Y1.4 Z0.41 F6000.0
M103
G1 X-22.48 Y0.93 Z0.41 F6000.0
M101
G1 X22.53 Y0.93 Z0.41 F6000.0
G1 X22.52 Y0.47 Z0.41 F6000.0
G1 X-21.0 Y0.47 Z0.41 F6000.0
M108 R30.0
M102
G1 X-22.5 Y0.47 Z0.41 F6000.0
M108 R10.26
M103
G1 X-22.43 Y3.06 Z0.41 F6000.0
M108 R30.0
M101
G1 X-22.39 Y4.65 Z0.41 F6000.0
M108 R10.26
G1 X22.63 Y4.65 Z0.41 F6000.0
G1 X22.62 Y4.19 Z0.41 F6000.0
G1 X-22.4 Y4.19 Z0.41 F6000.0
G1 X-22.41 Y3.72 Z0.41 F6000.0
G1 X22.61 Y3.72 Z0.41 F6000.0
M103
G1 X22.59 Y3.26 Z0.41 F6000.0
M101
G1 X-22.42 Y3.26 Z0.41 F6000.0
G1 X-22.43 Y2.79 Z0.41 F6000.0
G1 X21.08 Y2.79 Z0.41 F6000.0
M108 R30.0
M102
G1 X22.58 Y2.79 Z0.41 F6000.0
M108 R10.26
M103
G1 X22.65 Y5.38 Z0.41 F6000.0
M108 R30.0
M101
G1 X22.69 Y6.98 Z0.41 F6000.0
M108 R10.26
G1 X-22.32 Y6.98 Z0.41 F6000.0
G1 X-22.34 Y6.52 Z0.41 F6000.0
G1 X22.68 Y6.52 Z0.41 F6000.0
G1 X22.67 Y6.05 Z0.41 F6000.0
G1 X-22.35 Y6.05 Z0.41 F6000.0
M103
G1 X-22.36 Y5.58 Z0.41 F6000.0
M101
G1 X22.65 Y5.58 Z0.41 F6000.0
G1 X22.64 Y5.12 Z0.41 F6000.0
G1 X-20.87 Y5.12 Z0.41 F6000.0
M108 R30.0
M102
G1 X-22.37 Y5.12 Z0.41 F6000.0
M108 R10.26
M103
G1 X-21.45 Y6.95 Z0.41 F6000.0
M108 R30.0
M101
G1 X-20.74 Y8.38 Z0.41 F6000.0
M108 R10.26
G1 X-21.76 Y8.38 Z0.41 F6000.0
M108 R30.0
M102
G1 X-22.29 Y8.38 Z0.41 F6000.0
G1 X-22.27 Y8.84 Z0.41 F6000.0
G1 X-21.76 Y8.84 Z0.41 F6000.0
M108 R10.26
M103
G1 X-20.24 Y8.62 Z0.41 F6000.0
M108 R30.0
M101
G1 X-18.66 Y8.38 Z0.41 F6000.0
M108 R10.26
G1 X17.52 Y8.38 Z0.41 F6000.0
G1 X18.04 Y7.91 Z0.41 F6000.0
G1 X-22.3 Y7.91 Z0.41 F6000.0
G1 X-22.31 Y7.45 Z0.41 F6000.0
G1 X17.39 Y7.45 Z0.41 F6000.0
M108 R30.0
M102
G1 X18.89 Y7.45 Z0.41 F6000.0
M108 R10.26
M103
G1 X20.11 Y7.45 Z0.41 F6000.0
M108 R30.0
M101
G1 X21.71 Y7.45 Z0.41 F6000.0
M108 R10.26
G1 X21.74 Y7.45 Z0.41 F6000.0
M108 R30.0
M102
G1 X22.7 Y7.45 Z0.41 F6000.0
G1 X22.59 Y7.91 Z0.41 F6000.0
G1 X22.53 Y7.91 Z0.41 F6000.0
M108 R10.26
M103
G1 X19.61 Y7.92 Z0.41 F6000.0
G1 X19.02 Y8.12 Z0.41 F6000.0
G1 X18.0 Y8.85 Z0.41 F6000.0
M108 R30.0
M101
G1 X16.7 Y9.77 Z0.41 F6000.0
M108 R10.26
G1 X-16.63 Y9.77 Z0.41 F6000.0
G1 X-17.03 Y9.31 Z0.41 F6000.0
G1 X16.89 Y9.31 Z0.41 F6000.0
G1 X17.15 Y8.84 Z0.41 F6000.0
G1 X-16.11 Y8.84 Z0.41 F6000.0
M108 R30.0
M102
G1 X-17.61 Y8.84 Z0.41 F6000.0
M108 R10.26
M103
G1 X-17.42 Y9.05 Z0.41 F6000.0
M108 R30.0
M101
G1 X-16.35 Y10.24 Z0.41 F6000.0
M108 R10.26
G1 X15.07 Y10.24 Z0.41 F6000.0
M108 R30.0
M102
G1 X16.57 Y10.24 Z0.41 F6000.0
M108 R10.26
M103
M108 R30.0
M101
G1 X16.56 Y11.64 Z0.41 F5238.816
M108 R10.26
G1 X-15.92 Y11.64 Z0.41 F6000.0
G1 X-15.9 Y12.1 Z0.41 F6000.0
G1 X16.68 Y12.1 Z0.41 F6000.0
M103
G1 X16.85 Y12.57 Z0.41 F6000.0
M101
G1 X-15.93 Y12.57 Z0.41 F6000.0
M103
G1 X-16.04 Y13.03 Z0.41 F6000.0
M101
G1 X17.11 Y13.03 Z0.41 F6000.0
G1 X17.29 Y13.5 Z0.41 F6000.0
G1 X-16.2 Y13.5 Z0.41 F6000.0
M103
G1 X-16.15 Y14.43 Z0.41 F6000.0
M101
G1 X-16.54 Y14.43 Z0.41 F6000.0
G1 X-16.43 Y13.96 Z0.41 F6000.0
G1 X0.09 Y13.96 Z0.41 F6000.0
M108 R30.0
M102
G1 X1.59 Y13.96 Z0.41 F6000.0
M108 R10.26
M103
G1 X-14.4 Y11.42 Z0.41 F6000.0
M108 R30.0
M101
G1 X-15.98 Y11.17 Z0.41 F6000.0
M108 R10.26
G1 X16.5 Y11.17 Z0.41 F6000.0
G1 X16.52 Y10.71 Z0.41 F6000.0
G1 X-14.64 Y10.71 Z0.41 F6000.0
M108 R30.0
M102
G1 X-16.14 Y10.71 Z0.41 F6000.0
M108 R10.26
M103
G1 X-2.4 Y-12.59 Z0.41 F6000.0
M108 R30.0
M101
G1 X-1.59 Y-13.96 Z0.41 F6000.0
M108 R10.26
G1 X15.8 Y-13.96 Z0.41 F6000.0
M108 R30.0
M102
G1 X16.43 Y-13.96 Z0.41 F6000.0
G1 X16.54 Y-14.43 Z0.41 F6000.0
G1 X16.15 Y-14.43 Z0.41 F6000.0
M108 R10.26
M103
(</surroundingLoop>)
(</layer>)
(<operatingLayerEnd> </operatingLayerEnd>)
(<layer> 0.675 )
(<surroundingLoop>)
(<boundaryPerimeter>)
(<boundaryPoint> X23.098 Y-15.611 Z0.675 </boundaryPoint>)
(<boundaryPoint> X23.885 Y14.378 Z0.675 </boundaryPoint>)
(<boundaryPoint> X-23.098 Y15.611 Z0.675 </boundaryPoint>)
(<boundaryPoint> X-23.885 Y-14.378 Z0.675 </boundaryPoint>)
G1 X-18.03 Y-14.27 Z0.66 F6000.0
M108 R30.0
M101
G1 X-19.63 Y-14.26 Z0.68 F6000.0
M108 R10.26
G1 X17.35 Y-15.23 Z0.68 F6000.0
M108 R30.0
M102
G1 X18.85 Y-15.27 Z0.68 F6000.0
M108 R10.26
M103
M108 R30.0
M101
G1 X20.36 Y-15.31 Z0.68 F5634.398
M108 R10.26
G1 X22.87 Y-15.37 Z0.68 F6000.0
G1 X22.9 Y-14.36 Z0.68 F6000.0
M108 R30.0
M102
G1 X22.94 Y-12.86 Z0.68 F6000.0
M108 R10.26
M103
M108 R30.0
M101
G1 X22.98 Y-11.36 Z0.68 F5634.398
M108 R10.26
G1 X23.5 Y8.63 Z0.68 F6000.0
M108 R30.0
M102
G1 X23.54 Y10.13 Z0.68 F6000.0
M108 R10.26
M103
M108 R30.0
M101
G1 X23.58 Y11.63 Z0.68 F5634.398
M108 R10.26
G1 X23.65 Y14.15 Z0.68 F6000.0
G1 X22.63 Y14.18 Z0.68 F6000.0
M108 R30.0
M102
G1 X21.13 Y14.22 Z0.68 F6000.0
M108 R10.26
M103
M108 R30.0
M101
G1 X19.63 Y14.26 Z0.68 F5630.65
M108 R10.26
G1 X-17.35 Y15.23 Z0.68 F6000.0
M108 R30.0
M102
G1 X-18.85 Y15.27 Z0.68 F6000.0
M108 R10.26
M103
M108 R30.0
M101
G1 X-20.36 Y15.31 Z0.68 F5634.398
M108 R10.26
G1 X-22.87 Y15.37 Z0.68 F6000.0
G1 X-22.9 Y14.36 Z0.68 F6000.0
M108 R30.0
M102
G1 X-22.94 Y12.86 Z0.68 F6000.0
M108 R10.26
M103
M108 R30.0
M101
G1 X-22.98 Y11.36 Z0.68 F5634.398
M108 R10.26
G1 X-23.5 Y-8.63 Z0.68 F6000.0
M108 R30.0
M102
G1 X-23.54 Y-10.13 Z0.68 F6000.0
M108 R10.26
M103
M108 R30.0
M101
G1 X-23.58 Y-11.63 Z0.68 F5634.398
M108 R10.26
G1 X-23.65 Y-14.15 Z0.68 F6000.0
G1 X-21.13 Y-14.22 Z0.68 F6000.0
M103
(</boundaryPerimeter>)
(<surroundingLoop>)
(<boundaryPerimeter>)
(<boundaryPoint> X-17.496 Y-11.045 Z0.675 </boundaryPoint>)
(<boundaryPoint> X-17.564 Y-11.589 Z0.675 </boundaryPoint>)
(<boundaryPoint> X-17.737 Y-12.11 Z0.675 </boundaryPoint>)
(<boundaryPoint> X-18.008 Y-12.588 Z0.675 </boundaryPoint>)
(<boundaryPoint> X-18.368 Y-13.003 Z0.675 </boundaryPoint>)
(<boundaryPoint> X-18.801 Y-13.339 Z0.675 </boundaryPoint>)
(<boundaryPoint> X-19.292 Y-13.585 Z0.675 </boundaryPoint>)
(<boundaryPoint> X-19.821 Y-13.731 Z0.675 </boundaryPoint>)
(<boundaryPoint> X-20.368 Y-13.77 Z0.675 </boundaryPoint>)
(<boundaryPoint> X-20.913 Y-13.702 Z0.675 </boundaryPoint>)
(<boundaryPoint> X-21.434 Y-13.529 Z0.675 </boundaryPoint>)
(<boundaryPoint> X-21.911 Y-13.258 Z0.675 </boundaryPoint>)
(<boundaryPoint> X-22.326 Y-12.899 Z0.675 </boundaryPoint>)
(<boundaryPoint> X-22.663 Y-12.465 Z0.675 </boundaryPoint>)
(<boundaryPoint> X-22.909 Y-11.975 Z0.675 </boundaryPoint>)
(<boundaryPoint> X-23.054 Y-11.445 Z0.675 </boundaryPoint>)
(<boundaryPoint> X-23.094 Y-10.898 Z0.675 </boundaryPoint>)
(<boundaryPoint> X-23.026 Y-10.353 Z0.675 </boundaryPoint>)
(<boundaryPoint> X-22.853 Y-9.832 Z0.675 </boundaryPoint>)
(<boundaryPoint> X-22.581 Y-9.355 Z0.675 </boundaryPoint>)
(<boundaryPoint> X-22.222 Y-8.94 Z0.675 </boundaryPoint>)
(<boundaryPoint> X-21.789 Y-8.603 Z0.675 </boundaryPoint>)
(<boundaryPoint> X-21.298 Y-8.357 Z0.675 </boundaryPoint>)
(<boundaryPoint> X-20.769 Y-8.212 Z0.675 </boundaryPoint>)
(<boundaryPoint> X-20.221 Y-8.172 Z0.675 </boundaryPoint>)
(<boundaryPoint> X-19.677 Y-8.24 Z0.675 </boundaryPoint>)
(<boundaryPoint> X-19.156 Y-8.414 Z0.675 </boundaryPoint>)
(<boundaryPoint> X-18.679 Y-8.685 Z0.675 </boundaryPoint>)
(<boundaryPoint> X-18.264 Y-9.044 Z0.675 </boundaryPoint>)
(<boundaryPoint> X-17.927 Y-9.477 Z0.675 </boundaryPoint>)
(<boundaryPoint> X-17.681 Y-9.968 Z0.675 </boundaryPoint>)
(<boundaryPoint> X-17.535 Y-10.497 Z0.675 </boundaryPoint>)
(<perimeter> inner )
G1 X-21.31 Y-13.93 Z0.68 F6000.0
M101
G1 X-21.58 Y-13.85 Z0.68 F6000.0
G1 X-22.12 Y-13.55 Z0.68 F6000.0
G1 X-22.58 Y-13.14 Z0.68 F6000.0
G1 X-22.96 Y-12.65 Z0.68 F6000.0
G1 X-23.24 Y-12.1 Z0.68 F6000.0
G1 X-23.4 Y-11.51 Z0.68 F6000.0
G1 X-23.45 Y-10.89 Z0.68 F6000.0
G1 X-23.37 Y-10.27 Z0.68 F6000.0
G1 X-23.18 Y-9.69 Z0.68 F6000.0
G1 X-22.87 Y-9.15 Z0.68 F6000.0
G1 X-22.47 Y-8.68 Z0.68 F6000.0
G1 X-21.98 Y-8.3 Z0.68 F6000.0
G1 X-21.43 Y-8.03 Z0.68 F6000.0
G1 X-20.83 Y-7.86 Z0.68 F6000.0
G1 X-20.21 Y-7.82 Z0.68 F6000.0
G1 X-19.6 Y-7.89 Z0.68 F6000.0
G1 X-19.01 Y-8.09 Z0.68 F6000.0
G1 X-18.48 Y-8.4 Z0.68 F6000.0
G1 X-18.01 Y-8.8 Z0.68 F6000.0
G1 X-17.63 Y-9.29 Z0.68 F6000.0
G1 X-17.35 Y-9.84 Z0.68 F6000.0
G1 X-17.19 Y-10.44 Z0.68 F6000.0
G1 X-17.14 Y-11.05 Z0.68 F6000.0
G1 X-17.22 Y-11.67 Z0.68 F6000.0
G1 X-17.41 Y-12.25 Z0.68 F6000.0
G1 X-17.72 Y-12.79 Z0.68 F6000.0
G1 X-18.12 Y-13.26 Z0.68 F6000.0
G1 X-18.61 Y-13.64 Z0.68 F6000.0
G1 X-19.16 Y-13.91 Z0.68 F6000.0
G1 X-19.76 Y-14.08 Z0.68 F6000.0
G1 X-19.84 Y-14.09 Z0.68 F6000.0
M108 R30.0
M102
G1 X-20.38 Y-14.12 Z0.68 F6000.0
G1 X-20.99 Y-14.05 Z0.68 F6000.0
G1 X-21.31 Y-13.93 Z0.68 F6000.0
M108 R10.26
M103
(</perimeter>)
(</boundaryPerimeter>)
(</surroundingLoop>)
(<surroundingLoop>)
(<boundaryPerimeter>)
(<boundaryPoint> X-16.892 Y11.947 Z0.675 </boundaryPoint>)
(<boundaryPoint> X-16.961 Y11.403 Z0.675 </boundaryPoint>)
(<boundaryPoint> X-17.134 Y10.882 Z0.675 </boundaryPoint>)
(<boundaryPoint> X-17.405 Y10.405 Z0.675 </boundaryPoint>)
(<boundaryPoint> X-17.764 Y9.99 Z0.675 </boundaryPoint>)
(<boundaryPoint> X-18.197 Y9.653 Z0.675 </boundaryPoint>)
(<boundaryPoint> X-18.688 Y9.407 Z0.675 </boundaryPoint>)
(<boundaryPoint> X-19.217 Y9.261 Z0.675 </boundaryPoint>)
(<boundaryPoint> X-19.765 Y9.222 Z0.675 </boundaryPoint>)
(<boundaryPoint> X-20.31 Y9.29 Z0.675 </boundaryPoint>)
(<boundaryPoint> X-20.83 Y9.463 Z0.675 </boundaryPoint>)
(<boundaryPoint> X-21.308 Y9.734 Z0.675 </boundaryPoint>)
(<boundaryPoint> X-21.723 Y10.093 Z0.675 </boundaryPoint>)
(<boundaryPoint> X-22.06 Y10.527 Z0.675 </boundaryPoint>)
(<boundaryPoint> X-22.306 Y11.017 Z0.675 </boundaryPoint>)
(<boundaryPoint> X-22.451 Y11.547 Z0.675 </boundaryPoint>)
(<boundaryPoint> X-22.49 Y12.094 Z0.675 </boundaryPoint>)
(<boundaryPoint> X-22.422 Y12.639 Z0.675 </boundaryPoint>)
(<boundaryPoint> X-22.249 Y13.16 Z0.675 </boundaryPoint>)
(<boundaryPoint> X-21.978 Y13.637 Z0.675 </boundaryPoint>)
(<boundaryPoint> X-21.619 Y14.052 Z0.675 </boundaryPoint>)
(<boundaryPoint> X-21.185 Y14.389 Z0.675 </boundaryPoint>)
(<boundaryPoint> X-20.695 Y14.635 Z0.675 </boundaryPoint>)
(<boundaryPoint> X-20.165 Y14.78 Z0.675 </boundaryPoint>)
(<boundaryPoint> X-19.618 Y14.82 Z0.675 </boundaryPoint>)
(<boundaryPoint> X-19.073 Y14.752 Z0.675 </boundaryPoint>)
(<boundaryPoint> X-18.552 Y14.579 Z0.675 </boundaryPoint>)
(<boundaryPoint> X-18.075 Y14.307 Z0.675 </boundaryPoint>)
(<boundaryPoint> X-17.66 Y13.948 Z0.675 </boundaryPoint>)
(<boundaryPoint> X-17.323 Y13.515 Z0.675 </boundaryPoint>)
(<boundaryPoint> X-17.077 Y13.024 Z0.675 </boundaryPoint>)
(<boundaryPoint> X-16.932 Y12.495 Z0.675 </boundaryPoint>)
(<perimeter> inner )
G1 X-22.56 Y-13.12 Z0.68 F6000.0
G1 X-22.94 Y-12.64 Z0.68 F6000.0
G1 X-23.21 Y-12.09 Z0.68 F6000.0
G1 X-23.37 Y-11.5 Z0.68 F6000.0
G1 X-23.42 Y-10.89 Z0.68 F6000.0
G1 X-20.06 Y7.29 Z0.68 F6000.0
M108 R30.0
M101
G1 X-19.77 Y8.87 Z0.68 F6000.0
M108 R10.26
G1 X-20.39 Y8.95 Z0.68 F6000.0
G1 X-20.97 Y9.14 Z0.68 F6000.0
G1 X-21.51 Y9.45 Z0.68 F6000.0
G1 X-21.98 Y9.85 Z0.68 F6000.0
G1 X-22.36 Y10.34 Z0.68 F6000.0
G1 X-22.64 Y10.89 Z0.68 F6000.0
G1 X-22.8 Y11.49 Z0.68 F6000.0
G1 X-22.84 Y12.1 Z0.68 F6000.0
G1 X-22.77 Y12.72 Z0.68 F6000.0
G1 X-22.57 Y13.3 Z0.68 F6000.0
G1 X-22.27 Y13.84 Z0.68 F6000.0
G1 X-21.86 Y14.31 Z0.68 F6000.0
G1 X-21.37 Y14.69 Z0.68 F6000.0
G1 X-20.82 Y14.96 Z0.68 F6000.0
G1 X-20.23 Y15.13 Z0.68 F6000.0
G1 X-19.61 Y15.17 Z0.68 F6000.0
G1 X-18.99 Y15.1 Z0.68 F6000.0
G1 X-18.41 Y14.9 Z0.68 F6000.0
G1 X-17.87 Y14.6 Z0.68 F6000.0
G1 X-17.4 Y14.19 Z0.68 F6000.0
G1 X-17.02 Y13.7 Z0.68 F6000.0
G1 X-16.75 Y13.15 Z0.68 F6000.0
G1 X-16.58 Y12.55 Z0.68 F6000.0
G1 X-16.54 Y11.94 Z0.68 F6000.0
G1 X-16.62 Y11.32 Z0.68 F6000.0
G1 X-16.81 Y10.74 Z0.68 F6000.0
G1 X-17.12 Y10.2 Z0.68 F6000.0
G1 X-17.52 Y9.73 Z0.68 F6000.0
G1 X-18.01 Y9.35 Z0.68 F6000.0
G1 X-18.33 Y9.19 Z0.68 F6000.0
M108 R30.0
M102
G1 X-18.56 Y9.08 Z0.68 F6000.0
G1 X-19.16 Y8.91 Z0.68 F6000.0
G1 X-19.77 Y8.87 Z0.68 F6000.0
M108 R10.26
M103
(</perimeter>)
(</boundaryPerimeter>)
(</surroundingLoop>)
(<surroundingLoop>)
(<boundaryPerimeter>)
(<boundaryPoint> X22.853 Y9.832 Z0.675 </boundaryPoint>)
(<boundaryPoint> X22.581 Y9.355 Z0.675 </boundaryPoint>)
(<boundaryPoint> X22.222 Y8.94 Z0.675 </boundaryPoint>)
(<boundaryPoint> X21.789 Y8.603 Z0.675 </boundaryPoint>)
(<boundaryPoint> X21.298 Y8.357 Z0.675 </boundaryPoint>)
(<boundaryPoint> X20.769 Y8.212 Z0.675 </boundaryPoint>)
(<boundaryPoint> X20.221 Y8.172 Z0.675 </boundaryPoint>)
(<boundaryPoint> X19.677 Y8.24 Z0.675 </boundaryPoint>)
(<boundaryPoint> X19.156 Y8.414 Z0.675 </boundaryPoint>)
(<boundaryPoint> X18.679 Y8.685 Z0.675 </boundaryPoint>)
(<boundaryPoint> X18.264 Y9.044 Z0.675 </boundaryPoint>)
(<boundaryPoint> X17.927 Y9.477 Z0.675 </boundaryPoint>)
(<boundaryPoint> X17.681 Y9.968 Z0.675 </boundaryPoint>)
(<boundaryPoint> X17.535 Y10.497 Z0.675 </boundaryPoint>)
(<boundaryPoint> X17.496 Y11.045 Z0.675 </boundaryPoint>)
(<boundaryPoint> X17.564 Y11.589 Z0.675 </boundaryPoint>)
(<boundaryPoint> X17.737 Y12.11 Z0.675 </boundaryPoint>)
(<boundaryPoint> X18.008 Y12.588 Z0.675 </boundaryPoint>)
(<boundaryPoint> X18.368 Y13.003 Z0.675 </boundaryPoint>)
(<boundaryPoint> X18.801 Y13.339 Z0.675 </boundaryPoint>)
(<boundaryPoint> X19.292 Y13.585 Z0.675 </boundaryPoint>)
(<boundaryPoint> X19.821 Y13.731 Z0.675 </boundaryPoint>)
(<boundaryPoint> X20.368 Y13.77 Z0.675 </boundaryPoint>)
(<boundaryPoint> X20.913 Y13.702 Z0.675 </boundaryPoint>)
(<boundaryPoint> X21.434 Y13.529 Z0.675 </boundaryPoint>)
(<boundaryPoint> X21.911 Y13.258 Z0.675 </boundaryPoint>)
(<boundaryPoint> X22.326 Y12.899 Z0.675 </boundaryPoint>)
(<boundaryPoint> X22.663 Y12.465 Z0.675 </boundaryPoint>)
(<boundaryPoint> X22.909 Y11.975 Z0.675 </boundaryPoint>)
(<boundaryPoint> X23.054 Y11.445 Z0.675 </boundaryPoint>)
(<boundaryPoint> X23.094 Y10.898 Z0.675 </boundaryPoint>)
(<boundaryPoint> X23.026 Y10.353 Z0.675 </boundaryPoint>)
(<perimeter> inner )
G1 X15.54 Y10.96 Z0.68 F6000.0
M108 R30.0
M101
G1 X17.14 Y11.05 Z0.68 F6000.0
M108 R10.26
G1 X17.22 Y11.67 Z0.68 F6000.0
G1 X17.41 Y12.25 Z0.68 F6000.0
G1 X17.72 Y12.79 Z0.68 F6000.0
G1 X18.12 Y13.26 Z0.68 F6000.0
G1 X18.61 Y13.64 Z0.68 F6000.0
G1 X19.16 Y13.91 Z0.68 F6000.0
G1 X19.76 Y14.08 Z0.68 F6000.0
G1 X20.38 Y14.12 Z0.68 F6000.0
G1 X20.99 Y14.05 Z0.68 F6000.0
G1 X21.58 Y13.85 Z0.68 F6000.0
G1 X22.12 Y13.55 Z0.68 F6000.0
G1 X22.58 Y13.14 Z0.68 F6000.0
G1 X22.96 Y12.65 Z0.68 F6000.0
G1 X23.24 Y12.1 Z0.68 F6000.0
G1 X23.4 Y11.51 Z0.68 F6000.0
G1 X23.45 Y10.89 Z0.68 F6000.0
G1 X23.37 Y10.27 Z0.68 F6000.0
G1 X23.18 Y9.69 Z0.68 F6000.0
G1 X22.87 Y9.15 Z0.68 F6000.0
G1 X22.47 Y8.68 Z0.68 F6000.0
G1 X21.98 Y8.3 Z0.68 F6000.0
G1 X21.43 Y8.03 Z0.68 F6000.0
G1 X20.83 Y7.86 Z0.68 F6000.0
G1 X20.21 Y7.82 Z0.68 F6000.0
G1 X19.6 Y7.89 Z0.68 F6000.0
G1 X19.01 Y8.09 Z0.68 F6000.0
G1 X18.48 Y8.4 Z0.68 F6000.0
G1 X18.01 Y8.8 Z0.68 F6000.0
G1 X17.63 Y9.29 Z0.68 F6000.0
G1 X17.47 Y9.61 Z0.68 F6000.0
M108 R30.0
M102
G1 X17.35 Y9.84 Z0.68 F6000.0
G1 X17.19 Y10.44 Z0.68 F6000.0
G1 X17.14 Y11.05 Z0.68 F6000.0
M108 R10.26
M103
(</perimeter>)
(</boundaryPerimeter>)
(</surroundingLoop>)
(<surroundingLoop>)
(<boundaryPerimeter>)
(<boundaryPoint> X22.49 Y-12.094 Z0.675 </boundaryPoint>)
(<boundaryPoint> X22.422 Y-12.639 Z0.675 </boundaryPoint>)
(<boundaryPoint> X22.249 Y-13.16 Z0.675 </boundaryPoint>)
(<boundaryPoint> X21.978 Y-13.637 Z0.675 </boundaryPoint>)
(<boundaryPoint> X21.619 Y-14.052 Z0.675 </boundaryPoint>)
(<boundaryPoint> X21.185 Y-14.389 Z0.675 </boundaryPoint>)
(<boundaryPoint> X20.695 Y-14.635 Z0.675 </boundaryPoint>)
(<boundaryPoint> X20.165 Y-14.78 Z0.675 </boundaryPoint>)
(<boundaryPoint> X19.618 Y-14.82 Z0.675 </boundaryPoint>)
(<boundaryPoint> X19.073 Y-14.752 Z0.675 </boundaryPoint>)
(<boundaryPoint> X18.552 Y-14.579 Z0.675 </boundaryPoint>)
(<boundaryPoint> X18.075 Y-14.307 Z0.675 </boundaryPoint>)
(<boundaryPoint> X17.66 Y-13.948 Z0.675 </boundaryPoint>)
(<boundaryPoint> X17.323 Y-13.515 Z0.675 </boundaryPoint>)
(<boundaryPoint> X17.077 Y-13.024 Z0.675 </boundaryPoint>)
(<boundaryPoint> X16.932 Y-12.495 Z0.675 </boundaryPoint>)
(<boundaryPoint> X16.892 Y-11.947 Z0.675 </boundaryPoint>)
(<boundaryPoint> X16.961 Y-11.403 Z0.675 </boundaryPoint>)
(<boundaryPoint> X17.134 Y-10.882 Z0.675 </boundaryPoint>)
(<boundaryPoint> X17.405 Y-10.405 Z0.675 </boundaryPoint>)
(<boundaryPoint> X17.764 Y-9.99 Z0.675 </boundaryPoint>)
(<boundaryPoint> X18.197 Y-9.653 Z0.675 </boundaryPoint>)
(<boundaryPoint> X18.688 Y-9.407 Z0.675 </boundaryPoint>)
(<boundaryPoint> X19.217 Y-9.261 Z0.675 </boundaryPoint>)
(<boundaryPoint> X19.765 Y-9.222 Z0.675 </boundaryPoint>)
(<boundaryPoint> X20.31 Y-9.29 Z0.675 </boundaryPoint>)
(<boundaryPoint> X20.83 Y-9.463 Z0.675 </boundaryPoint>)
(<boundaryPoint> X21.308 Y-9.734 Z0.675 </boundaryPoint>)
(<boundaryPoint> X21.723 Y-10.093 Z0.675 </boundaryPoint>)
(<boundaryPoint> X22.06 Y-10.527 Z0.675 </boundaryPoint>)
(<boundaryPoint> X22.306 Y-11.017 Z0.675 </boundaryPoint>)
(<boundaryPoint> X22.451 Y-11.547 Z0.675 </boundaryPoint>)
(<perimeter> inner )
G1 X19.0 Y-7.32 Z0.68 F6000.0
M108 R30.0
M101
G1 X19.16 Y-8.91 Z0.68 F6000.0
M108 R10.26
G1 X19.77 Y-8.87 Z0.68 F6000.0
G1 X20.39 Y-8.95 Z0.68 F6000.0
G1 X20.97 Y-9.14 Z0.68 F6000.0
G1 X21.51 Y-9.45 Z0.68 F6000.0
G1 X21.98 Y-9.85 Z0.68 F6000.0
G1 X22.36 Y-10.34 Z0.68 F6000.0
G1 X22.64 Y-10.89 Z0.68 F6000.0
G1 X22.8 Y-11.49 Z0.68 F6000.0
G1 X22.84 Y-12.1 Z0.68 F6000.0
G1 X22.77 Y-12.72 Z0.68 F6000.0
G1 X22.57 Y-13.3 Z0.68 F6000.0
G1 X22.27 Y-13.84 Z0.68 F6000.0
G1 X21.86 Y-14.31 Z0.68 F6000.0
G1 X21.37 Y-14.69 Z0.68 F6000.0
G1 X20.82 Y-14.96 Z0.68 F6000.0
G1 X20.23 Y-15.13 Z0.68 F6000.0
G1 X19.61 Y-15.17 Z0.68 F6000.0
G1 X18.99 Y-15.1 Z0.68 F6000.0
G1 X18.41 Y-14.9 Z0.68 F6000.0
G1 X17.87 Y-14.6 Z0.68 F6000.0
G1 X17.4 Y-14.19 Z0.68 F6000.0
G1 X17.02 Y-13.7 Z0.68 F6000.0
G1 X16.75 Y-13.15 Z0.68 F6000.0
G1 X16.58 Y-12.55 Z0.68 F6000.0
G1 X16.54 Y-11.94 Z0.68 F6000.0
G1 X16.62 Y-11.32 Z0.68 F6000.0
G1 X16.81 Y-10.74 Z0.68 F6000.0
G1 X17.12 Y-10.2 Z0.68 F6000.0
G1 X17.52 Y-9.73 Z0.68 F6000.0
G1 X18.01 Y-9.35 Z0.68 F6000.0
G1 X18.56 Y-9.08 Z0.68 F6000.0
G1 X19.16 Y-8.91 Z0.68 F6000.0
M103
(</perimeter>)
(</boundaryPerimeter>)
(</surroundingLoop>)
(<loop> outer )
G1 X19.09 Y-8.52 Z0.68 F6000.0
M101
G1 X19.79 Y-8.47 Z0.68 F6000.0
G1 X20.48 Y-8.56 Z0.68 F6000.0
G1 X21.13 Y-8.8 Z0.68 F6000.0
G1 X21.75 Y-9.24 Z0.68 F6000.0
G1 X22.07 Y-9.57 Z0.68 F6000.0
G1 X22.56 Y-9.46 Z0.68 F6000.0
G1 X23.03 Y8.26 Z0.68 F6000.0
G1 X22.55 Y8.4 Z0.68 F6000.0
G1 X22.2 Y8.09 Z0.68 F6000.0
G1 X21.56 Y7.68 Z0.68 F6000.0
G1 X20.9 Y7.47 Z0.68 F6000.0
G1 X20.2 Y7.42 Z0.68 F6000.0
G1 X19.51 Y7.51 Z0.68 F6000.0
G1 X18.85 Y7.73 Z0.68 F6000.0
G1 X18.25 Y8.07 Z0.68 F6000.0
G1 X17.72 Y8.53 Z0.68 F6000.0
G1 X17.29 Y9.08 Z0.68 F6000.0
G1 X16.98 Y9.7 Z0.68 F6000.0
G1 X16.8 Y10.37 Z0.68 F6000.0
G1 X16.75 Y11.06 Z0.68 F6000.0
G1 X16.83 Y11.76 Z0.68 F6000.0
G1 X17.08 Y12.41 Z0.68 F6000.0
G1 X17.52 Y13.03 Z0.68 F6000.0
G1 X17.83 Y13.33 Z0.68 F6000.0
G1 X17.64 Y13.84 Z0.68 F6000.0
G1 X-16.89 Y14.75 Z0.68 F6000.0
G1 X-17.11 Y14.25 Z0.68 F6000.0
G1 X-16.81 Y13.93 Z0.68 F6000.0
G1 X-16.41 Y13.29 Z0.68 F6000.0
G1 X-16.19 Y12.62 Z0.68 F6000.0
G1 X-16.14 Y11.93 Z0.68 F6000.0
G1 X-16.23 Y11.24 Z0.68 F6000.0
G1 X-16.45 Y10.58 Z0.68 F6000.0
G1 X-16.79 Y9.97 Z0.68 F6000.0
G1 X-17.25 Y9.45 Z0.68 F6000.0
G1 X-17.8 Y9.02 Z0.68 F6000.0
G1 X-18.42 Y8.71 Z0.68 F6000.0
G1 X-19.09 Y8.52 Z0.68 F6000.0
G1 X-19.79 Y8.47 Z0.68 F6000.0
G1 X-20.48 Y8.56 Z0.68 F6000.0
G1 X-21.13 Y8.8 Z0.68 F6000.0
G1 X-21.75 Y9.24 Z0.68 F6000.0
G1 X-22.07 Y9.57 Z0.68 F6000.0
G1 X-22.56 Y9.46 Z0.68 F6000.0
G1 X-23.03 Y-8.26 Z0.68 F6000.0
G1 X-22.55 Y-8.4 Z0.68 F6000.0
G1 X-22.2 Y-8.09 Z0.68 F6000.0
G1 X-21.56 Y-7.68 Z0.68 F6000.0
G1 X-20.9 Y-7.47 Z0.68 F6000.0
G1 X-20.2 Y-7.42 Z0.68 F6000.0
G1 X-19.51 Y-7.51 Z0.68 F6000.0
G1 X-18.85 Y-7.73 Z0.68 F6000.0
G1 X-18.25 Y-8.07 Z0.68 F6000.0
G1 X-17.72 Y-8.53 Z0.68 F6000.0
G1 X-17.29 Y-9.08 Z0.68 F6000.0
G1 X-16.98 Y-9.7 Z0.68 F6000.0
G1 X-16.8 Y-10.37 Z0.68 F6000.0
G1 X-16.75 Y-11.06 Z0.68 F6000.0
G1 X-16.83 Y-11.76 Z0.68 F6000.0
G1 X-17.08 Y-12.41 Z0.68 F6000.0
G1 X-17.52 Y-13.03 Z0.68 F6000.0
G1 X-17.83 Y-13.33 Z0.68 F6000.0
G1 X-17.64 Y-13.84 Z0.68 F6000.0
G1 X16.89 Y-14.75 Z0.68 F6000.0
G1 X17.11 Y-14.25 Z0.68 F6000.0
G1 X16.81 Y-13.93 Z0.68 F6000.0
G1 X16.41 Y-13.29 Z0.68 F6000.0
G1 X16.19 Y-12.62 Z0.68 F6000.0
G1 X16.14 Y-11.93 Z0.68 F6000.0
G1 X16.23 Y-11.24 Z0.68 F6000.0
G1 X16.45 Y-10.58 Z0.68 F6000.0
G1 X16.79 Y-9.97 Z0.68 F6000.0
G1 X17.25 Y-9.45 Z0.68 F6000.0
G1 X17.71 Y-9.08 Z0.68 F6000.0
M108 R30.0
M102
G1 X17.8 Y-9.02 Z0.68 F6000.0
G1 X18.42 Y-8.71 Z0.68 F6000.0
G1 X19.09 Y-8.52 Z0.68 F6000.0
M108 R10.26
M103
(</loop>)
G1 X19.08 Y5.78 Z0.68 F6000.0
M108 R30.0
M101
G1 X19.08 Y7.38 Z0.68 F6000.0
M108 R10.26
G1 X19.08 Y-8.27 Z0.68 F6000.0
M103
G1 X18.62 Y-8.39 Z0.68 F6000.0
M101
G1 X18.62 Y7.57 Z0.68 F6000.0
G1 X18.15 Y7.83 Z0.68 F6000.0
G1 X18.15 Y-8.56 Z0.68 F6000.0
M103
G1 X17.69 Y-8.79 Z0.68 F6000.0
M101
G1 X17.69 Y8.22 Z0.68 F6000.0
G1 X17.22 Y8.76 Z0.68 F6000.0
G1 X17.22 Y-9.14 Z0.68 F6000.0
G1 X16.75 Y-9.63 Z0.68 F6000.0
G1 X16.75 Y8.08 Z0.68 F6000.0
M108 R30.0
M102
G1 X16.75 Y9.58 Z0.68 F6000.0
M108 R10.26
M103
G1 X16.75 Y10.73 Z0.68 F6000.0
M108 R30.0
M101
G1 X16.75 Y12.33 Z0.68 F6000.0
M108 R10.26
G1 X16.75 Y12.88 Z0.68 F6000.0
M108 R30.0
M102
G1 X16.75 Y13.56 Z0.68 F6000.0
G1 X17.22 Y13.55 Z0.68 F6000.0
G1 X17.22 Y13.21 Z0.68 F6000.0
M108 R10.26
M103
M108 R30.0
M101
G1 X16.29 Y13.58 Z0.68 F3756.858
M108 R10.26
G1 X16.29 Y-8.84 Z0.68 F6000.0
M108 R30.0
M102
G1 X16.29 Y-10.34 Z0.68 F6000.0
M108 R10.26
M103
G1 X16.29 Y-13.69 Z0.68 F6000.0
M101
G1 X16.29 Y-14.43 Z0.68 F6000.0
M103
M108 R30.0
M101
G1 X15.82 Y-14.42 Z0.68 F1748.079
M108 R10.26
G1 X15.82 Y13.59 Z0.68 F6000.0
G1 X15.36 Y13.6 Z0.68 F6000.0
G1 X15.36 Y-14.41 Z0.68 F6000.0
G1 X14.89 Y-14.39 Z0.68 F6000.0
G1 X14.89 Y13.61 Z0.68 F6000.0
M103
G1 X14.43 Y13.63 Z0.68 F6000.0
M101
G1 X14.43 Y-14.38 Z0.68 F6000.0
G1 X13.96 Y-14.37 Z0.68 F6000.0
G1 X13.96 Y13.64 Z0.68 F6000.0
M103
G1 X13.5 Y13.65 Z0.68 F6000.0
M101
G1 X13.5 Y-14.36 Z0.68 F6000.0
M103
G1 X13.03 Y-14.35 Z0.68 F6000.0
M101
G1 X13.03 Y13.66 Z0.68 F6000.0
G1 X12.57 Y13.67 Z0.68 F6000.0
G1 X12.57 Y-14.33 Z0.68 F6000.0
M103
G1 X12.1 Y-14.32 Z0.68 F6000.0
M101
G1 X12.1 Y13.69 Z0.68 F6000.0
G1 X11.64 Y13.7 Z0.68 F6000.0
G1 X11.64 Y-14.31 Z0.68 F6000.0
G1 X11.17 Y-14.3 Z0.68 F6000.0
G1 X11.17 Y13.71 Z0.68 F6000.0
G1 X10.71 Y13.72 Z0.68 F6000.0
G1 X10.71 Y-14.29 Z0.68 F6000.0
G1 X10.24 Y-14.27 Z0.68 F6000.0
G1 X10.24 Y13.74 Z0.68 F6000.0
M103
G1 X9.77 Y13.75 Z0.68 F6000.0
M101
G1 X9.77 Y-14.26 Z0.68 F6000.0
G1 X9.31 Y-14.25 Z0.68 F6000.0
G1 X9.31 Y13.76 Z0.68 F6000.0
M103
G1 X8.84 Y13.77 Z0.68 F6000.0
M101
G1 X8.84 Y-14.24 Z0.68 F6000.0
M103
G1 X8.38 Y-14.22 Z0.68 F6000.0
M101
G1 X8.38 Y13.78 Z0.68 F6000.0
G1 X7.91 Y13.8 Z0.68 F6000.0
G1 X7.91 Y-14.21 Z0.68 F6000.0
M103
G1 X7.45 Y-14.2 Z0.68 F6000.0
M101
G1 X7.45 Y13.81 Z0.68 F6000.0
G1 X6.98 Y13.82 Z0.68 F6000.0
G1 X6.98 Y-14.19 Z0.68 F6000.0
G1 X6.52 Y-14.18 Z0.68 F6000.0
G1 X6.52 Y13.83 Z0.68 F6000.0
G1 X6.05 Y13.85 Z0.68 F6000.0
G1 X6.05 Y-14.16 Z0.68 F6000.0
G1 X5.58 Y-14.15 Z0.68 F6000.0
G1 X5.58 Y13.86 Z0.68 F6000.0
M103
G1 X5.12 Y13.87 Z0.68 F6000.0
M101
G1 X5.12 Y-14.14 Z0.68 F6000.0
G1 X4.65 Y-14.13 Z0.68 F6000.0
G1 X4.65 Y13.88 Z0.68 F6000.0
M103
G1 X4.19 Y13.89 Z0.68 F6000.0
M101
G1 X4.19 Y-14.11 Z0.68 F6000.0
M103
G1 X3.72 Y-14.1 Z0.68 F6000.0
M101
G1 X3.72 Y13.91 Z0.68 F6000.0
G1 X3.26 Y13.92 Z0.68 F6000.0
G1 X3.26 Y-14.09 Z0.68 F6000.0
M103
G1 X2.79 Y-14.08 Z0.68 F6000.0
M101
G1 X2.79 Y13.93 Z0.68 F6000.0
G1 X2.33 Y13.94 Z0.68 F6000.0
G1 X2.33 Y-14.06 Z0.68 F6000.0
G1 X1.86 Y-14.05 Z0.68 F6000.0
G1 X1.86 Y13.96 Z0.68 F6000.0
M103
G1 X1.4 Y13.97 Z0.68 F6000.0
M101
G1 X1.4 Y-14.04 Z0.68 F6000.0
G1 X0.93 Y-14.03 Z0.68 F6000.0
G1 X0.93 Y13.98 Z0.68 F6000.0
M103
G1 X0.47 Y13.99 Z0.68 F6000.0
M101
G1 X0.47 Y-14.02 Z0.68 F6000.0
M103
G1 X-0.0 Y-14.0 Z0.68 F6000.0
M101
G1 X0.0 Y14.0 Z0.68 F6000.0
M103
G1 X-0.47 Y14.02 Z0.68 F6000.0
M101
G1 X-0.47 Y-13.99 Z0.68 F6000.0
M103
G1 X-0.93 Y-13.98 Z0.68 F6000.0
M101
G1 X-0.93 Y14.03 Z0.68 F6000.0
G1 X-1.4 Y14.04 Z0.68 F6000.0
G1 X-1.4 Y-13.97 Z0.68 F6000.0
M103
G1 X-1.86 Y-13.96 Z0.68 F6000.0
M101
G1 X-1.86 Y14.05 Z0.68 F6000.0
G1 X-2.33 Y14.06 Z0.68 F6000.0
G1 X-2.33 Y-13.94 Z0.68 F6000.0
G1 X-2.79 Y-13.93 Z0.68 F6000.0
G1 X-2.79 Y14.08 Z0.68 F6000.0
M103
G1 X-3.26 Y14.09 Z0.68 F6000.0
M101
G1 X-3.26 Y-13.92 Z0.68 F6000.0
G1 X-3.72 Y-13.91 Z0.68 F6000.0
G1 X-3.72 Y14.1 Z0.68 F6000.0
M103
G1 X-4.19 Y14.11 Z0.68 F6000.0
M101
G1 X-4.19 Y-13.89 Z0.68 F6000.0
M103
G1 X-4.65 Y-13.88 Z0.68 F6000.0
M101
G1 X-4.65 Y14.13 Z0.68 F6000.0
G1 X-5.12 Y14.14 Z0.68 F6000.0
G1 X-5.12 Y-13.87 Z0.68 F6000.0
M103
G1 X-5.58 Y-13.86 Z0.68 F6000.0
M101
G1 X-5.58 Y14.15 Z0.68 F6000.0
G1 X-6.05 Y14.16 Z0.68 F6000.0
G1 X-6.05 Y-13.85 Z0.68 F6000.0
G1 X-6.52 Y-13.83 Z0.68 F6000.0
G1 X-6.52 Y14.18 Z0.68 F6000.0
G1 X-6.98 Y14.19 Z0.68 F6000.0
G1 X-6.98 Y-13.82 Z0.68 F6000.0
G1 X-7.45 Y-13.81 Z0.68 F6000.0
G1 X-7.45 Y14.2 Z0.68 F6000.0
M103
G1 X-7.91 Y14.21 Z0.68 F6000.0
M101
G1 X-7.91 Y-13.8 Z0.68 F6000.0
G1 X-8.38 Y-13.78 Z0.68 F6000.0
G1 X-8.38 Y14.22 Z0.68 F6000.0
M103
G1 X-8.84 Y14.24 Z0.68 F6000.0
M101
G1 X-8.84 Y-13.77 Z0.68 F6000.0
M103
G1 X-9.31 Y-13.76 Z0.68 F6000.0
M101
G1 X-9.31 Y14.25 Z0.68 F6000.0
G1 X-9.77 Y14.26 Z0.68 F6000.0
G1 X-9.77 Y-13.75 Z0.68 F6000.0
M103
G1 X-10.24 Y-13.74 Z0.68 F6000.0
M101
G1 X-10.24 Y14.27 Z0.68 F6000.0
G1 X-10.71 Y14.29 Z0.68 F6000.0
G1 X-10.71 Y-13.72 Z0.68 F6000.0
G1 X-11.17 Y-13.71 Z0.68 F6000.0
G1 X-11.17 Y14.3 Z0.68 F6000.0
G1 X-11.64 Y14.31 Z0.68 F6000.0
G1 X-11.64 Y-13.7 Z0.68 F6000.0
G1 X-12.1 Y-13.69 Z0.68 F6000.0
G1 X-12.1 Y14.32 Z0.68 F6000.0
M103
G1 X-12.57 Y14.33 Z0.68 F6000.0
M101
G1 X-12.57 Y-13.67 Z0.68 F6000.0
G1 X-13.03 Y-13.66 Z0.68 F6000.0
G1 X-13.03 Y14.35 Z0.68 F6000.0
M103
G1 X-13.5 Y14.36 Z0.68 F6000.0
M101
G1 X-13.5 Y-13.65 Z0.68 F6000.0
M103
G1 X-13.96 Y-13.64 Z0.68 F6000.0
M101
G1 X-13.96 Y14.37 Z0.68 F6000.0
G1 X-14.43 Y14.38 Z0.68 F6000.0
G1 X-14.43 Y-13.63 Z0.68 F6000.0
M103
G1 X-14.89 Y-13.61 Z0.68 F6000.0
M101
G1 X-14.89 Y14.39 Z0.68 F6000.0
G1 X-15.36 Y14.41 Z0.68 F6000.0
G1 X-15.36 Y-13.6 Z0.68 F6000.0
G1 X-15.82 Y-13.59 Z0.68 F6000.0
G1 X-15.82 Y14.42 Z0.68 F6000.0
G1 X-15.89 Y14.32 Z0.68 F6000.0
M108 R30.0
M102
G1 X-16.29 Y13.69 Z0.68 F6000.0
G1 X-16.29 Y14.43 Z0.68 F6000.0
M108 R10.26
M103
G1 X-16.29 Y11.94 Z0.68 F6000.0
M108 R30.0
M101
G1 X-16.29 Y10.34 Z0.68 F6000.0
M108 R10.26
G1 X-16.29 Y-13.58 Z0.68 F6000.0
G1 X-16.75 Y-13.56 Z0.68 F6000.0
G1 X-16.75 Y-12.33 Z0.68 F6000.0
M103
G1 X-17.22 Y-13.21 Z0.68 F6000.0
M101
M108 R30.0
M102
G1 X-17.22 Y-13.55 Z0.68 F1380.0
M108 R10.26
M103
G1 X-16.94 Y-11.17 Z0.68 F6000.0
M108 R30.0
M101
G1 X-16.75 Y-9.58 Z0.68 F6000.0
M108 R10.26
G1 X-16.75 Y9.63 Z0.68 F6000.0
G1 X-17.22 Y9.14 Z0.68 F6000.0
G1 X-17.22 Y-8.76 Z0.68 F6000.0
G1 X-17.69 Y-8.22 Z0.68 F6000.0
G1 X-17.69 Y8.79 Z0.68 F6000.0
M103
G1 X-18.15 Y8.56 Z0.68 F6000.0
M101
G1 X-18.15 Y-7.83 Z0.68 F6000.0
G1 X-18.62 Y-7.57 Z0.68 F6000.0
G1 X-18.62 Y8.39 Z0.68 F6000.0
M103
G1 X-19.08 Y8.27 Z0.68 F6000.0
M101
G1 X-19.08 Y-7.38 Z0.68 F6000.0
M103
G1 X-19.55 Y-7.25 Z0.68 F6000.0
M101
G1 X-19.55 Y8.23 Z0.68 F6000.0
G1 X-20.01 Y8.24 Z0.68 F6000.0
G1 X-20.01 Y-7.19 Z0.68 F6000.0
G1 X-20.48 Y-7.19 Z0.68 F6000.0
G1 X-20.48 Y8.3 Z0.68 F6000.0
M103
G1 X-20.94 Y8.45 Z0.68 F6000.0
M101
G1 X-20.94 Y-7.22 Z0.68 F6000.0
G1 X-21.41 Y-7.35 Z0.68 F6000.0
G1 X-21.41 Y8.64 Z0.68 F6000.0
G1 X-21.88 Y8.91 Z0.68 F6000.0
G1 X-21.88 Y-7.53 Z0.68 F6000.0
M103
G1 X-22.34 Y-7.76 Z0.68 F6000.0
M101
G1 X-22.34 Y4.86 Z0.68 F6000.0
M108 R30.0
M102
G1 X-22.34 Y6.36 Z0.68 F6000.0
M108 R10.26
M103
G1 X18.96 Y-7.79 Z0.68 F6000.0
M108 R30.0
M101
G1 X20.48 Y-8.3 Z0.68 F6000.0
M108 R10.26
G1 X20.48 Y7.19 Z0.68 F6000.0
G1 X20.01 Y7.19 Z0.68 F6000.0
G1 X20.01 Y-8.24 Z0.68 F6000.0
G1 X19.55 Y-8.23 Z0.68 F6000.0
G1 X19.55 Y5.75 Z0.68 F6000.0
M108 R30.0
M102
G1 X19.55 Y7.25 Z0.68 F6000.0
M108 R10.26
M103
G1 X20.29 Y7.34 Z0.68 F6000.0
M108 R30.0
M101
G1 X21.88 Y7.53 Z0.68 F6000.0
M108 R10.26
G1 X21.88 Y-8.91 Z0.68 F6000.0
G1 X21.41 Y-8.64 Z0.68 F6000.0
G1 X21.41 Y7.35 Z0.68 F6000.0
G1 X20.94 Y7.22 Z0.68 F6000.0
G1 X20.94 Y-6.95 Z0.68 F6000.0
M108 R30.0
M102
G1 X20.94 Y-8.45 Z0.68 F6000.0
M108 R10.26
M103
G1 X21.45 Y-7.69 Z0.68 F6000.0
M108 R30.0
M101
G1 X22.34 Y-6.36 Z0.68 F6000.0
M108 R10.26
G1 X22.34 Y6.26 Z0.68 F6000.0
M108 R30.0
M102
G1 X22.34 Y7.76 Z0.68 F6000.0
M108 R10.26
M103
(</surroundingLoop>)
(</layer>)
(<layer> 0.945 )
(<surroundingLoop>)
(<boundaryPerimeter>)
(<boundaryPoint> X23.098 Y-15.611 Z0.945 </boundaryPoint>)
(<boundaryPoint> X23.885 Y14.378 Z0.945 </boundaryPoint>)
(<boundaryPoint> X-23.098 Y15.611 Z0.945 </boundaryPoint>)
(<boundaryPoint> X-23.885 Y-14.378 Z0.945 </boundaryPoint>)
G1 X22.92 Y-9.76 Z0.92 F6000.0
M108 R30.0
M101
G1 X22.98 Y-11.36 Z0.94 F6000.0
M108 R10.26
G1 X23.5 Y8.63 Z0.94 F6000.0
M108 R30.0
M102
G1 X23.54 Y10.13 Z0.94 F6000.0
M108 R10.26
M103
M108 R30.0
M101
G1 X23.58 Y11.63 Z0.94 F5634.398
M108 R10.26
G1 X23.65 Y14.15 Z0.94 F6000.0
G1 X22.63 Y14.18 Z0.94 F6000.0
M108 R30.0
M102
G1 X21.13 Y14.22 Z0.94 F6000.0
M108 R10.26
M103
M108 R30.0
M101
G1 X19.63 Y14.26 Z0.94 F5630.65
M108 R10.26
G1 X-17.35 Y15.23 Z0.94 F6000.0
M108 R30.0
M102
G1 X-18.85 Y15.27 Z0.94 F6000.0
M108 R10.26
M103
M108 R30.0
M101
G1 X-20.36 Y15.31 Z0.94 F5634.398
M108 R10.26
G1 X-22.87 Y15.37 Z0.94 F6000.0
G1 X-22.9 Y14.36 Z0.94 F6000.0
M108 R30.0
M102
G1 X-22.94 Y12.86 Z0.94 F6000.0
M108 R10.26
M103
M108 R30.0
M101
G1 X-22.98 Y11.36 Z0.94 F5634.398
M108 R10.26
G1 X-23.5 Y-8.63 Z0.94 F6000.0
M108 R30.0
M102
G1 X-23.54 Y-10.13 Z0.94 F6000.0
M108 R10.26
M103
M108 R30.0
M101
G1 X-23.58 Y-11.63 Z0.94 F5634.398
M108 R10.26
G1 X-23.65 Y-14.15 Z0.94 F6000.0
G1 X-22.63 Y-14.18 Z0.94 F6000.0
M108 R30.0
M102
G1 X-21.13 Y-14.22 Z0.94 F6000.0
M108 R10.26
M103
M108 R30.0
M101
G1 X-19.63 Y-14.26 Z0.94 F5630.65
M108 R10.26
G1 X17.35 Y-15.23 Z0.94 F6000.0
M108 R30.0
M102
G1 X18.85 Y-15.27 Z0.94 F6000.0
M108 R10.26
M103
M108 R30.0
M101
G1 X20.36 Y-15.31 Z0.94 F5634.398
M108 R10.26
G1 X22.87 Y-15.37 Z0.94 F6000.0
G1 X22.94 Y-12.86 Z0.94 F6000.0
M103
(</boundaryPerimeter>)
(<surroundingLoop>)
(<boundaryPerimeter>)
(<boundaryPoint> X22.49 Y-12.094 Z0.945 </boundaryPoint>)
(<boundaryPoint> X22.422 Y-12.639 Z0.945 </boundaryPoint>)
(<boundaryPoint> X22.249 Y-13.16 Z0.945 </boundaryPoint>)
(<boundaryPoint> X21.978 Y-13.637 Z0.945 </boundaryPoint>)
(<boundaryPoint> X21.619 Y-14.052 Z0.945 </boundaryPoint>)
(<boundaryPoint> X21.185 Y-14.389 Z0.945 </boundaryPoint>)
(<boundaryPoint> X20.695 Y-14.635 Z0.945 </boundaryPoint>)
(<boundaryPoint> X20.165 Y-14.78 Z0.945 </boundaryPoint>)
(<boundaryPoint> X19.618 Y-14.82 Z0.945 </boundaryPoint>)
(<boundaryPoint> X19.073 Y-14.752 Z0.945 </boundaryPoint>)
(<boundaryPoint> X18.552 Y-14.579 Z0.945 </boundaryPoint>)
(<boundaryPoint> X18.075 Y-14.307 Z0.945 </boundaryPoint>)
(<boundaryPoint> X17.66 Y-13.948 Z0.945 </boundaryPoint>)
(<boundaryPoint> X17.323 Y-13.515 Z0.945 </boundaryPoint>)
(<boundaryPoint> X17.077 Y-13.024 Z0.945 </boundaryPoint>)
(<boundaryPoint> X16.932 Y-12.495 Z0.945 </boundaryPoint>)
(<boundaryPoint> X16.892 Y-11.947 Z0.945 </boundaryPoint>)
(<boundaryPoint> X16.961 Y-11.403 Z0.945 </boundaryPoint>)
(<boundaryPoint> X17.134 Y-10.882 Z0.945 </boundaryPoint>)
(<boundaryPoint> X17.405 Y-10.405 Z0.945 </boundaryPoint>)
(<boundaryPoint> X17.764 Y-9.99 Z0.945 </boundaryPoint>)
(<boundaryPoint> X18.197 Y-9.653 Z0.945 </boundaryPoint>)
(<boundaryPoint> X18.688 Y-9.407 Z0.945 </boundaryPoint>)
(<boundaryPoint> X19.217 Y-9.261 Z0.945 </boundaryPoint>)
(<boundaryPoint> X19.765 Y-9.222 Z0.945 </boundaryPoint>)
(<boundaryPoint> X20.31 Y-9.29 Z0.945 </boundaryPoint>)
(<boundaryPoint> X20.83 Y-9.463 Z0.945 </boundaryPoint>)
(<boundaryPoint> X21.308 Y-9.734 Z0.945 </boundaryPoint>)
(<boundaryPoint> X21.723 Y-10.093 Z0.945 </boundaryPoint>)
(<boundaryPoint> X22.06 Y-10.527 Z0.945 </boundaryPoint>)
(<boundaryPoint> X22.306 Y-11.017 Z0.945 </boundaryPoint>)
(<boundaryPoint> X22.451 Y-11.547 Z0.945 </boundaryPoint>)
(<perimeter> inner )
G1 X22.77 Y-12.69 Z0.94 F6000.0
M101
G1 X22.77 Y-12.72 Z0.94 F6000.0
G1 X22.57 Y-13.3 Z0.94 F6000.0
G1 X22.27 Y-13.84 Z0.94 F6000.0
G1 X21.86 Y-14.31 Z0.94 F6000.0
G1 X21.37 Y-14.69 Z0.94 F6000.0
G1 X20.82 Y-14.96 Z0.94 F6000.0
G1 X20.23 Y-15.13 Z0.94 F6000.0
G1 X19.61 Y-15.17 Z0.94 F6000.0
G1 X18.99 Y-15.1 Z0.94 F6000.0
G1 X18.41 Y-14.9 Z0.94 F6000.0
G1 X17.87 Y-14.6 Z0.94 F6000.0
G1 X17.4 Y-14.19 Z0.94 F6000.0
G1 X17.02 Y-13.7 Z0.94 F6000.0
G1 X16.75 Y-13.15 Z0.94 F6000.0
G1 X16.58 Y-12.55 Z0.94 F6000.0
G1 X16.54 Y-11.94 Z0.94 F6000.0
G1 X16.62 Y-11.32 Z0.94 F6000.0
G1 X16.81 Y-10.74 Z0.94 F6000.0
G1 X17.12 Y-10.2 Z0.94 F6000.0
G1 X17.52 Y-9.73 Z0.94 F6000.0
G1 X18.01 Y-9.35 Z0.94 F6000.0
G1 X18.56 Y-9.08 Z0.94 F6000.0
G1 X19.16 Y-8.91 Z0.94 F6000.0
G1 X19.77 Y-8.87 Z0.94 F6000.0
G1 X20.39 Y-8.95 Z0.94 F6000.0
G1 X20.97 Y-9.14 Z0.94 F6000.0
G1 X21.51 Y-9.45 Z0.94 F6000.0
G1 X21.98 Y-9.85 Z0.94 F6000.0
G1 X22.36 Y-10.34 Z0.94 F6000.0
G1 X22.64 Y-10.89 Z0.94 F6000.0
G1 X22.72 Y-11.21 Z0.94 F6000.0
M108 R30.0
M102
G1 X22.8 Y-11.49 Z0.94 F6000.0
G1 X22.84 Y-12.1 Z0.94 F6000.0
G1 X22.77 Y-12.69 Z0.94 F6000.0
M108 R10.26
M103
(</perimeter>)
(</boundaryPerimeter>)
(</surroundingLoop>)
(<surroundingLoop>)
(<boundaryPerimeter>)
(<boundaryPoint> X22.853 Y9.832 Z0.945 </boundaryPoint>)
(<boundaryPoint> X22.581 Y9.355 Z0.945 </boundaryPoint>)
(<boundaryPoint> X22.222 Y8.94 Z0.945 </boundaryPoint>)
(<boundaryPoint> X21.789 Y8.603 Z0.945 </boundaryPoint>)
(<boundaryPoint> X21.298 Y8.357 Z0.945 </boundaryPoint>)
(<boundaryPoint> X20.769 Y8.212 Z0.945 </boundaryPoint>)
(<boundaryPoint> X20.221 Y8.172 Z0.945 </boundaryPoint>)
(<boundaryPoint> X19.677 Y8.24 Z0.945 </boundaryPoint>)
(<boundaryPoint> X19.156 Y8.414 Z0.945 </boundaryPoint>)
(<boundaryPoint> X18.679 Y8.685 Z0.945 </boundaryPoint>)
(<boundaryPoint> X18.264 Y9.044 Z0.945 </boundaryPoint>)
(<boundaryPoint> X17.927 Y9.477 Z0.945 </boundaryPoint>)
(<boundaryPoint> X17.681 Y9.968 Z0.945 </boundaryPoint>)
(<boundaryPoint> X17.535 Y10.497 Z0.945 </boundaryPoint>)
(<boundaryPoint> X17.496 Y11.045 Z0.945 </boundaryPoint>)
(<boundaryPoint> X17.564 Y11.589 Z0.945 </boundaryPoint>)
(<boundaryPoint> X17.737 Y12.11 Z0.945 </boundaryPoint>)
(<boundaryPoint> X18.008 Y12.588 Z0.945 </boundaryPoint>)
(<boundaryPoint> X18.368 Y13.003 Z0.945 </boundaryPoint>)
(<boundaryPoint> X18.801 Y13.339 Z0.945 </boundaryPoint>)
(<boundaryPoint> X19.292 Y13.585 Z0.945 </boundaryPoint>)
(<boundaryPoint> X19.821 Y13.731 Z0.945 </boundaryPoint>)
(<boundaryPoint> X20.368 Y13.77 Z0.945 </boundaryPoint>)
(<boundaryPoint> X20.913 Y13.702 Z0.945 </boundaryPoint>)
(<boundaryPoint> X21.434 Y13.529 Z0.945 </boundaryPoint>)
(<boundaryPoint> X21.911 Y13.258 Z0.945 </boundaryPoint>)
(<boundaryPoint> X22.326 Y12.899 Z0.945 </boundaryPoint>)
(<boundaryPoint> X22.663 Y12.465 Z0.945 </boundaryPoint>)
(<boundaryPoint> X22.909 Y11.975 Z0.945 </boundaryPoint>)
(<boundaryPoint> X23.054 Y11.445 Z0.945 </boundaryPoint>)
(<boundaryPoint> X23.094 Y10.898 Z0.945 </boundaryPoint>)
(<boundaryPoint> X23.026 Y10.353 Z0.945 </boundaryPoint>)
(<perimeter> inner )
G1 X20.98 Y6.27 Z0.94 F6000.0
M108 R30.0
M101
G1 X20.83 Y7.86 Z0.94 F6000.0
M108 R10.26
G1 X20.21 Y7.82 Z0.94 F6000.0
G1 X19.6 Y7.89 Z0.94 F6000.0
G1 X19.01 Y8.09 Z0.94 F6000.0
G1 X18.48 Y8.4 Z0.94 F6000.0
G1 X18.01 Y8.8 Z0.94 F6000.0
G1 X17.63 Y9.29 Z0.94 F6000.0
G1 X17.35 Y9.84 Z0.94 F6000.0
G1 X17.19 Y10.44 Z0.94 F6000.0
G1 X17.14 Y11.05 Z0.94 F6000.0
G1 X17.22 Y11.67 Z0.94 F6000.0
G1 X17.41 Y12.25 Z0.94 F6000.0
G1 X17.72 Y12.79 Z0.94 F6000.0
G1 X18.12 Y13.26 Z0.94 F6000.0
G1 X18.61 Y13.64 Z0.94 F6000.0
G1 X19.16 Y13.91 Z0.94 F6000.0
G1 X19.76 Y14.08 Z0.94 F6000.0
G1 X20.38 Y14.12 Z0.94 F6000.0
G1 X20.99 Y14.05 Z0.94 F6000.0
G1 X21.58 Y13.85 Z0.94 F6000.0
G1 X22.12 Y13.55 Z0.94 F6000.0
G1 X22.58 Y13.14 Z0.94 F6000.0
G1 X22.96 Y12.65 Z0.94 F6000.0
G1 X23.24 Y12.1 Z0.94 F6000.0
G1 X23.4 Y11.51 Z0.94 F6000.0
G1 X23.45 Y10.89 Z0.94 F6000.0
G1 X23.37 Y10.27 Z0.94 F6000.0
G1 X23.18 Y9.69 Z0.94 F6000.0
G1 X22.87 Y9.15 Z0.94 F6000.0
G1 X22.47 Y8.68 Z0.94 F6000.0
G1 X22.19 Y8.47 Z0.94 F6000.0
M108 R30.0
M102
G1 X21.98 Y8.3 Z0.94 F6000.0
G1 X21.43 Y8.03 Z0.94 F6000.0
G1 X20.83 Y7.86 Z0.94 F6000.0
M108 R10.26
M103
(</perimeter>)
(</boundaryPerimeter>)
(</surroundingLoop>)
(<surroundingLoop>)
(<boundaryPerimeter>)
(<boundaryPoint> X-16.892 Y11.947 Z0.945 </boundaryPoint>)
(<boundaryPoint> X-16.961 Y11.403 Z0.945 </boundaryPoint>)
(<boundaryPoint> X-17.134 Y10.882 Z0.945 </boundaryPoint>)
(<boundaryPoint> X-17.405 Y10.405 Z0.945 </boundaryPoint>)
(<boundaryPoint> X-17.764 Y9.99 Z0.945 </boundaryPoint>)
(<boundaryPoint> X-18.197 Y9.653 Z0.945 </boundaryPoint>)
(<boundaryPoint> X-18.688 Y9.407 Z0.945 </boundaryPoint>)
(<boundaryPoint> X-19.217 Y9.261 Z0.945 </boundaryPoint>)
(<boundaryPoint> X-19.765 Y9.222 Z0.945 </boundaryPoint>)
(<boundaryPoint> X-20.31 Y9.29 Z0.945 </boundaryPoint>)
(<boundaryPoint> X-20.83 Y9.463 Z0.945 </boundaryPoint>)
(<boundaryPoint> X-21.308 Y9.734 Z0.945 </boundaryPoint>)
(<boundaryPoint> X-21.723 Y10.093 Z0.945 </boundaryPoint>)
(<boundaryPoint> X-22.06 Y10.527 Z0.945 </boundaryPoint>)
(<boundaryPoint> X-22.306 Y11.017 Z0.945 </boundaryPoint>)
(<boundaryPoint> X-22.451 Y11.547 Z0.945 </boundaryPoint>)
(<boundaryPoint> X-22.49 Y12.094 Z0.945 </boundaryPoint>)
(<boundaryPoint> X-22.422 Y12.639 Z0.945 </boundaryPoint>)
(<boundaryPoint> X-22.249 Y13.16 Z0.945 </boundaryPoint>)
(<boundaryPoint> X-21.978 Y13.637 Z0.945 </boundaryPoint>)
(<boundaryPoint> X-21.619 Y14.052 Z0.945 </boundaryPoint>)
(<boundaryPoint> X-21.185 Y14.389 Z0.945 </boundaryPoint>)
(<boundaryPoint> X-20.695 Y14.635 Z0.945 </boundaryPoint>)
(<boundaryPoint> X-20.165 Y14.78 Z0.945 </boundaryPoint>)
(<boundaryPoint> X-19.618 Y14.82 Z0.945 </boundaryPoint>)
(<boundaryPoint> X-19.073 Y14.752 Z0.945 </boundaryPoint>)
(<boundaryPoint> X-18.552 Y14.579 Z0.945 </boundaryPoint>)
(<boundaryPoint> X-18.075 Y14.307 Z0.945 </boundaryPoint>)
(<boundaryPoint> X-17.66 Y13.948 Z0.945 </boundaryPoint>)
(<boundaryPoint> X-17.323 Y13.515 Z0.945 </boundaryPoint>)
(<boundaryPoint> X-17.077 Y13.024 Z0.945 </boundaryPoint>)
(<boundaryPoint> X-16.932 Y12.495 Z0.945 </boundaryPoint>)
(<perimeter> inner )
G1 X-14.95 Y11.77 Z0.94 F6000.0
M108 R30.0
M101
G1 X-16.54 Y11.94 Z0.94 F6000.0
M108 R10.26
G1 X-16.62 Y11.32 Z0.94 F6000.0
G1 X-16.81 Y10.74 Z0.94 F6000.0
G1 X-17.12 Y10.2 Z0.94 F6000.0
G1 X-17.52 Y9.73 Z0.94 F6000.0
G1 X-18.01 Y9.35 Z0.94 F6000.0
G1 X-18.56 Y9.08 Z0.94 F6000.0
G1 X-19.16 Y8.91 Z0.94 F6000.0
G1 X-19.77 Y8.87 Z0.94 F6000.0
G1 X-20.39 Y8.95 Z0.94 F6000.0
G1 X-20.97 Y9.14 Z0.94 F6000.0
G1 X-21.51 Y9.45 Z0.94 F6000.0
G1 X-21.98 Y9.85 Z0.94 F6000.0
G1 X-22.36 Y10.34 Z0.94 F6000.0
G1 X-22.64 Y10.89 Z0.94 F6000.0
G1 X-22.8 Y11.49 Z0.94 F6000.0
G1 X-22.84 Y12.1 Z0.94 F6000.0
G1 X-22.77 Y12.72 Z0.94 F6000.0
G1 X-22.57 Y13.3 Z0.94 F6000.0
G1 X-22.27 Y13.84 Z0.94 F6000.0
G1 X-21.86 Y14.31 Z0.94 F6000.0
G1 X-21.37 Y14.69 Z0.94 F6000.0
G1 X-20.82 Y14.96 Z0.94 F6000.0
G1 X-20.23 Y15.13 Z0.94 F6000.0
G1 X-19.61 Y15.17 Z0.94 F6000.0
G1 X-18.99 Y15.1 Z0.94 F6000.0
G1 X-18.41 Y14.9 Z0.94 F6000.0
G1 X-17.87 Y14.6 Z0.94 F6000.0
G1 X-17.4 Y14.19 Z0.94 F6000.0
G1 X-17.02 Y13.7 Z0.94 F6000.0
G1 X-16.86 Y13.39 Z0.94 F6000.0
M108 R30.0
M102
G1 X-16.75 Y13.15 Z0.94 F6000.0
G1 X-16.58 Y12.55 Z0.94 F6000.0
G1 X-16.54 Y11.94 Z0.94 F6000.0
M108 R10.26
M103
(</perimeter>)
(</boundaryPerimeter>)
(</surroundingLoop>)
(<surroundingLoop>)
(<boundaryPerimeter>)
(<boundaryPoint> X-17.496 Y-11.045 Z0.945 </boundaryPoint>)
(<boundaryPoint> X-17.564 Y-11.589 Z0.945 </boundaryPoint>)
(<boundaryPoint> X-17.737 Y-12.11 Z0.945 </boundaryPoint>)
(<boundaryPoint> X-18.008 Y-12.588 Z0.945 </boundaryPoint>)
(<boundaryPoint> X-18.368 Y-13.003 Z0.945 </boundaryPoint>)
(<boundaryPoint> X-18.801 Y-13.339 Z0.945 </boundaryPoint>)
(<boundaryPoint> X-19.292 Y-13.585 Z0.945 </boundaryPoint>)
(<boundaryPoint> X-19.821 Y-13.731 Z0.945 </boundaryPoint>)
(<boundaryPoint> X-20.368 Y-13.77 Z0.945 </boundaryPoint>)
(<boundaryPoint> X-20.913 Y-13.702 Z0.945 </boundaryPoint>)
(<boundaryPoint> X-21.434 Y-13.529 Z0.945 </boundaryPoint>)
(<boundaryPoint> X-21.911 Y-13.258 Z0.945 </boundaryPoint>)
(<boundaryPoint> X-22.326 Y-12.899 Z0.945 </boundaryPoint>)
(<boundaryPoint> X-22.663 Y-12.465 Z0.945 </boundaryPoint>)
(<boundaryPoint> X-22.909 Y-11.975 Z0.945 </boundaryPoint>)
(<boundaryPoint> X-23.054 Y-11.445 Z0.945 </boundaryPoint>)
(<boundaryPoint> X-23.094 Y-10.898 Z0.945 </boundaryPoint>)
(<boundaryPoint> X-23.026 Y-10.353 Z0.945 </boundaryPoint>)
(<boundaryPoint> X-22.853 Y-9.832 Z0.945 </boundaryPoint>)
(<boundaryPoint> X-22.581 Y-9.355 Z0.945 </boundaryPoint>)
(<boundaryPoint> X-22.222 Y-8.94 Z0.945 </boundaryPoint>)
(<boundaryPoint> X-21.789 Y-8.603 Z0.945 </boundaryPoint>)
(<boundaryPoint> X-21.298 Y-8.357 Z0.945 </boundaryPoint>)
(<boundaryPoint> X-20.769 Y-8.212 Z0.945 </boundaryPoint>)
(<boundaryPoint> X-20.221 Y-8.172 Z0.945 </boundaryPoint>)
(<boundaryPoint> X-19.677 Y-8.24 Z0.945 </boundaryPoint>)
(<boundaryPoint> X-19.156 Y-8.414 Z0.945 </boundaryPoint>)
(<boundaryPoint> X-18.679 Y-8.685 Z0.945 </boundaryPoint>)
(<boundaryPoint> X-18.264 Y-9.044 Z0.945 </boundaryPoint>)
(<boundaryPoint> X-17.927 Y-9.477 Z0.945 </boundaryPoint>)
(<boundaryPoint> X-17.681 Y-9.968 Z0.945 </boundaryPoint>)
(<boundaryPoint> X-17.535 Y-10.497 Z0.945 </boundaryPoint>)
(<perimeter> inner )
G1 X-19.35 Y-6.31 Z0.94 F6000.0
M108 R30.0
M101
G1 X-19.6 Y-7.89 Z0.94 F6000.0
M108 R10.26
G1 X-19.01 Y-8.09 Z0.94 F6000.0
G1 X-18.48 Y-8.4 Z0.94 F6000.0
G1 X-18.01 Y-8.8 Z0.94 F6000.0
G1 X-17.63 Y-9.29 Z0.94 F6000.0
G1 X-17.35 Y-9.84 Z0.94 F6000.0
G1 X-17.19 Y-10.44 Z0.94 F6000.0
G1 X-17.14 Y-11.05 Z0.94 F6000.0
G1 X-17.22 Y-11.67 Z0.94 F6000.0
G1 X-17.41 Y-12.25 Z0.94 F6000.0
G1 X-17.72 Y-12.79 Z0.94 F6000.0
G1 X-18.12 Y-13.26 Z0.94 F6000.0
G1 X-18.61 Y-13.64 Z0.94 F6000.0
G1 X-19.16 Y-13.91 Z0.94 F6000.0
G1 X-19.76 Y-14.08 Z0.94 F6000.0
G1 X-20.38 Y-14.12 Z0.94 F6000.0
G1 X-20.99 Y-14.05 Z0.94 F6000.0
G1 X-21.58 Y-13.85 Z0.94 F6000.0
G1 X-22.12 Y-13.55 Z0.94 F6000.0
G1 X-22.58 Y-13.14 Z0.94 F6000.0
G1 X-22.96 Y-12.65 Z0.94 F6000.0
G1 X-23.24 Y-12.1 Z0.94 F6000.0
G1 X-23.4 Y-11.51 Z0.94 F6000.0
G1 X-23.45 Y-10.89 Z0.94 F6000.0
G1 X-23.37 Y-10.27 Z0.94 F6000.0
G1 X-23.18 Y-9.69 Z0.94 F6000.0
G1 X-22.87 Y-9.15 Z0.94 F6000.0
G1 X-22.47 Y-8.68 Z0.94 F6000.0
G1 X-21.98 Y-8.3 Z0.94 F6000.0
G1 X-21.43 Y-8.03 Z0.94 F6000.0
G1 X-20.83 Y-7.86 Z0.94 F6000.0
G1 X-20.21 Y-7.82 Z0.94 F6000.0
G1 X-19.6 Y-7.89 Z0.94 F6000.0
M103
(</perimeter>)
(</boundaryPerimeter>)
(</surroundingLoop>)
(<loop> outer )
G1 X-19.51 Y-7.51 Z0.94 F6000.0
M101
G1 X-18.85 Y-7.73 Z0.94 F6000.0
G1 X-18.25 Y-8.07 Z0.94 F6000.0
G1 X-17.72 Y-8.53 Z0.94 F6000.0
G1 X-17.29 Y-9.08 Z0.94 F6000.0
G1 X-16.98 Y-9.7 Z0.94 F6000.0
G1 X-16.8 Y-10.37 Z0.94 F6000.0
G1 X-16.75 Y-11.06 Z0.94 F6000.0
G1 X-16.83 Y-11.76 Z0.94 F6000.0
G1 X-17.08 Y-12.41 Z0.94 F6000.0
G1 X-17.52 Y-13.03 Z0.94 F6000.0
G1 X-17.83 Y-13.33 Z0.94 F6000.0
G1 X-17.64 Y-13.84 Z0.94 F6000.0
G1 X16.89 Y-14.75 Z0.94 F6000.0
G1 X17.11 Y-14.25 Z0.94 F6000.0
G1 X16.81 Y-13.93 Z0.94 F6000.0
G1 X16.41 Y-13.29 Z0.94 F6000.0
G1 X16.19 Y-12.62 Z0.94 F6000.0
G1 X16.14 Y-11.93 Z0.94 F6000.0
G1 X16.23 Y-11.24 Z0.94 F6000.0
G1 X16.45 Y-10.58 Z0.94 F6000.0
G1 X16.79 Y-9.97 Z0.94 F6000.0
G1 X17.25 Y-9.45 Z0.94 F6000.0
G1 X17.8 Y-9.02 Z0.94 F6000.0
G1 X18.42 Y-8.71 Z0.94 F6000.0
G1 X19.09 Y-8.52 Z0.94 F6000.0
G1 X19.79 Y-8.47 Z0.94 F6000.0
G1 X20.48 Y-8.56 Z0.94 F6000.0
G1 X21.13 Y-8.8 Z0.94 F6000.0
G1 X21.75 Y-9.24 Z0.94 F6000.0
G1 X22.07 Y-9.57 Z0.94 F6000.0
G1 X22.56 Y-9.46 Z0.94 F6000.0
G1 X23.03 Y8.26 Z0.94 F6000.0
G1 X22.55 Y8.4 Z0.94 F6000.0
G1 X22.2 Y8.09 Z0.94 F6000.0
G1 X21.56 Y7.68 Z0.94 F6000.0
G1 X20.9 Y7.47 Z0.94 F6000.0
G1 X20.2 Y7.42 Z0.94 F6000.0
G1 X19.51 Y7.51 Z0.94 F6000.0
G1 X18.85 Y7.73 Z0.94 F6000.0
G1 X18.25 Y8.07 Z0.94 F6000.0
G1 X17.72 Y8.53 Z0.94 F6000.0
G1 X17.29 Y9.08 Z0.94 F6000.0
G1 X16.98 Y9.7 Z0.94 F6000.0
G1 X16.8 Y10.37 Z0.94 F6000.0
G1 X16.75 Y11.06 Z0.94 F6000.0
G1 X16.83 Y11.76 Z0.94 F6000.0
G1 X17.08 Y12.41 Z0.94 F6000.0
G1 X17.52 Y13.03 Z0.94 F6000.0
G1 X17.83 Y13.33 Z0.94 F6000.0
G1 X17.64 Y13.84 Z0.94 F6000.0
G1 X-16.89 Y14.75 Z0.94 F6000.0
G1 X-17.11 Y14.25 Z0.94 F6000.0
G1 X-16.81 Y13.93 Z0.94 F6000.0
G1 X-16.41 Y13.29 Z0.94 F6000.0
G1 X-16.19 Y12.62 Z0.94 F6000.0
G1 X-16.14 Y11.93 Z0.94 F6000.0
G1 X-16.23 Y11.24 Z0.94 F6000.0
G1 X-16.45 Y10.58 Z0.94 F6000.0
G1 X-16.79 Y9.97 Z0.94 F6000.0
G1 X-17.25 Y9.45 Z0.94 F6000.0
G1 X-17.8 Y9.02 Z0.94 F6000.0
G1 X-18.42 Y8.71 Z0.94 F6000.0
G1 X-19.09 Y8.52 Z0.94 F6000.0
G1 X-19.79 Y8.47 Z0.94 F6000.0
G1 X-20.48 Y8.56 Z0.94 F6000.0
G1 X-21.13 Y8.8 Z0.94 F6000.0
G1 X-21.75 Y9.24 Z0.94 F6000.0
G1 X-22.07 Y9.57 Z0.94 F6000.0
G1 X-22.56 Y9.46 Z0.94 F6000.0
G1 X-23.03 Y-8.26 Z0.94 F6000.0
G1 X-22.55 Y-8.4 Z0.94 F6000.0
G1 X-22.2 Y-8.09 Z0.94 F6000.0
G1 X-21.56 Y-7.68 Z0.94 F6000.0
G1 X-21.0 Y-7.5 Z0.94 F6000.0
M108 R30.0
M102
G1 X-20.9 Y-7.47 Z0.94 F6000.0
G1 X-20.2 Y-7.42 Z0.94 F6000.0
G1 X-19.51 Y-7.51 Z0.94 F6000.0
M108 R10.26
M103
(</loop>)
G1 X-19.11 Y-7.67 Z0.94 F6000.0
M108 R30.0
M101
G1 X-17.63 Y-8.27 Z0.94 F6000.0
M108 R10.26
G1 X-18.29 Y-7.76 Z0.94 F6000.0
G1 X-17.73 Y-7.38 Z0.94 F6000.0
G1 X-17.43 Y-7.38 Z0.94 F6000.0
G1 X-17.19 Y-8.79 Z0.94 F6000.0
G1 X-16.89 Y-9.31 Z0.94 F6000.0
G1 X-15.36 Y-9.17 Z0.94 F6000.0
G1 X-13.6 Y-7.38 Z0.94 F6000.0
G1 X-13.29 Y-7.38 Z0.94 F6000.0
G1 X-11.53 Y-9.17 Z0.94 F6000.0
G1 X-11.23 Y-9.17 Z0.94 F6000.0
G1 X-9.46 Y-7.38 Z0.94 F6000.0
G1 X-9.16 Y-7.38 Z0.94 F6000.0
G1 X-7.39 Y-9.17 Z0.94 F6000.0
G1 X-7.09 Y-9.17 Z0.94 F6000.0
G1 X-5.32 Y-7.38 Z0.94 F6000.0
G1 X-5.02 Y-7.38 Z0.94 F6000.0
G1 X-3.25 Y-9.17 Z0.94 F6000.0
G1 X-2.95 Y-9.17 Z0.94 F6000.0
G1 X-1.19 Y-7.38 Z0.94 F6000.0
G1 X-0.88 Y-7.38 Z0.94 F6000.0
G1 X0.88 Y-9.17 Z0.94 F6000.0
G1 X1.19 Y-9.17 Z0.94 F6000.0
G1 X2.95 Y-7.38 Z0.94 F6000.0
G1 X3.25 Y-7.38 Z0.94 F6000.0
G1 X5.02 Y-9.17 Z0.94 F6000.0
G1 X5.32 Y-9.17 Z0.94 F6000.0
G1 X7.09 Y-7.38 Z0.94 F6000.0
G1 X7.39 Y-7.38 Z0.94 F6000.0
G1 X9.16 Y-9.17 Z0.94 F6000.0
G1 X9.46 Y-9.17 Z0.94 F6000.0
G1 X11.23 Y-7.38 Z0.94 F6000.0
G1 X11.53 Y-7.38 Z0.94 F6000.0
G1 X13.29 Y-9.17 Z0.94 F6000.0
G1 X13.6 Y-9.17 Z0.94 F6000.0
G1 X15.36 Y-7.38 Z0.94 F6000.0
G1 X15.66 Y-7.38 Z0.94 F6000.0
G1 X17.58 Y-7.89 Z0.94 F6000.0
M108 R30.0
M102
G1 X19.03 Y-8.27 Z0.94 F6000.0
M108 R10.26
M103
M108 R30.0
M101
G1 X20.25 Y-8.27 Z0.94 F4552.5
M108 R10.26
G1 X22.32 Y-7.24 Z0.94 F6000.0
G1 X22.3 Y-7.89 Z0.94 F6000.0
M108 R30.0
M102
G1 X22.28 Y-8.79 Z0.94 F6000.0
G1 X21.67 Y-8.79 Z0.94 F6000.0
M108 R10.26
M103
G1 X21.94 Y-7.75 Z0.94 F6000.0
M108 R30.0
M101
G1 X22.34 Y-6.21 Z0.94 F6000.0
M108 R10.26
G1 X22.33 Y-6.72 Z0.94 F6000.0
G1 X19.8 Y-7.24 Z0.94 F6000.0
G1 X19.5 Y-7.24 Z0.94 F6000.0
G1 X17.73 Y-5.31 Z0.94 F6000.0
G1 X17.43 Y-5.31 Z0.94 F6000.0
G1 X15.66 Y-7.1 Z0.94 F6000.0
G1 X15.36 Y-7.1 Z0.94 F6000.0
G1 X13.6 Y-5.31 Z0.94 F6000.0
G1 X13.29 Y-5.31 Z0.94 F6000.0
G1 X11.53 Y-7.1 Z0.94 F6000.0
G1 X11.23 Y-7.1 Z0.94 F6000.0
G1 X9.46 Y-5.31 Z0.94 F6000.0
G1 X9.16 Y-5.31 Z0.94 F6000.0
G1 X7.39 Y-7.1 Z0.94 F6000.0
G1 X7.09 Y-7.1 Z0.94 F6000.0
G1 X5.32 Y-5.31 Z0.94 F6000.0
G1 X5.02 Y-5.31 Z0.94 F6000.0
G1 X3.25 Y-7.1 Z0.94 F6000.0
G1 X2.95 Y-7.1 Z0.94 F6000.0
G1 X1.19 Y-5.31 Z0.94 F6000.0
G1 X0.88 Y-5.31 Z0.94 F6000.0
G1 X-0.88 Y-7.1 Z0.94 F6000.0
G1 X-1.19 Y-7.1 Z0.94 F6000.0
G1 X-2.95 Y-5.31 Z0.94 F6000.0
G1 X-3.25 Y-5.31 Z0.94 F6000.0
G1 X-5.02 Y-7.1 Z0.94 F6000.0
G1 X-5.32 Y-7.1 Z0.94 F6000.0
G1 X-7.09 Y-5.31 Z0.94 F6000.0
G1 X-7.39 Y-5.31 Z0.94 F6000.0
G1 X-9.16 Y-7.1 Z0.94 F6000.0
G1 X-9.46 Y-7.1 Z0.94 F6000.0
G1 X-11.23 Y-5.31 Z0.94 F6000.0
G1 X-11.53 Y-5.31 Z0.94 F6000.0
G1 X-13.29 Y-7.1 Z0.94 F6000.0
G1 X-13.6 Y-7.1 Z0.94 F6000.0
G1 X-15.36 Y-5.31 Z0.94 F6000.0
G1 X-15.66 Y-5.31 Z0.94 F6000.0
G1 X-17.43 Y-7.1 Z0.94 F6000.0
G1 X-17.73 Y-7.1 Z0.94 F6000.0
G1 X-19.5 Y-5.31 Z0.94 F6000.0
G1 X-19.8 Y-5.31 Z0.94 F6000.0
G1 X-19.61 Y-6.72 Z0.94 F6000.0
G1 X-21.01 Y-7.24 Z0.94 F6000.0
G1 X-22.64 Y-5.17 Z0.94 F6000.0
G1 X-22.68 Y-6.72 Z0.94 F6000.0
G1 X-22.54 Y-6.8 Z0.94 F6000.0
M108 R30.0
M102
G1 X-22.27 Y-6.94 Z0.94 F6000.0
G1 X-22.33 Y-7.76 Z0.94 F6000.0
G1 X-22.71 Y-7.76 Z0.94 F6000.0
M108 R10.26
M103
G1 X-22.67 Y-6.25 Z0.94 F6000.0
M108 R30.0
M101
G1 X-22.63 Y-4.65 Z0.94 F6000.0
M108 R10.26
G1 X-22.62 Y-4.14 Z0.94 F6000.0
G1 X-22.09 Y-3.63 Z0.94 F6000.0
G1 X-21.87 Y-3.24 Z0.94 F6000.0
G1 X-21.57 Y-3.24 Z0.94 F6000.0
G1 X-19.8 Y-5.04 Z0.94 F6000.0
G1 X-19.5 Y-5.04 Z0.94 F6000.0
G1 X-17.73 Y-3.24 Z0.94 F6000.0
G1 X-17.43 Y-3.24 Z0.94 F6000.0
G1 X-15.66 Y-5.04 Z0.94 F6000.0
G1 X-15.36 Y-5.04 Z0.94 F6000.0
G1 X-13.6 Y-3.24 Z0.94 F6000.0
G1 X-13.29 Y-3.24 Z0.94 F6000.0
G1 X-11.53 Y-5.04 Z0.94 F6000.0
G1 X-11.23 Y-5.04 Z0.94 F6000.0
G1 X-9.46 Y-3.24 Z0.94 F6000.0
G1 X-9.16 Y-3.24 Z0.94 F6000.0
G1 X-7.39 Y-5.04 Z0.94 F6000.0
G1 X-7.09 Y-5.04 Z0.94 F6000.0
G1 X-5.32 Y-3.24 Z0.94 F6000.0
G1 X-5.02 Y-3.24 Z0.94 F6000.0
G1 X-3.25 Y-5.04 Z0.94 F6000.0
G1 X-2.95 Y-5.04 Z0.94 F6000.0
G1 X-1.19 Y-3.24 Z0.94 F6000.0
G1 X-0.88 Y-3.24 Z0.94 F6000.0
G1 X0.88 Y-5.04 Z0.94 F6000.0
G1 X1.19 Y-5.04 Z0.94 F6000.0
G1 X2.95 Y-3.24 Z0.94 F6000.0
G1 X3.25 Y-3.24 Z0.94 F6000.0
G1 X5.02 Y-5.04 Z0.94 F6000.0
G1 X5.32 Y-5.04 Z0.94 F6000.0
